;FLAVOR:Marlin
;TIME:4791
;Filament used: 2.30734m
;Layer height: 0.2
;Generated with Cura_SteamEngine 3.1.0
M190 S60
M104 S230
M109 S230
M82 ; absolute extrusion mode
G28 ;Home
G1 Z15.0 F6000 ;Move the platform down 15mm
;Prime the extruder
G92 E0
G1 F200 E3
G92 E0
;LAYER_COUNT:915
;LAYER:0
M107
G0 F3600 X92.427 Y112.587 Z0.2
;TYPE:SKIRT
G1 F1800 X92.541 Y112.205 E0.01352
G1 X92.729 Y111.852 E0.02709
G1 X92.983 Y111.544 E0.04064
G1 X93.293 Y111.292 E0.05419
G1 X93.729 Y111.077 E0.07068
G1 X99.342 Y109.11 E0.27246
G1 X104.48 Y106.972 E0.46126
G1 X109.459 Y104.564 E0.64889
G1 X114.298 Y101.875 E0.8367
G1 X118.988 Y98.912 E1.0249
G1 X124.365 Y95.036 E1.24977
G1 X124.639 Y94.87 E1.26064
G1 X125.517 Y94.43 E1.29396
G1 X126.019 Y94.257 E1.31197
G1 X126.616 Y94.137 E1.33263
G1 X127.127 Y94.101 E1.35001
G1 X128.033 Y94.154 E1.38079
G1 X128.518 Y94.244 E1.39753
G1 X129.063 Y94.416 E1.41692
G1 X129.434 Y94.576 E1.43062
G1 X129.987 Y94.884 E1.4521
G1 X130.301 Y95.1 E1.46503
G1 X130.696 Y95.432 E1.48253
G1 X130.982 Y95.728 E1.4965
G1 X131.431 Y96.3 E1.52117
G1 X131.715 Y96.793 E1.54047
G1 X132.071 Y97.684 E1.57302
G1 X132.204 Y98.224 E1.59189
G1 X132.274 Y98.912 E1.61535
G1 X132.272 Y99.334 E1.62966
G1 X132.209 Y99.904 E1.64912
G1 X132.171 Y100.13 E1.65689
G1 X131.032 Y105.109 E1.83017
G1 X130.514 Y107.841 E1.92451
G1 X130.09 Y110.515 E2.01636
G1 X129.444 Y116.064 E2.20588
G1 X129.287 Y118.066 E2.27401
G1 X129.216 Y118.459 E2.28756
G1 X129.069 Y118.83 E2.30109
G1 X128.85 Y119.165 E2.31467
G1 X128.57 Y119.449 E2.3282
G1 X128.238 Y119.673 E2.34179
G1 X127.869 Y119.825 E2.35533
G1 X127.477 Y119.902 E2.36888
G1 X126.987 Y119.886 E2.38551
G1 X109.487 Y117.173 E2.9863
G1 X100.414 Y116.072 E3.29636
G1 X94.25 Y115.616 E3.50605
G1 X93.857 Y115.546 E3.51959
G1 X93.485 Y115.4 E3.53315
G1 X93.15 Y115.184 E3.54667
G1 X92.864 Y114.904 E3.56025
G1 X92.64 Y114.574 E3.57378
G1 X92.485 Y114.205 E3.58736
G1 X92.398 Y113.642 E3.60669
G1 X92.391 Y112.985 E3.62898
G1 X92.427 Y112.587 E3.64253
G0 F3600 X92.827 Y112.626
G1 F1800 X92.941 Y112.287 E3.65467
G1 X93.128 Y111.982 E3.6668
G1 X93.377 Y111.727 E3.67889
G1 X93.677 Y111.532 E3.69103
G1 X93.862 Y111.454 E3.69784
G1 X99.495 Y109.48 E3.90034
G1 X104.636 Y107.341 E4.08924
G1 X109.635 Y104.923 E4.27763
G1 X114.505 Y102.217 E4.46664
G1 X119.214 Y99.242 E4.65561
G1 X124.599 Y95.36 E4.88082
G1 X124.818 Y95.228 E4.88949
G1 X125.696 Y94.788 E4.92281
G1 X126.098 Y94.649 E4.93724
G1 X126.695 Y94.529 E4.9579
G1 X127.103 Y94.501 E4.97177
G1 X128.009 Y94.554 E5.00256
G1 X128.398 Y94.625 E5.01598
G1 X128.943 Y94.797 E5.03537
G1 X129.24 Y94.925 E5.04634
G1 X129.793 Y95.233 E5.06781
G1 X130.043 Y95.406 E5.07813
G1 X130.438 Y95.738 E5.09563
G1 X130.668 Y95.975 E5.10683
G1 X131.117 Y96.547 E5.1315
G1 X131.344 Y96.941 E5.14693
G1 X131.7 Y97.832 E5.17948
G1 X131.806 Y98.264 E5.19457
G1 X131.876 Y98.952 E5.21803
G1 X131.874 Y99.29 E5.2295
G1 X131.811 Y99.86 E5.24896
G1 X131.781 Y100.041 E5.25518
G1 X130.641 Y105.024 E5.4286
G1 X130.117 Y107.788 E5.52404
G1 X129.691 Y110.476 E5.61637
G1 X129.045 Y116.029 E5.80602
G1 X128.888 Y118.035 E5.87429
G1 X128.821 Y118.386 E5.88641
G1 X128.677 Y118.713 E5.89853
G1 X128.465 Y119 E5.91064
G1 X128.194 Y119.233 E5.92276
G1 X127.878 Y119.399 E5.93487
G1 X127.533 Y119.492 E5.94699
G1 X127.048 Y119.491 E5.96345
G1 X109.535 Y116.776 E6.56468
G1 X100.448 Y115.673 E6.87522
G1 X94.28 Y115.217 E7.08504
G1 X93.929 Y115.151 E7.09716
G1 X93.601 Y115.008 E7.1093
G1 X93.313 Y114.797 E7.12141
G1 X93.079 Y114.527 E7.13353
G1 X92.911 Y114.212 E7.14564
G1 X92.817 Y113.867 E7.15777
G1 X92.798 Y113.638 E7.16557
G1 X92.791 Y112.981 E7.18786
G1 X92.827 Y112.626 E7.19996
G0 F3600 X93.228 Y112.67
G1 F1800 X93.341 Y112.382 E7.21046
G1 X93.525 Y112.133 E7.22096
G1 X93.766 Y111.94 E7.23144
G1 X93.994 Y111.832 E7.24
G1 X99.629 Y109.857 E7.44257
G1 X104.8 Y107.706 E7.63257
G1 X109.824 Y105.276 E7.8219
G1 X114.707 Y102.562 E8.01142
G1 X119.444 Y99.57 E8.2015
G1 X124.833 Y95.685 E8.42688
G1 X124.997 Y95.585 E8.4334
G1 X125.875 Y95.145 E8.46671
G1 X126.177 Y95.042 E8.47754
G1 X126.774 Y94.922 E8.4982
G1 X127.08 Y94.9 E8.50861
G1 X127.986 Y94.953 E8.53939
G1 X128.277 Y95.007 E8.54944
G1 X128.822 Y95.179 E8.56882
G1 X129.045 Y95.275 E8.57706
G1 X129.598 Y95.583 E8.59853
G1 X129.786 Y95.712 E8.60627
G1 X130.181 Y96.044 E8.62377
G1 X130.353 Y96.222 E8.63217
G1 X130.802 Y96.794 E8.65684
G1 X130.972 Y97.09 E8.66842
G1 X131.328 Y97.981 E8.70097
G1 X131.408 Y98.305 E8.7123
G1 X131.478 Y98.993 E8.73576
G1 X131.477 Y99.246 E8.74434
G1 X131.414 Y99.816 E8.76379
G1 X131.391 Y99.952 E8.76847
G1 X130.246 Y104.956 E8.94262
G1 X129.724 Y107.713 E9.03782
G1 X129.296 Y110.417 E9.13069
G1 X128.644 Y116.017 E9.32196
G1 X128.489 Y118.004 E9.38957
G1 X128.426 Y118.306 E9.40004
G1 X128.287 Y118.582 E9.41052
G1 X128.082 Y118.814 E9.42103
G1 X127.825 Y118.986 E9.43152
G1 X127.532 Y119.086 E9.44202
G1 X127.109 Y119.096 E9.45638
G1 X109.584 Y116.379 E10.05802
G1 X100.483 Y115.275 E10.36904
G1 X94.309 Y114.818 E10.57907
G1 X94.007 Y114.755 E10.58953
G1 X93.73 Y114.618 E10.60002
G1 X93.497 Y114.414 E10.61052
G1 X93.325 Y114.157 E10.62101
G1 X93.223 Y113.865 E10.63151
G1 X93.198 Y113.634 E10.63939
G1 X93.191 Y112.977 E10.66168
G1 X93.228 Y112.67 E10.67217
G1 F1500 E9.87217
G0 F3600 X94.58 Y113.136
;TYPE:WALL-OUTER
G1 F1500 E10.71374
G1 F1200 X99.911 Y112.8 E10.89496
G1 X104.42 Y112.336 E11.04874
G1 X112.095 Y111.293 E11.31151
G1 X125.352 Y97.059 E11.9714
G1 X125.589 Y96.855 E11.98201
G1 X125.846 Y96.679 E11.99258
G1 X125.975 Y96.606 E11.9976
G1 X126.266 Y96.471 E12.00849
G1 X126.405 Y96.42 E12.01351
G1 X126.707 Y96.338 E12.02413
G1 X127.014 Y96.289 E12.03467
G1 X127.325 Y96.275 E12.04524
G1 X127.479 Y96.281 E12.05046
G1 X127.789 Y96.32 E12.06106
G1 X128.101 Y96.394 E12.07194
G1 X128.396 Y96.502 E12.0826
G1 X128.525 Y96.56 E12.0874
G1 X128.672 Y96.638 E12.09304
G1 X128.928 Y96.801 E12.10334
G1 X129.056 Y96.899 E12.10881
G1 X129.279 Y97.1 E12.11899
G1 X129.387 Y97.216 E12.12437
G1 X129.582 Y97.461 E12.13499
G1 X129.664 Y97.583 E12.13998
G1 X129.745 Y97.72 E12.14538
G1 X129.879 Y97.999 E12.15588
G1 X129.983 Y98.295 E12.16652
G1 X130.051 Y98.586 E12.17666
G1 X130.09 Y98.915 E12.1879
G1 X130.094 Y99.048 E12.19242
G1 X130.078 Y99.367 E12.20325
G1 X130.027 Y99.684 E12.21414
G1 X129.992 Y99.825 E12.21907
G1 X129.892 Y100.119 E12.22961
G1 X129.835 Y100.251 E12.23449
G1 X125.278 Y108.843 E12.56443
G1 X125.036 Y109.31 E12.58228
G1 X125.301 Y109.449 E12.59243
G1 X127.104 Y116.153 E12.82795
G1 X127.102 Y117.687 E12.87999
G1 X110.322 Y115.07 E13.45614
G1 X108.494 Y114.809 E13.51878
G1 X102.389 Y114.029 E13.72758
G1 X102.386 Y114.036 E13.72784
G1 X98.273 Y113.675 E13.86791
G1 X94.58 Y113.442 E13.99344
G1 X94.58 Y113.136 E14.00382
G0 F3600 X94.779 Y113.124
G1 F1500 E13.20382
G0 F3600 X103.905 Y112.776
G1 F1500 E14.0454
G1 F1200 X103.905 Y113.83 E14.08116
G1 X104.358 Y113.839 E14.09653
G1 X104.359 Y112.767 E14.1329
G1 X103.905 Y112.776 E14.1483
G0 F3600 X103.905 Y112.976
G1 F1500 E13.3483
G0 F3600 X120.138 Y106.567
G1 F1500 E14.18988
G1 F1200 X120.126 Y116.23 E14.5177
G1 X120.579 Y116.239 E14.53307
G1 X120.588 Y106.765 E14.85448
G1 X120.138 Y106.567 E14.87116
G0 F3600 X120.138 Y106.767
G1 F1500 E14.07116
G0 F3600 X126.509 Y98.747
G1 F1500 E14.91273
G1 F1200 X126.454 Y98.941 E14.91957
G1 X126.445 Y99.142 E14.9264
G1 X126.485 Y99.342 E14.93332
G1 X126.568 Y99.516 E14.93986
G1 X126.632 Y99.609 E14.94369
G1 X126.771 Y99.746 E14.95031
G1 X126.939 Y99.848 E14.95698
G1 X127.039 Y99.885 E14.96059
G1 X127.142 Y99.911 E14.9642
G1 X127.329 Y99.925 E14.97056
G1 X127.443 Y99.914 E14.97444
G1 X127.631 Y99.857 E14.98111
G1 X127.804 Y99.758 E14.98787
G1 X127.951 Y99.618 E14.99476
G1 X128.056 Y99.453 E15.00139
G1 X128.098 Y99.354 E15.00504
G1 X128.124 Y99.257 E15.00845
G1 X128.14 Y99.153 E15.01202
G1 X128.139 Y98.958 E15.01863
G1 X128.086 Y98.761 E15.02555
G1 X127.991 Y98.585 E15.03234
G1 X127.857 Y98.436 E15.03914
G1 X127.69 Y98.321 E15.04602
G1 X127.502 Y98.251 E15.05282
G1 X127.303 Y98.225 E15.05963
G1 X127.103 Y98.244 E15.06645
G1 X126.912 Y98.313 E15.07334
G1 X126.744 Y98.426 E15.08021
G1 X126.609 Y98.572 E15.08695
G1 X126.509 Y98.747 E15.09379
G0 F3600 X126.455 Y98.94
G1 F1500 E14.29379
G0 F3600 X129.681 Y98.002
;TYPE:SKIN
G1 F1500 E15.13536
G1 F1200 X128.362 Y96.684 E15.19862
G1 X128.292 Y96.614
G0 F3600 X127.588 Y96.476
G1 F1200 X129.891 Y98.779 E15.30912
G1 X129.961 Y98.849
G0 F3600 X129.897 Y99.35
G1 F1200 X127.018 Y96.471 E15.44724
G1 X126.948 Y96.401
G0 F3600 X126.548 Y96.566
G1 F1200 X129.802 Y99.821 E15.60339
G1 X129.872 Y99.891
G0 F3600 X129.643 Y100.227
G1 F1200 X128.307 Y98.891 E15.66748
G1 X128.237 Y98.821
G0 F3600 X128.266 Y99.416
G1 F1200 X129.447 Y100.597 E15.72415
G1 X129.517 Y100.667
G0 F3600 X129.251 Y100.967
G1 F1200 X128.053 Y99.769 E15.78162
G1 X127.983 Y99.699
G0 F3600 X127.728 Y100.009
G1 F1200 X129.054 Y101.336 E15.84527
G1 X129.124 Y101.406
G0 F3600 X128.858 Y101.705
G1 F1200 X127.253 Y100.1 E15.92227
G1 X127.183 Y100.03
G1 F1500 E15.12227
G0 F3600 X126.265 Y99.112
G1 F1500 E15.96385
G1 F1200 X124.928 Y97.775 E16.02799
G1 X124.858 Y97.705
G0 F3600 X125.201 Y97.483
G1 F1200 X126.36 Y98.642 E16.0836
G1 X126.43 Y98.712
G0 F3600 X126.6 Y98.316
G1 F1200 X125.475 Y97.191 E16.13757
G1 X125.405 Y97.121
G0 F3600 X125.787 Y96.937
G1 F1200 X126.955 Y98.105 E16.19361
G1 X127.025 Y98.175
G0 F3600 X127.483 Y98.067
G1 F1200 X126.142 Y96.726 E16.25795
G1 X126.072 Y96.656
G1 F1500 E15.45795
G0 F3600 X124.655 Y98.068
G1 F1500 E16.29952
G1 F1200 X128.663 Y102.075 E16.49179
G1 X128.733 Y102.145
G0 F3600 X128.467 Y102.445
G1 F1200 X124.382 Y98.361 E16.68776
G1 X124.312 Y98.291
G0 F3600 X124.11 Y98.654
G1 F1200 X128.271 Y102.815 E16.88739
G1 X128.341 Y102.885
G0 F3600 X128.074 Y103.184
G1 F1200 X123.837 Y98.947 E17.09068
G1 X123.767 Y98.877
G0 F3600 X123.564 Y99.24
G1 F1200 X127.878 Y103.554 E17.29765
G1 X127.948 Y103.624
G0 F3600 X127.682 Y103.924
G1 F1200 X123.291 Y99.533 E17.50832
G1 X123.221 Y99.463
G0 F3600 X123.018 Y99.825
G1 F1200 X127.487 Y104.294 E17.72273
G1 X127.557 Y104.364
G0 F3600 X127.29 Y104.663
G1 F1200 X122.746 Y100.119 E17.94074
G1 X122.676 Y100.049
G0 F3600 X122.473 Y100.411
G1 F1200 X127.094 Y105.032 E18.16245
G1 X127.164 Y105.102
G0 F3600 X126.898 Y105.402
G1 F1200 X122.2 Y100.704 E18.38785
G1 X122.13 Y100.634
G0 F3600 X121.927 Y100.997
G1 F1200 X126.702 Y105.772 E18.61694
G1 X126.772 Y105.842
G0 F3600 X126.506 Y106.141
G1 F1200 X121.655 Y101.29 E18.84968
G1 X121.585 Y101.22
G0 F3600 X121.382 Y101.583
G1 F1200 X126.31 Y106.511 E19.08611
G1 X126.38 Y106.581
G0 F3600 X126.114 Y106.881
G1 F1200 X121.109 Y101.876 E19.32624
G1 X121.039 Y101.806
G0 F3600 X120.836 Y102.169
G1 F1200 X125.918 Y107.251 E19.57007
G1 X125.988 Y107.321
G0 F3600 X125.722 Y107.62
G1 F1200 X120.563 Y102.461 E19.81758
G1 X120.493 Y102.391
G0 F3600 X120.291 Y102.755
G1 F1200 X125.526 Y107.99 E20.06875
G1 X125.596 Y108.06
G0 F3600 X125.33 Y108.359
G1 F1200 X120.018 Y103.048 E20.32358
G1 X119.948 Y102.978
G0 F3600 X119.745 Y103.34
G1 F1200 X125.134 Y108.729 E20.58213
G1 X125.204 Y108.799
G0 F3600 X124.941 Y109.102
G1 F1200 X119.472 Y103.633 E20.84452
G1 X119.402 Y103.563
G0 F3600 X119.2 Y103.927
G1 F1200 X125.258 Y109.984 E21.13515
G1 X125.328 Y110.054
G0 F3600 X125.466 Y110.758
G1 F1200 X118.927 Y104.219 E21.44887
G1 X118.857 Y104.149
G0 F3600 X118.654 Y104.512
G1 F1200 X125.674 Y111.532 E21.78567
G1 X125.744 Y111.602
G0 F3600 X125.882 Y112.306
G1 F1200 X120.766 Y107.19 E22.03113
G1 X120.696 Y107.12
G0 F3600 X120.766 Y107.755
G1 F1200 X126.09 Y113.079 E22.28656
G1 X126.16 Y113.149
G0 F3600 X126.298 Y113.853
G1 F1200 X120.765 Y108.32 E22.55202
G1 X120.695 Y108.25
G0 F3600 X120.765 Y108.885
G1 F1200 X126.506 Y114.626 E22.82746
G1 X126.576 Y114.696
G0 F3600 X126.714 Y115.401
G1 F1200 X120.764 Y109.45 E23.11295
G1 X120.694 Y109.38
G0 F3600 X120.763 Y110.015
G1 F1200 X126.922 Y116.174 E23.40845
G1 X126.992 Y116.244
G0 F3600 X126.922 Y116.74
G1 F1200 X120.763 Y110.581 E23.70394
G1 X120.693 Y110.511
G0 F3600 X120.763 Y111.146
G1 F1200 X126.922 Y117.305 E23.99944
G1 X126.992 Y117.375
G0 F3600 X126.454 Y117.403
G1 F1200 X120.762 Y111.711 E24.27253
G1 X120.692 Y111.641
G0 F3600 X120.762 Y112.277
G1 F1200 X125.784 Y117.299 E24.51347
G1 X125.854 Y117.369
G0 F3600 X125.114 Y117.194
G1 F1200 X120.761 Y112.842 E24.72229
G1 X120.691 Y112.772
G0 F3600 X120.761 Y113.407
G1 F1200 X124.443 Y117.089 E24.89895
G1 X124.513 Y117.159
G0 F3600 X123.773 Y116.985
G1 F1200 X120.761 Y113.972 E25.04348
G1 X120.691 Y113.902
G0 F3600 X120.76 Y114.537
G1 F1200 X123.103 Y116.881 E25.15591
G1 X123.173 Y116.951
G0 F3600 X122.433 Y116.776
G1 F1200 X120.759 Y115.102 E25.23623
G1 X120.689 Y115.032
G0 F3600 X120.758 Y115.667
G1 F1200 X121.763 Y116.671 E25.28442
G1 X121.833 Y116.741
G0 F3600 X121.092 Y116.567
G1 F1200 X120.758 Y116.233 E25.30045
G1 F1500 E24.50045
G0 F3600 X119.945 Y115.986
G1 F1500 E25.34202
G1 F1200 X113.744 Y109.784 E25.63956
G1 X113.674 Y109.714
G0 F3600 X114.017 Y109.491
G1 F1200 X119.946 Y115.421 E25.92404
G1 X120.016 Y115.491
G0 F3600 X119.947 Y114.856
G1 F1200 X114.29 Y109.199 E26.19545
G1 X114.22 Y109.129
G0 F3600 X114.562 Y108.905
G1 F1200 X119.947 Y114.291 E26.45383
G1 X120.017 Y114.361
G0 F3600 X119.948 Y113.726
G1 F1200 X114.835 Y108.613 E26.69914
G1 X114.765 Y108.543
G0 F3600 X115.108 Y108.32
G1 F1200 X119.949 Y113.161 E26.9314
G1 X120.019 Y113.231
G0 F3600 X119.95 Y112.596
G1 F1200 X115.381 Y108.027 E27.15061
G1 X115.311 Y107.957
G0 F3600 X115.653 Y107.734
G1 F1200 X119.95 Y112.031 E27.35677
G1 X120.02 Y112.101
G0 F3600 X119.951 Y111.466
G1 F1200 X115.926 Y107.441 E27.54988
G1 X115.856 Y107.371
G0 F3600 X116.199 Y107.148
G1 F1200 X119.952 Y110.901 E27.72994
G1 X120.022 Y110.971
G0 F3600 X119.952 Y110.336
G1 F1200 X116.472 Y106.855 E27.89693
G1 X116.402 Y106.785
G0 F3600 X116.745 Y106.563
G1 F1200 X119.953 Y109.771 E28.05084
G1 X120.023 Y109.841
G0 F3600 X119.954 Y109.206
G1 F1200 X117.017 Y106.269 E28.19175
G1 X116.947 Y106.199
G0 F3600 X117.29 Y105.976
G1 F1200 X119.955 Y108.641 E28.31961
G1 X120.025 Y108.711
G0 F3600 X119.955 Y108.076
G1 F1200 X117.563 Y105.684 E28.43437
G1 X117.493 Y105.614
G0 F3600 X117.836 Y105.391
G1 F1200 X119.956 Y107.511 E28.53609
G1 X120.026 Y107.581
G0 F3600 X119.957 Y106.946
G1 F1200 X118.108 Y105.097 E28.6248
G1 X118.038 Y105.027
G0 F3600 X118.381 Y104.805
G1 F1200 X119.957 Y106.381 E28.70041
G1 X120.027 Y106.451
G1 F1500 E27.90041
G0 F3600 X113.471 Y110.077
G1 F1500 E28.74199
G1 F1200 X119.752 Y116.357 E29.04331
G1 X119.822 Y116.427
G0 F3600 X119.081 Y116.253
G1 F1200 X113.198 Y110.37 E29.32556
G1 X113.128 Y110.3
G0 F3600 X112.926 Y110.663
G1 F1200 X118.411 Y116.148 E29.58872
G1 X118.481 Y116.218
G0 F3600 X117.741 Y116.044
G1 F1200 X112.653 Y110.956 E29.83283
G1 X112.583 Y110.886
G0 F3600 X112.38 Y111.249
G1 F1200 X117.071 Y115.94 E30.05789
G1 X117.141 Y116.01
G0 F3600 X116.401 Y115.835
G1 F1200 X112.047 Y111.481 E30.26679
G1 X111.977 Y111.411
G0 F3600 X111.548 Y111.548
G1 F1200 X115.73 Y115.73 E30.46743
G1 X115.8 Y115.8
G0 F3600 X115.06 Y115.626
G1 F1200 X111.051 Y111.616 E30.6598
G1 X110.981 Y111.546
G0 F3600 X110.553 Y111.684
G1 F1200 X114.39 Y115.521 E30.84389
G1 X114.46 Y115.591
G0 F3600 X113.719 Y115.416
G1 F1200 X110.054 Y111.751 E31.01973
G1 X109.984 Y111.681
G0 F3600 X109.557 Y111.819
G1 F1200 X113.049 Y115.312 E31.18729
G1 X113.119 Y115.382
G0 F3600 X112.379 Y115.208
G1 F1200 X109.059 Y111.887 E31.3466
G1 X108.989 Y111.817
G0 F3600 X108.56 Y111.954
G1 F1200 X111.709 Y115.103 E31.49768
G1 X111.779 Y115.173
G0 F3600 X111.039 Y114.998
G1 F1200 X108.062 Y112.022 E31.64049
G1 X107.992 Y111.952
G0 F3600 X107.565 Y112.09
G1 F1200 X110.368 Y114.894 E31.77499
G1 X110.438 Y114.964
G0 F3600 X109.709 Y114.8
G1 F1200 X107.066 Y112.157 E31.9018
G1 X106.996 Y112.087
G0 F3600 X106.568 Y112.225
G1 F1200 X109.049 Y114.706 E32.02083
G1 X109.119 Y114.776
G0 F3600 X108.391 Y114.614
G1 F1200 X106.07 Y112.293 E32.13218
G1 X106 Y112.223
G0 F3600 X105.572 Y112.36
G1 F1200 X107.742 Y114.53 E32.2363
G1 X107.812 Y114.6
G0 F3600 X107.094 Y114.448
