;FLAVOR:Marlin
;TIME:4793
;Filament used: 2.30762m
;Layer height: 0.2
;Generated with Cura_SteamEngine 3.1.0
M190 S60
M104 S230
M109 S230
M82 ; absolute extrusion mode
G28 ;Home
G1 Z15.0 F6000 ;Move the platform down 15mm
;Prime the extruder
G92 E0
G1 F200 E3
G92 E0
;LAYER_COUNT:915
;LAYER:0
M107
G0 F3600 X92.731 Y99.436 Z0.2
;TYPE:SKIRT
G1 F1800 X92.755 Y98.779 E0.0223
G1 X92.81 Y98.383 E0.03587
G1 X92.942 Y98.006 E0.04942
G1 X93.146 Y97.663 E0.06296
G1 X93.414 Y97.367 E0.0765
G1 X93.736 Y97.13 E0.09007
G1 X94.099 Y96.962 E0.10364
G1 X94.487 Y96.87 E0.11717
G1 X94.697 Y96.853 E0.12431
G1 X100.853 Y96.677 E0.33324
G1 X109.835 Y96.015 E0.63879
G1 X127.609 Y94.111 E1.24523
G1 X128.008 Y94.109 E1.25876
G1 X128.4 Y94.185 E1.27231
G1 X128.769 Y94.339 E1.28587
G1 X129.101 Y94.562 E1.29944
G1 X129.381 Y94.847 E1.313
G1 X129.599 Y95.182 E1.32655
G1 X129.746 Y95.553 E1.34009
G1 X129.821 Y96.027 E1.35637
G1 X129.937 Y99.204 E1.46423
G1 X130.383 Y104.716 E1.65183
G1 X131.143 Y110.217 E1.84023
G1 X131.88 Y114.211 E1.97802
G1 X131.91 Y114.679 E1.99393
G1 X131.858 Y115.67 E2.02759
G1 X131.755 Y116.207 E2.04614
G1 X131.553 Y116.803 E2.06749
G1 X131.302 Y117.302 E2.08644
G1 X130.702 Y118.166 E2.12213
G1 X130.442 Y118.47 E2.1357
G1 X130.251 Y118.631 E2.14417
G1 X129.541 Y119.158 E2.17417
G1 X129.198 Y119.363 E2.18773
G1 X128.977 Y119.451 E2.1958
G1 X128.015 Y119.769 E2.23017
G1 X127.475 Y119.868 E2.24879
G1 X126.836 Y119.896 E2.27049
G1 X126.437 Y119.874 E2.28405
G1 X126.214 Y119.825 E2.2918
G1 X125.038 Y119.499 E2.3332
G1 X124.665 Y119.355 E2.34676
G1 X124.344 Y119.151 E2.35966
G1 X117.929 Y114.164 E2.63532
G1 X113.359 Y111.027 E2.82337
G1 X108.62 Y108.154 E3.01138
G1 X103.728 Y105.555 E3.19931
G1 X98.69 Y103.233 E3.38751
G1 X96.11 Y102.172 E3.48215
G1 X94.02 Y101.379 E3.55798
G1 X93.663 Y101.2 E3.57153
G1 X93.348 Y100.954 E3.58509
G1 X93.088 Y100.651 E3.59864
G1 X92.894 Y100.302 E3.61218
G1 X92.773 Y99.921 E3.62574
G1 X92.731 Y99.436 E3.64226
G0 F3600 X93.131 Y99.451
G1 F1800 X93.155 Y98.794 E3.66456
G1 X93.208 Y98.44 E3.67671
G1 X93.338 Y98.108 E3.6888
G1 X93.538 Y97.812 E3.70092
G1 X93.799 Y97.568 E3.71304
G1 X94.108 Y97.388 E3.72518
G1 X94.449 Y97.281 E3.7373
G1 X94.708 Y97.253 E3.74614
G1 X100.872 Y97.076 E3.95534
G1 X109.877 Y96.413 E4.26166
G1 X127.652 Y94.509 E4.86814
G1 X128.009 Y94.511 E4.88025
G1 X128.357 Y94.592 E4.89237
G1 X128.678 Y94.748 E4.90448
G1 X128.956 Y94.972 E4.91659
G1 X129.179 Y95.252 E4.92873
G1 X129.333 Y95.574 E4.94084
G1 X129.421 Y96.042 E4.957
G1 X129.537 Y99.205 E5.06438
G1 X129.987 Y104.769 E5.25375
G1 X130.751 Y110.3 E5.44318
G1 X131.486 Y114.284 E5.58061
G1 X131.511 Y114.658 E5.59333
G1 X131.459 Y115.649 E5.627
G1 X131.376 Y116.079 E5.64185
G1 X131.174 Y116.675 E5.6632
G1 X130.973 Y117.074 E5.67836
G1 X130.373 Y117.938 E5.71405
G1 X130.013 Y118.31 E5.73161
G1 X129.303 Y118.837 E5.76161
G1 X128.851 Y119.071 E5.77887
G1 X127.889 Y119.389 E5.81325
G1 X127.457 Y119.468 E5.82814
G1 X126.818 Y119.496 E5.84984
G1 X126.321 Y119.44 E5.86681
G1 X125.145 Y119.114 E5.90821
G1 X124.813 Y118.981 E5.92035
G1 X124.59 Y118.835 E5.92939
G1 X118.165 Y113.84 E6.20548
G1 X113.587 Y110.698 E6.39385
G1 X108.822 Y107.809 E6.5829
G1 X103.904 Y105.196 E6.77183
G1 X98.84 Y102.862 E6.961
G1 X96.255 Y101.8 E7.05581
G1 X94.162 Y101.005 E7.13176
G1 X93.844 Y100.842 E7.14388
G1 X93.571 Y100.612 E7.15599
G1 X93.355 Y100.327 E7.16813
G1 X93.208 Y100.002 E7.18023
G1 X93.136 Y99.652 E7.19235
G1 X93.131 Y99.451 E7.19917
G0 F3600 X93.531 Y99.465
G1 F1800 X93.555 Y98.808 E7.22147
G1 X93.606 Y98.503 E7.23197
G1 X93.733 Y98.221 E7.24246
G1 X93.928 Y97.981 E7.25295
G1 X94.178 Y97.799 E7.26344
G1 X94.466 Y97.687 E7.27392
G1 X94.72 Y97.652 E7.28262
G1 X100.912 Y97.475 E7.49277
G1 X109.917 Y96.812 E7.7991
G1 X127.694 Y94.907 E8.40564
G1 X128.003 Y94.914 E8.41613
G1 X128.3 Y94.999 E8.42661
G1 X128.566 Y95.158 E8.43712
G1 X128.782 Y95.38 E8.44763
G1 X128.934 Y95.649 E8.45811
G1 X129.021 Y96.056 E8.47223
G1 X129.137 Y99.229 E8.57995
G1 X129.588 Y104.804 E8.7697
G1 X130.355 Y110.358 E8.95991
G1 X131.093 Y114.356 E9.09783
G1 X131.111 Y114.637 E9.10739
G1 X131.059 Y115.628 E9.14105
G1 X130.997 Y115.95 E9.15218
G1 X130.795 Y116.546 E9.17353
G1 X130.645 Y116.845 E9.18487
G1 X130.045 Y117.709 E9.22056
G1 X129.774 Y117.989 E9.23378
G1 X129.064 Y118.516 E9.26378
G1 X128.726 Y118.691 E9.27669
G1 X127.764 Y119.009 E9.31106
G1 X127.44 Y119.069 E9.32224
G1 X126.801 Y119.097 E9.34394
G1 X126.427 Y119.054 E9.35671
G1 X125.251 Y118.728 E9.39811
G1 X124.967 Y118.608 E9.40857
G1 X124.835 Y118.519 E9.41397
G1 X118.399 Y113.516 E9.69053
G1 X113.8 Y110.359 E9.87977
G1 X109.025 Y107.464 E10.06921
G1 X104.081 Y104.837 E10.25915
G1 X99 Y102.495 E10.44895
G1 X96.401 Y101.427 E10.54428
G1 X94.304 Y100.631 E10.62037
G1 X94.032 Y100.485 E10.63085
G1 X93.805 Y100.274 E10.64136
G1 X93.641 Y100.012 E10.65185
G1 X93.548 Y99.717 E10.66234
G1 X93.531 Y99.465 E10.67091
G1 F1500 E9.87091
G0 F3600 X94.937 Y99.029
;TYPE:WALL-OUTER
G1 F1500 E10.71248
G1 F1200 X98.637 Y98.969 E10.83802
G1 X102.904 Y98.797 E10.9829
G1 X108.9 Y98.316 E11.18697
G1 X110.738 Y98.14 E11.24961
G1 X127.621 Y96.313 E11.82572
G1 X127.552 Y97.848 E11.87784
G1 X125.303 Y104.88 E12.12831
G1 X129.529 Y113.845 E12.46455
G1 X129.589 Y114.001 E12.47022
G1 X129.673 Y114.292 E12.48049
G1 X129.723 Y114.592 E12.49081
G1 X129.742 Y114.906 E12.50148
G1 X129.725 Y115.221 E12.51219
G1 X129.677 Y115.516 E12.52233
G1 X129.591 Y115.825 E12.53321
G1 X129.542 Y115.956 E12.53795
G1 X129.404 Y116.248 E12.54891
G1 X129.244 Y116.51 E12.55932
G1 X129.151 Y116.633 E12.56455
G1 X128.946 Y116.871 E12.57521
G1 X128.719 Y117.078 E12.58563
G1 X128.47 Y117.26 E12.5961
G1 X128.195 Y117.419 E12.60687
G1 X128.064 Y117.48 E12.61178
G1 X127.771 Y117.589 E12.62238
G1 X127.449 Y117.668 E12.63363
G1 X127.153 Y117.706 E12.64375
G1 X126.836 Y117.712 E12.65451
G1 X126.533 Y117.684 E12.66483
G1 X126.22 Y117.619 E12.67568
G1 X125.936 Y117.527 E12.68581
G1 X125.648 Y117.397 E12.69653
G1 X125.381 Y117.238 E12.70707
G1 X125.259 Y117.151 E12.71215
G1 X125.018 Y116.948 E12.72284
G1 X124.913 Y116.842 E12.7279
G1 X112.331 Y101.998 E13.38806
G1 X104.715 Y100.597 E13.65077
G1 X100.232 Y99.921 E13.80457
G1 X94.923 Y99.336 E13.98577
G1 X94.937 Y99.029 E13.9962
G0 F3600 X95.137 Y99.026
G1 F1500 E13.1962
G0 F3600 X104.271 Y99.078
G1 F1500 E14.03777
G1 F1200 X104.22 Y100.131 E14.07354
G1 X104.673 Y100.165 E14.08895
G1 X104.723 Y99.095 E14.12529
G1 X104.271 Y99.078 E14.14064
G0 F3600 X104.262 Y99.277
G1 F1500 E13.34064
G0 F3600 X120.585 Y97.444
G1 F1500 E14.18221
G1 F1200 X120.145 Y107.092 E14.50986
G1 X120.604 Y106.921 E14.52648
G1 X121.038 Y97.453 E14.84802
G1 X120.585 Y97.444 E14.86339
G0 F3600 X120.576 Y97.643
G1 F1500 E14.06339
G0 F3600 X126.188 Y114.519
G1 F1500 E14.90497
G1 F1200 X126.119 Y114.702 E14.9116
G1 X126.098 Y114.814 E14.91547
G1 X126.098 Y115.008 E14.92205
G1 X126.141 Y115.199 E14.92869
G1 X126.186 Y115.303 E14.93254
G1 X126.293 Y115.465 E14.93912
G1 X126.441 Y115.602 E14.94597
G1 X126.616 Y115.701 E14.95279
G1 X126.81 Y115.756 E14.95963
G1 X127.012 Y115.762 E14.96648
G1 X127.203 Y115.724 E14.97309
G1 X127.308 Y115.681 E14.97694
G1 X127.473 Y115.58 E14.9835
G1 X127.612 Y115.441 E14.99017
G1 X127.675 Y115.346 E14.99404
G1 X127.755 Y115.17 E15.0006
G1 X127.793 Y114.971 E15.00747
G1 X127.781 Y114.776 E15.0141
G1 X127.757 Y114.672 E15.01772
G1 X127.72 Y114.572 E15.02134
G1 X127.626 Y114.408 E15.02775
G1 X127.553 Y114.323 E15.03155
G1 X127.404 Y114.198 E15.03815
G1 X127.222 Y114.11 E15.04501
G1 X127.03 Y114.068 E15.05167
G1 X126.917 Y114.065 E15.05551
G1 X126.724 Y114.092 E15.06212
G1 X126.544 Y114.164 E15.0687
G1 X126.452 Y114.22 E15.07235
G1 X126.374 Y114.283 E15.07575
G1 X126.3 Y114.359 E15.07935
G1 X126.188 Y114.519 E15.08598
G0 F3600 X126.119 Y114.702
G0 X126.119 Y114.706
G1 F1500 E14.28598
G0 F3600 X127.098 Y96.551
;TYPE:SKIN
G1 F1500 E15.12755
G1 F1200 X127.415 Y96.868 E15.14276
G0 F3600 X127.39 Y97.409
G1 F1200 X126.588 Y96.607 E15.18124
G1 X126.518 Y96.537
G0 F3600 X126.077 Y96.662
G1 F1200 X127.338 Y97.922 E15.24172
G1 X127.408 Y97.992
G0 F3600 X127.202 Y98.352
G1 F1200 X125.567 Y96.717 E15.32016
G1 X125.497 Y96.647
G0 F3600 X125.056 Y96.772
G1 F1200 X127.064 Y98.78 E15.4165
G1 X127.134 Y98.85
G0 F3600 X126.927 Y99.209
G1 F1200 X124.546 Y96.827 E15.53076
G1 X124.476 Y96.757
G0 F3600 X124.035 Y96.882
G1 F1200 X126.79 Y99.637 E15.66294
G1 X126.86 Y99.707
G0 F3600 X126.653 Y100.066
G1 F1200 X123.525 Y96.937 E15.81303
G1 X123.455 Y96.867
G0 F3600 X123.014 Y96.993
G1 F1200 X126.516 Y100.494 E15.98103
G1 X126.586 Y100.564
G0 F3600 X126.379 Y100.923
G1 F1200 X122.504 Y97.048 E16.16694
G1 X122.434 Y96.978
G0 F3600 X121.994 Y97.104
G1 F1200 X126.241 Y101.351 E16.3707
G1 X126.311 Y101.421
G0 F3600 X126.104 Y101.78
G1 F1200 X121.483 Y97.159 E16.59241
G1 X121.413 Y97.089
G0 F3600 X121.216 Y97.457
G1 F1200 X125.967 Y102.208 E16.82035
G1 X126.037 Y102.278
G0 F3600 X125.83 Y102.637
G1 F1200 X121.191 Y97.998 E17.04292
G1 X121.121 Y97.928
G0 F3600 X121.166 Y98.539
G1 F1200 X125.693 Y103.066 E17.26011
G1 X125.763 Y103.136
G0 F3600 X125.556 Y103.494
G1 F1200 X121.142 Y99.08 E17.47189
G1 X121.072 Y99.01
G0 F3600 X121.117 Y99.621
G1 F1200 X125.419 Y103.923 E17.67829
G1 X125.489 Y103.993
G0 F3600 X125.282 Y104.351
G1 F1200 X121.092 Y100.162 E17.87929
G1 X121.022 Y100.092
G0 F3600 X121.067 Y100.703
G1 F1200 X125.145 Y104.78 E18.07492
G1 X125.215 Y104.85
G1 F1500 E17.27492
G0 F3600 X125.482 Y105.683
G1 F1500 E18.11649
G1 F1200 X121.043 Y101.244 E18.32947
G1 X120.973 Y101.174
G0 F3600 X121.018 Y101.785
G1 F1200 X125.987 Y106.754 E18.56787
G1 X126.057 Y106.824
G1 F1500 E17.76787
G0 F3600 X126.491 Y107.823
G1 F1500 E18.60944
G1 F1200 X120.993 Y102.326 E18.8732
G1 X120.923 Y102.256
G0 F3600 X120.968 Y102.867
G1 F1200 X126.995 Y108.893 E19.16234
G1 X127.065 Y108.963
G1 F1500 E18.36234
G0 F3600 X127.499 Y109.963
G1 F1500 E19.20391
G1 F1200 X120.944 Y103.408 E19.5184
G1 X120.874 Y103.338
G0 F3600 X120.92 Y103.949
G1 F1200 X128.004 Y111.034 E19.8583
G1 X128.074 Y111.104
G1 F1500 E19.0583
G0 F3600 X128.508 Y112.104
G1 F1500 E19.89988
G1 F1200 X120.895 Y104.49 E20.26516
G1 X120.825 Y104.42
G0 F3600 X120.87 Y105.031
G1 F1200 X129.013 Y113.173 E20.65581
G1 X129.083 Y113.243
G1 F1500 E19.85581
G0 F3600 X129.452 Y114.179
G1 F1500 E20.69739
G1 F1200 X120.845 Y105.572 E21.11033
G1 X120.775 Y105.502
G0 F3600 X120.821 Y106.113
G1 F1200 X129.557 Y114.849 E21.52947
G1 X129.627 Y114.919
G0 F3600 X129.517 Y115.375
G1 F1200 X120.796 Y106.654 E21.94788
G1 X120.726 Y106.584
G0 F3600 X120.666 Y107.089
G1 F1200 X129.399 Y115.822 E22.36687
G1 X129.469 Y115.892
G0 F3600 X129.217 Y116.206
G1 F1200 X127.972 Y114.961 E22.4266
G1 X127.902 Y114.891
G0 F3600 X127.846 Y115.401
G1 F1200 X128.989 Y116.543 E22.48142
G1 X129.059 Y116.613
G0 F3600 X128.715 Y116.835
G1 F1200 X127.593 Y115.713 E22.53525
G1 X127.523 Y115.643
G0 F3600 X127.218 Y115.904
G1 F1200 X128.4 Y117.086 E22.59196
G1 X128.47 Y117.156
G0 F3600 X128.04 Y117.292
G1 F1200 X126.645 Y115.897 E22.65888
G1 X126.575 Y115.827
G1 F1500 E21.85888
G0 F3600 X125.959 Y115.211
G1 F1500 E22.70046
G1 F1200 X109.214 Y98.466 E23.50385
G1 X109.144 Y98.396
G0 F3600 X109.73 Y98.417
G1 F1200 X125.951 Y114.637 E24.28207
G1 X126.021 Y114.707
G0 F3600 X126.145 Y114.265
G1 F1200 X110.247 Y98.367 E25.04482
G1 X110.177 Y98.297
G0 F3600 X110.763 Y98.318
G1 F1200 X126.451 Y114.006 E25.79749
G1 X126.521 Y114.076
G0 F3600 X126.896 Y113.885
G1 F1200 X120.254 Y107.243 E26.11616
G1 X120.184 Y107.173
G0 F3600 X119.969 Y106.959
G1 F1200 X111.273 Y98.263 E26.53337
G1 X111.203 Y98.193
G0 F3600 X111.784 Y98.207
G1 F1200 X119.994 Y106.418 E26.92729
G1 X120.064 Y106.488
G0 F3600 X120.019 Y105.877
G1 F1200 X112.294 Y98.152 E27.29792
G1 X112.224 Y98.082
G0 F3600 X112.805 Y98.097
G1 F1200 X120.044 Y105.336 E27.64523
G1 X120.114 Y105.406
G0 F3600 X120.068 Y104.795
G1 F1200 X113.315 Y98.042 E27.96922
G1 X113.245 Y97.972
G0 F3600 X113.826 Y97.987
G1 F1200 X120.092 Y104.253 E28.26985
G1 X120.162 Y104.323
G0 F3600 X120.117 Y103.712
G1 F1200 X114.337 Y97.932 E28.54716
G1 X114.267 Y97.862
G0 F3600 X114.847 Y97.877
G1 F1200 X120.142 Y103.171 E28.80118
G1 X120.212 Y103.241
G0 F3600 X120.167 Y102.63
G1 F1200 X115.358 Y97.821 E29.03191
G1 X115.288 Y97.751
G0 F3600 X115.867 Y97.765
G1 F1200 X120.191 Y102.089 E29.23936
G1 X120.261 Y102.159
G0 F3600 X120.216 Y101.549
G1 F1200 X116.378 Y97.71 E29.42352
G1 X116.308 Y97.64
G0 F3600 X116.888 Y97.655
G1 F1200 X120.241 Y101.008 E29.58439
G1 X120.311 Y101.078
G0 F3600 X120.266 Y100.467
G1 F1200 X117.399 Y97.6 E29.72194
G1 X117.329 Y97.53
G0 F3600 X117.91 Y97.545
G1 F1200 X120.29 Y99.926 E29.83615
G1 X120.36 Y99.996
G0 F3600 X120.314 Y99.384
G1 F1200 X118.42 Y97.49 E29.92702
G1 X118.35 Y97.42
G0 F3600 X118.931 Y97.435
G1 F1200 X120.339 Y98.843 E29.99458
G1 X120.409 Y98.913
G0 F3600 X120.364 Y98.302
G1 F1200 X119.441 Y97.379 E30.03886
G1 X119.371 Y97.309
G0 F3600 X119.952 Y97.324
G1 F1200 X120.389 Y97.761 E30.05983
G1 F1500 E29.25983
G0 F3600 X120.973 Y97.214
G1 F1500 E30.1014
G1 F1200 X121.031 Y97.272 E30.10418
G1 F1500 E29.30418
G0 F3600 X114.713 Y104.531
G1 F1500 E30.14576
G1 F1200 X127.622 Y117.439 E30.76508
G1 X127.692 Y117.509
G0 F3600 X127.142 Y117.526
G1 F1200 X117.859 Y108.242 E31.21048
G1 X117.789 Y108.172
G1 F1500 E30.41048
G0 F3600 X121.003 Y111.952
G1 F1500 E31.25206
G1 F1200 X126.554 Y117.503 E31.51838
G1 X126.624 Y117.573
G1 F1500 E30.71838
G0 F3600 X125.711 Y117.226
G1 F1500 E31.55995
G1 F1200 X124.148 Y115.663 E31.63494
G1 X124.078 Y115.593
G1 F1500 E30.83494
G0 F3600 X111.921 Y101.739
G1 F1500 E31.67652
G1 F1200 X108.695 Y98.513 E31.8313
G1 X108.625 Y98.443
G0 F3600 X108.171 Y98.555
G1 F1200 X111.228 Y101.611 E31.97794
G1 X111.298 Y101.681
G0 F3600 X110.535 Y101.484
G1 F1200 X107.648 Y98.597 E32.11645
G1 X107.578 Y98.527
G0 F3600 X107.124 Y98.639
G1 F1200 X109.842 Y101.357 E32.24685
G1 X109.912 Y101.427
G0 F3600 X109.149 Y101.229
G1 F1200 X106.601 Y98.681 E32.3691
G1 X106.531 Y98.611
G0 F3600 X106.077 Y98.723
G1 F1200 X108.456 Y101.102 E32.48324
G1 X108.526 Y101.172
G0 F3600 X107.763 Y100.974
G1 F1200 X105.554 Y98.765 E32.58922
G1 X105.484 Y98.695
G0 F3600 X105.03 Y98.807
G1 F1200 X107.07 Y100.847 E32.6871
G1 X107.14 Y100.917
G0 F3600 X106.376 Y100.719
G1 F1200 X104.895 Y99.238 E32.75815
G1 X104.825 Y99.168
G0 F3600 X104.565 Y98.908
G1 F1200 X104.506 Y98.849 E32.76098
G1 F1500 E31.96098
G0 F3600 X104.869 Y99.778
G1 F1500 E32.80256
G1 F1200 X105.683 Y100.592 E32.84161
G1 X105.753 Y100.662
G0 F3600 X104.99 Y100.465
G1 F1200 X104.844 Y100.319 E32.84862
G1 F1500 E32.04862
G0 F3600 X104.037 Y98.946
G1 F1500 E32.89019
G1 F1200 X103.762 Y99.237 E32.90748
G1 X103.388 Y98.863
G0 F3600 X102.935 Y98.975
G1 F1200 X104.041 Y100.081 E32.96054
G1 X104.111 Y100.151
G0 F3600 X103.648 Y100.254
G1 F1200 X102.392 Y98.998 E33.0208
G1 X102.322 Y98.928
G0 F3600 X101.848 Y99.02
G1 F1200 X102.982 Y100.153 E33.07518
G1 X103.052 Y100.223
G0 F3600 X102.316 Y100.053
G1 F1200 X101.305 Y99.042 E33.12369
G1 X101.235 Y98.972
G0 F3600 X100.761 Y99.064
G1 F1200 X101.649 Y99.952 E33.16629
G1 X101.719 Y100.022
G0 F3600 X100.983 Y99.851
G1 F1200 X100.216 Y99.085 E33.20307
G1 X100.146 Y99.015
G0 F3600 X99.673 Y99.107
G1 F1200 X100.317 Y99.751 E33.23396
G1 X100.387 Y99.821
G0 F3600 X99.403 Y99.403
G1 F1200 X98.813 Y99.378 E33.2581
G1 X98.216 Y99.348 E33.27823
G1 X97.62 Y99.317 E33.29453
G1 X97.023 Y99.286 E33.30705
G1 X96.427 Y99.255 E33.31571
G1 X95.83 Y99.224 E33.32058
G1 F1500 E32.52058
G0 F3600 X94.922 Y99.028
;TIME_ELAPSED:50.226667
;LAYER:1
M140 S60
M106 S255
G0 F5400 X94.922 Y99.028 Z0.4
;TYPE:WALL-OUTER
G1 F1500 E33.36215
G1 F1800 X98.621 Y98.968 E33.48766
G1 X102.886 Y98.796 E33.63247
G1 X108.876 Y98.316 E33.83633
G1 X110.72 Y98.139 E33.89918
G1 X127.595 Y96.311 E34.47502
G1 X127.525 Y97.838 E34.52687
G1 X125.406 Y104.474 E34.7632
G1 X125.166 Y104.586 E34.77219
G1 X125.387 Y105.064 E34.79005
G1 X129.538 Y113.862 E35.12008
G1 X129.637 Y114.154 E35.13054
G1 X129.705 Y114.454 E35.14098
G1 X129.739 Y114.769 E35.15173
G1 X129.738 Y115.08 E35.16228
