;FLAVOR:Marlin
;TIME:4520
;Filament used: 3.91211m
;Layer height: 0.2
;Generated with Cura_SteamEngine 3.1.0
M190 S60
M104 S230
M109 S230
M82 ; absolute extrusion mode
G28 ;Home
G1 Z15.0 F6000 ;Move the platform down 15mm
;Prime the extruder
G92 E0
G1 F200 E3
G92 E0
;LAYER_COUNT:784
;LAYER:0
M107
G0 F3600 X83.671 Y79.791 Z0.2
;TYPE:SKIRT
G1 F1800 X83.579 Y79.403 E0.01353
G1 X83.565 Y79.003 E0.02711
G1 X83.632 Y78.609 E0.04066
G1 X83.775 Y78.237 E0.05419
G1 X83.99 Y77.9 E0.06775
G1 X84.267 Y77.612 E0.0813
G1 X84.728 Y77.319 E0.09983
G1 X87.306 Y76.137 E0.19605
G1 X92.28 Y73.596 E0.38554
G1 X95.48 Y71.767 E0.51058
G1 X95.845 Y71.604 E0.52414
G1 X96.234 Y71.517 E0.53766
G1 X96.634 Y71.51 E0.55124
G1 X97.027 Y71.582 E0.56479
G1 X97.398 Y71.73 E0.57834
G1 X97.732 Y71.949 E0.59189
G1 X98.109 Y72.353 E0.61064
G1 X103.469 Y79.984 E0.927
G1 X103.503 Y80.035 E0.92908
G1 X108.986 Y88.376 E1.26772
G1 X109.028 Y88.443 E1.2704
G1 X112.649 Y94.456 E1.50852
G1 X112.695 Y94.536 E1.51166
G1 X115.289 Y99.326 E1.69646
G1 X115.334 Y99.414 E1.69981
G1 X118.217 Y105.433 E1.92622
G1 X118.247 Y105.499 E1.92868
G1 X119.819 Y109.113 E2.06238
G1 X119.849 Y109.187 E2.06509
G1 X122.328 Y115.569 E2.29736
G1 X122.359 Y115.653 E2.3004
G1 X123.699 Y119.62 E2.44245
G1 X123.728 Y119.715 E2.44582
G1 X125.298 Y125.258 E2.64127
G1 X125.323 Y125.353 E2.6446
G1 X125.792 Y127.383 E2.71529
G1 X125.809 Y127.466 E2.71816
G1 X126.3 Y130.098 E2.80899
G1 X126.321 Y130.237 E2.81376
G1 X126.651 Y133.109 E2.91184
G1 X126.664 Y133.348 E2.91996
G1 X126.651 Y135.823 E3.00392
G1 X126.613 Y136.201 E3.01681
G1 X126.349 Y137.534 E3.06291
G1 X126.203 Y137.983 E3.07893
G1 X125.982 Y138.462 E3.09683
G1 X125.718 Y138.885 E3.11374
G1 X125.229 Y139.487 E3.14005
G1 X124.948 Y139.77 E3.15358
G1 X124.757 Y139.909 E3.1616
G1 X124.14 Y140.305 E3.18647
G1 X123.631 Y140.539 E3.20547
G1 X122.926 Y140.749 E3.23043
G1 X122.534 Y140.824 E3.24397
G1 X122.222 Y140.828 E3.25456
G1 X121.229 Y140.762 E3.28832
G1 X120.676 Y140.645 E3.30749
G1 X119.997 Y140.397 E3.33202
G1 X119.716 Y140.269 E3.34249
G1 X118.698 Y139.707 E3.38194
G1 X118.485 Y139.571 E3.39052
G1 X116.701 Y138.268 E3.46546
G1 X116.583 Y138.174 E3.47058
G1 X115.811 Y137.515 E3.50502
G1 X115.732 Y137.444 E3.50862
G1 X113.998 Y135.797 E3.58975
G1 X113.914 Y135.713 E3.59378
G1 X111.812 Y133.465 E3.69819
G1 X111.733 Y133.375 E3.70226
G1 X108.472 Y129.439 E3.87566
G1 X108.4 Y129.347 E3.87962
G1 X104.869 Y124.542 E4.08192
G1 X104.814 Y124.463 E4.08518
G1 X101.43 Y119.358 E4.29297
G1 X101.376 Y119.272 E4.29641
G1 X97.601 Y112.893 E4.54788
G1 X97.557 Y112.815 E4.55091
G1 X94.889 Y107.812 E4.74327
G1 X94.844 Y107.721 E4.74671
G1 X92.446 Y102.616 E4.93806
G1 X92.417 Y102.553 E4.94041
G1 X90.356 Y97.74 E5.11803
G1 X90.338 Y97.697 E5.11962
G1 X88.594 Y93.343 E5.27874
G1 X88.576 Y93.296 E5.28044
G1 X85.213 Y84.244 E5.60804
G1 X85.198 Y84.201 E5.60959
G1 X83.671 Y79.791 E5.76791
G0 F3600 X84.049 Y79.661
G1 F1800 X83.971 Y79.312 E5.78005
G1 X83.971 Y78.955 E5.79216
G1 X84.051 Y78.607 E5.80427
G1 X84.207 Y78.285 E5.81641
G1 X84.429 Y78.006 E5.82851
G1 X84.709 Y77.783 E5.84065
G1 X84.894 Y77.682 E5.8478
G1 X87.495 Y76.49 E5.94487
G1 X92.465 Y73.951 E6.1342
G1 X95.678 Y72.114 E6.25976
G1 X96.006 Y71.972 E6.27189
G1 X96.357 Y71.907 E6.284
G1 X96.714 Y71.921 E6.29612
G1 X97.059 Y72.015 E6.30825
G1 X97.375 Y72.182 E6.32037
G1 X97.645 Y72.415 E6.33247
G1 X97.781 Y72.583 E6.33981
G1 X103.141 Y80.214 E6.65617
G1 X103.169 Y80.255 E6.65786
G1 X108.652 Y88.596 E6.99649
G1 X108.686 Y88.65 E6.99866
G1 X112.307 Y94.663 E7.23678
G1 X112.343 Y94.726 E7.23924
G1 X114.937 Y99.516 E7.42404
G1 X114.973 Y99.587 E7.42674
G1 X117.856 Y105.606 E7.65316
G1 X117.88 Y105.659 E7.65513
G1 X119.452 Y109.273 E7.78883
G1 X119.476 Y109.332 E7.79099
G1 X121.955 Y115.714 E8.02327
G1 X121.98 Y115.781 E8.02569
G1 X123.32 Y119.748 E8.16774
G1 X123.343 Y119.824 E8.17044
G1 X124.913 Y125.367 E8.36588
G1 X124.933 Y125.443 E8.36855
G1 X125.402 Y127.473 E8.43923
G1 X125.416 Y127.54 E8.44155
G1 X125.907 Y130.172 E8.53239
G1 X125.924 Y130.282 E8.53616
G1 X126.254 Y133.154 E8.63424
G1 X126.264 Y133.345 E8.64073
G1 X126.251 Y135.82 E8.72469
G1 X126.221 Y136.123 E8.73502
G1 X125.957 Y137.456 E8.78112
G1 X125.84 Y137.815 E8.79393
G1 X125.619 Y138.294 E8.81183
G1 X125.408 Y138.633 E8.82537
G1 X124.919 Y139.235 E8.85169
G1 X124.541 Y139.573 E8.86889
G1 X123.924 Y139.969 E8.89376
G1 X123.517 Y140.155 E8.90894
G1 X122.812 Y140.365 E8.9339
G1 X122.46 Y140.429 E8.94604
G1 X122.249 Y140.428 E8.95319
G1 X121.256 Y140.362 E8.98696
G1 X120.813 Y140.269 E9.00231
G1 X120.134 Y140.021 E9.02684
G1 X119.91 Y139.919 E9.03519
G1 X118.892 Y139.357 E9.07464
G1 X118.721 Y139.248 E9.08152
G1 X116.937 Y137.945 E9.15646
G1 X116.842 Y137.87 E9.16057
G1 X116.07 Y137.211 E9.195
G1 X116.007 Y137.154 E9.19789
G1 X114.273 Y135.507 E9.27902
G1 X114.206 Y135.44 E9.28223
G1 X112.104 Y133.192 E9.38664
G1 X112.041 Y133.12 E9.38989
G1 X108.78 Y129.184 E9.5633
G1 X108.723 Y129.11 E9.56646
G1 X105.192 Y124.305 E9.76876
G1 X105.147 Y124.242 E9.77138
G1 X101.763 Y119.137 E9.97917
G1 X101.72 Y119.068 E9.98193
G1 X97.945 Y112.689 E10.23339
G1 X97.91 Y112.627 E10.23581
G1 X95.242 Y107.624 E10.42816
G1 X95.206 Y107.551 E10.43092
G1 X92.808 Y102.446 E10.62227
G1 X92.785 Y102.396 E10.62413
G1 X90.724 Y97.583 E10.80176
G1 X90.71 Y97.548 E10.80304
G1 X88.966 Y93.194 E10.96216
G1 X88.951 Y93.156 E10.96354
G1 X85.588 Y84.104 E11.29114
G1 X85.576 Y84.071 E11.29233
G1 X84.049 Y79.661 E11.45066
G0 F3600 X84.427 Y79.53
G1 F1800 X84.364 Y79.227 E11.46116
G1 X84.381 Y78.918 E11.47166
G1 X84.476 Y78.624 E11.48214
G1 X84.643 Y78.364 E11.49262
G1 X84.871 Y78.155 E11.50312
G1 X85.061 Y78.046 E11.51055
G1 X87.655 Y76.857 E11.60735
G1 X92.658 Y74.3 E11.79796
G1 X95.877 Y72.461 E11.92374
G1 X96.163 Y72.344 E11.93422
G1 X96.469 Y72.303 E11.94469
G1 X96.776 Y72.342 E11.95519
G1 X97.062 Y72.458 E11.96566
G1 X97.31 Y72.644 E11.97618
G1 X97.454 Y72.813 E11.98371
G1 X102.814 Y80.444 E12.30008
G1 X102.835 Y80.475 E12.30135
G1 X108.318 Y88.816 E12.63998
G1 X108.343 Y88.856 E12.64158
G1 X111.964 Y94.869 E12.87971
G1 X111.991 Y94.917 E12.88157
G1 X114.585 Y99.707 E13.06638
G1 X114.612 Y99.76 E13.06839
G1 X117.495 Y105.779 E13.29481
G1 X117.513 Y105.818 E13.29626
G1 X119.085 Y109.432 E13.42997
G1 X119.104 Y109.477 E13.43162
G1 X121.583 Y115.859 E13.66389
G1 X121.601 Y115.909 E13.6657
G1 X122.941 Y119.876 E13.80775
G1 X122.959 Y119.933 E13.80978
G1 X124.529 Y125.476 E14.00522
G1 X124.543 Y125.533 E14.00721
G1 X125.012 Y127.563 E14.0779
G1 X125.023 Y127.613 E14.07963
G1 X125.514 Y130.245 E14.17047
G1 X125.526 Y130.328 E14.17331
G1 X125.856 Y133.2 E14.27139
G1 X125.864 Y133.343 E14.27624
G1 X125.851 Y135.818 E14.36021
G1 X125.828 Y136.045 E14.36795
G1 X125.564 Y137.378 E14.41405
G1 X125.477 Y137.648 E14.42368
G1 X125.256 Y138.127 E14.44157
G1 X125.097 Y138.381 E14.45174
G1 X124.608 Y138.983 E14.47805
G1 X124.325 Y139.236 E14.49093
G1 X123.708 Y139.632 E14.5158
G1 X123.403 Y139.772 E14.52719
G1 X122.698 Y139.982 E14.55214
G1 X122.275 Y140.029 E14.56658
G1 X121.282 Y139.963 E14.60034
G1 X120.95 Y139.893 E14.61185
G1 X120.271 Y139.645 E14.63638
G1 X120.103 Y139.569 E14.64263
G1 X119.085 Y139.007 E14.68208
G1 X118.957 Y138.925 E14.68724
G1 X117.173 Y137.622 E14.76219
G1 X117.102 Y137.566 E14.76525
G1 X116.33 Y136.907 E14.79969
G1 X116.283 Y136.864 E14.80185
G1 X114.549 Y135.217 E14.88298
G1 X114.498 Y135.167 E14.88541
G1 X112.396 Y132.919 E14.98982
G1 X112.349 Y132.865 E14.99225
G1 X109.088 Y128.929 E15.16565
G1 X109.045 Y128.874 E15.16802
G1 X105.514 Y124.069 E15.37031
G1 X105.481 Y124.021 E15.37229
G1 X102.097 Y118.916 E15.58007
G1 X102.064 Y118.864 E15.58216
G1 X98.289 Y112.485 E15.83363
G1 X98.263 Y112.439 E15.83542
G1 X95.595 Y107.436 E16.02777
G1 X95.568 Y107.381 E16.02985
G1 X93.17 Y102.276 E16.2212
G1 X93.153 Y102.238 E16.22261
G1 X91.092 Y97.425 E16.40023
G1 X91.081 Y97.399 E16.40119
G1 X89.337 Y93.045 E16.56031
G1 X89.326 Y93.017 E16.56133
G1 X85.963 Y83.965 E16.88893
G1 X85.954 Y83.94 E16.88983
G1 X84.427 Y79.53 E17.04816
G1 F1500 E16.24816
G0 F3600 X85.985 Y79.789
;TYPE:WALL-OUTER
G1 F1500 E17.08973
G1 F1200 X86.235 Y79.988 E17.10057
G1 X86.704 Y80.302 E17.11972
G1 X87.182 Y80.566 E17.13825
G1 X87.692 Y80.795 E17.15721
G1 X88.204 Y80.975 E17.17562
G1 X88.744 Y81.117 E17.19457
G1 X89.187 Y81.196 E17.20983
G1 X89.739 Y81.255 E17.22867
G1 X90.276 Y81.265 E17.24689
G1 X90.827 Y81.233 E17.26561
G1 X91.356 Y81.156 E17.28375
G1 X91.893 Y81.035 E17.30242
G1 X92.398 Y80.873 E17.32041
G1 X92.908 Y80.667 E17.33907
G1 X93.383 Y80.425 E17.35716
G1 X93.845 Y80.14 E17.37558
G1 X94.287 Y79.818 E17.39413
G1 X94.693 Y79.463 E17.41242
G1 X95.078 Y79.074 E17.43099
G1 X95.419 Y78.659 E17.44921
G1 X95.732 Y78.215 E17.46764
G1 X96 Y77.754 E17.48573
G1 X96.236 Y77.266 E17.50412
G1 X96.425 Y76.771 E17.5221
G1 X96.578 Y76.261 E17.54016
G1 X96.685 Y75.745 E17.55804
G1 X96.753 Y75.224 E17.57587
G1 X96.777 Y74.707 E17.59342
G1 X96.764 Y74.234 E17.60948
G1 X97.378 Y75.086 E17.64511
G1 X99.403 Y77.96 E17.76438
G1 X101.756 Y81.376 E17.9051
G1 X103.52 Y83.988 E18.01203
G1 X105.055 Y86.317 E18.10666
G1 X105.977 Y87.739 E18.16415
G1 X107.049 Y89.428 E18.23202
G1 X108.108 Y91.129 E18.3
G1 X109.153 Y92.847 E18.36821
G1 X110.093 Y94.43 E18.43067
G1 X110.898 Y95.821 E18.4852
G1 X111.563 Y97.001 E18.53115
G1 X112.231 Y98.218 E18.57825
G1 X112.999 Y99.681 E18.6343
G1 X113.512 Y100.679 E18.67237
G1 X114.217 Y102.099 E18.72615
G1 X115.034 Y103.796 E18.79005
G1 X115.746 Y105.318 E18.84705
G1 X116.362 Y106.667 E18.89737
G1 X117.022 Y108.158 E18.95268
G1 X117.995 Y110.446 E19.03703
G1 X118.876 Y112.635 E19.11708
G1 X119.408 Y114.009 E19.16707
G1 X119.917 Y115.373 E19.21646
G1 X120.408 Y116.73 E19.26542
G1 X120.933 Y118.251 E19.32
G1 X121.36 Y119.529 E19.36572
G1 X121.753 Y120.755 E19.40939
G1 X122.215 Y122.283 E19.46355
G1 X122.544 Y123.425 E19.50387
G1 X122.875 Y124.633 E19.54636
G1 X123.29 Y126.292 E19.60438
G1 X123.525 Y127.309 E19.63979
G1 X123.745 Y128.326 E19.67509
G1 X123.898 Y129.101 E19.70189
G1 X124.053 Y129.946 E19.73103
G1 X124.197 Y130.839 E19.76172
G1 X124.307 Y131.634 E19.78895
G1 X124.389 Y132.355 E19.81357
G1 X124.45 Y133.028 E19.83649
G1 X124.491 Y133.746 E19.86089
G1 X124.509 Y134.361 E19.88176
G1 X124.51 Y134.886 E19.89957
G1 X124.494 Y135.364 E19.9158
G1 X124.462 Y135.796 E19.93049
G1 X124.416 Y136.178 E19.94355
G1 X124.357 Y136.52 E19.95532
G1 X124.295 Y136.785 E19.96455
G1 X124.215 Y137.06 E19.97427
G1 X124.116 Y137.298 E19.98301
G1 X124.033 Y137.467 E19.9894
G1 X123.929 Y137.645 E19.9964
G1 X123.809 Y137.81 E20.00332
G1 X123.675 Y137.965 E20.01027
G1 X123.538 Y138.097 E20.01672
G1 X123.386 Y138.22 E20.02336
G1 X123.247 Y138.311 E20.02899
G1 X122.916 Y138.482 E20.04163
G1 X122.756 Y138.547 E20.04749
G1 X122.625 Y138.584 E20.05211
G1 X122.383 Y138.635 E20.0605
G1 X122.167 Y138.658 E20.06787
G1 X121.938 Y138.66 E20.07564
G1 X121.723 Y138.642 E20.08296
G1 X121.508 Y138.605 E20.09036
G1 X121.286 Y138.548 E20.09813
G1 X121.059 Y138.47 E20.10628
G1 X120.803 Y138.364 E20.11568
G1 X120.495 Y138.216 E20.12727
G1 X119.872 Y137.864 E20.15155
G1 X119.427 Y137.576 E20.16953
G1 X119.039 Y137.303 E20.18562
G1 X118.571 Y136.954 E20.20543
G1 X118.187 Y136.651 E20.22202
G1 X117.618 Y136.182 E20.24704
G1 X117.099 Y135.726 E20.27048
G1 X116.636 Y135.301 E20.2918
G1 X115.933 Y134.626 E20.32486
G1 X115.184 Y133.87 E20.36097
G1 X114.488 Y133.14 E20.39518
G1 X114.006 Y132.617 E20.41931
G1 X113.085 Y131.588 E20.46616
G1 X112.357 Y130.741 E20.50405
G1 X111.609 Y129.845 E20.54365
G1 X110.741 Y128.769 E20.59055
G1 X109.942 Y127.748 E20.63453
G1 X109.146 Y126.706 E20.67902
G1 X108.264 Y125.518 E20.72921
G1 X107.888 Y124.999 E20.75096
G1 X106.411 Y122.914 E20.83764
G1 X105.434 Y121.481 E20.89648
G1 X104.248 Y119.683 E20.96955
G1 X103.676 Y118.797 E21.00533
G1 X103.105 Y117.892 E21.04163
G1 X101.992 Y116.085 E21.11363
G1 X101.182 Y114.722 E21.16742
G1 X100.274 Y113.157 E21.2288
G1 X99.403 Y111.612 E21.28897
G1 X98.51 Y109.991 E21.35176
G1 X97.729 Y108.533 E21.40787
G1 X97.026 Y107.17 E21.4599
G1 X96.419 Y105.95 E21.50613
G1 X95.85 Y104.77 E21.55057
G1 X95.256 Y103.498 E21.5982
G1 X94.6 Y102.055 E21.65197
G1 X93.174 Y98.78 E21.77315
G1 X92.526 Y97.234 E21.83002
G1 X91.625 Y95.028 E21.91086
G1 X90.749 Y92.817 E21.99155
G1 X90.096 Y91.122 E22.05317
G1 X89.105 Y88.505 E22.1481
G1 X88.292 Y86.295 E22.22799
G1 X87.335 Y83.647 E22.32351
G1 X86.333 Y80.804 E22.42578
G1 X85.985 Y79.789 E22.46218
G0 F3600 X86.141 Y79.913
G1 F1500 E21.66218
G0 F3600 X89.562 Y88.663
G1 F1500 E22.50375
G1 F1200 X90.524 Y90.53 E22.57501
G1 X102.888 Y84.146 E23.04707
G1 X101.925 Y82.28 E23.11831
G1 X89.562 Y88.663 E23.59033
G0 F3600 X89.653 Y88.84
G1 F1500 E22.79033
G0 F3600 X107.486 Y123.3
G1 F1500 E23.63191
G1 F1200 X108.449 Y125.166 E23.70315
G1 X120.748 Y118.816 E24.17272
G1 X119.785 Y116.95 E24.24396
G1 X107.486 Y123.3 E24.71354
G0 F3600 X107.577 Y123.477
G0 X107.699 Y124.104
;TYPE:SKIN
G1 F1200 X106.932 Y123.337 E24.75034
G1 X106.862 Y123.267
G0 F3600 X107.335 Y123.174
G1 F1200 X105.673 Y121.512 E24.83008
G1 X105.603 Y121.442
G1 F1500 E24.03008
G0 F3600 X104.567 Y119.841
G1 F1500 E24.87165
G1 F1200 X107.707 Y122.981 E25.0223
G1 X107.777 Y123.051
G0 F3600 X108.081 Y122.789
G1 F1200 X103.546 Y118.254 E25.23988
G1 X103.476 Y118.184
G1 F1500 E24.43988
G0 F3600 X102.621 Y116.763
G1 F1500 E25.28146
G1 F1200 X108.454 Y122.596 E25.56131
G1 X108.524 Y122.666
G0 F3600 X108.827 Y122.403
G1 F1200 X101.751 Y115.327 E25.9008
G1 X101.681 Y115.257
G1 F1500 E25.1008
G0 F3600 X100.946 Y113.957
G1 F1500 E25.94238
G1 F1200 X109.2 Y122.211 E26.33838
G1 X109.27 Y122.281
G0 F3600 X109.573 Y122.018
G1 F1200 X100.182 Y112.627 E26.78894
G1 X100.112 Y112.557
G1 F1500 E25.98894
G0 F3600 X99.457 Y111.336
G1 F1500 E26.83052
G1 F1200 X109.946 Y121.826 E27.33378
G1 X110.016 Y121.896
G0 F3600 X110.319 Y121.633
G1 F1200 X98.763 Y110.076 E27.88823
G1 X98.693 Y110.006
G1 F1500 E27.08823
G0 F3600 X98.102 Y108.85
G1 F1500 E27.92981
G1 F1200 X110.692 Y121.44 E28.53385
G1 X110.762 Y121.51
G0 F3600 X111.065 Y121.248
G1 F1200 X97.485 Y107.668 E29.18538
G1 X97.415 Y107.598
G1 F1500 E28.38538
G0 F3600 X96.903 Y106.519
G1 F1500 E29.22696
G1 F1200 X111.439 Y121.055 E29.92436
G1 X111.509 Y121.125
G0 F3600 X111.811 Y120.862
G1 F1200 X96.357 Y105.408 E30.66581
G1 X96.287 Y105.338
G1 F1500 E29.86581
G0 F3600 X95.842 Y104.327
G1 F1500 E30.70738
G1 F1200 X112.185 Y120.67 E31.49148
G1 X112.255 Y120.74
G0 F3600 X112.557 Y120.477
G1 F1200 X95.35 Y103.27 E32.31704
G1 X95.28 Y103.2
G1 F1500 E31.51704
G0 F3600 X94.878 Y102.232
G1 F1500 E32.35861
G1 F1200 X112.931 Y120.285 E33.22475
G1 X113.001 Y120.355
G0 F3600 X113.304 Y120.092
G1 F1200 X94.432 Y101.22 E34.13019
G1 X94.362 Y101.15
G1 F1500 E33.33019
G0 F3600 X93.997 Y100.219
G1 F1500 E34.17176
G1 F1200 X113.677 Y119.899 E35.11596
G1 X113.747 Y119.969
G0 F3600 X114.05 Y119.707
G1 F1200 X93.56 Y99.217 E36.09902
G1 X93.49 Y99.147
G1 F1500 E35.29902
G0 F3600 X93.138 Y98.229
G1 F1500 E36.1406
G1 F1200 X114.423 Y119.514 E37.1618
G1 X114.493 Y119.584
G0 F3600 X114.796 Y119.322
G1 F1200 X92.731 Y97.256 E38.22046
G1 X92.661 Y97.186
G1 F1500 E37.42046
G0 F3600 X92.338 Y96.298
G1 F1500 E38.26203
G1 F1200 X115.17 Y119.129 E39.35743
G1 X115.24 Y119.199
G0 F3600 X115.542 Y118.936
G1 F1200 X91.947 Y95.342 E40.48944
G1 X91.877 Y95.272
G1 F1500 E39.68944
G0 F3600 X91.568 Y94.397
G1 F1500 E40.53102
G1 F1200 X115.916 Y118.744 E41.69915
G1 X115.986 Y118.814
G0 F3600 X116.289 Y118.552
G1 F1200 X91.198 Y93.461 E42.90296
G1 X91.128 Y93.391
G1 F1500 E42.10296
G0 F3600 X90.831 Y92.528
G1 F1500 E42.94454
G1 F1200 X116.662 Y118.359 E44.18385
G1 X116.732 Y118.429
G0 F3600 X117.035 Y118.166
G1 F1200 X90.477 Y91.608 E45.45804
G1 X90.407 Y91.538
G1 F1500 E44.65804
G0 F3600 X90.661 Y90.661
G1 F1500 E45.49961
G1 F1200 X117.781 Y117.781 E46.80077
G1 X117.851 Y117.851
G0 F3600 X118.154 Y117.589
G1 F1200 X91.034 Y90.468 E48.10195
G1 X90.964 Y90.398
G0 F3600 X91.407 Y90.276
G1 F1200 X118.527 Y117.395 E49.40308
G1 X118.597 Y117.465
G0 F3600 X118.9 Y117.203
