;FLAVOR:Marlin
;TIME:840
;Filament used: 0.612873m
;Layer height: 0.2
;Generated with Cura_SteamEngine 3.1.0
M190 S60
M104 S230
M109 S230
M82 ; absolute extrusion mode
G28 ;Home
G1 Z15.0 F6000 ;Move the platform down 15mm
;Prime the extruder
G92 E0
G1 F200 E3
G92 E0
;LAYER_COUNT:146
;LAYER:0
M107
G0 F3600 X85.294 Y86.538 Z0.2
;TYPE:SKIRT
G1 F1800 X85.298 Y86.139 E0.01354
G1 X85.382 Y85.748 E0.0271
G1 X85.541 Y85.382 E0.04064
G1 X85.773 Y85.051 E0.05436
G1 X85.843 Y84.97 E0.05799
G1 X86.133 Y84.696 E0.07152
G1 X86.472 Y84.484 E0.08509
G1 X86.846 Y84.344 E0.09863
G1 X87.24 Y84.281 E0.11217
G1 X87.64 Y84.298 E0.12575
G1 X88.027 Y84.394 E0.13928
G1 X88.389 Y84.565 E0.15286
G1 X88.693 Y84.79 E0.16569
G1 X92.931 Y88.599 E0.35901
G1 X111.211 Y103.551 E1.16019
G1 X111.266 Y103.597 E1.16262
G1 X117.341 Y108.942 E1.43713
G1 X117.405 Y109.001 E1.44009
G1 X121.469 Y112.9 E1.63115
G1 X121.536 Y112.968 E1.63439
G1 X124.977 Y116.603 E1.8042
G1 X125.03 Y116.66 E1.80684
G1 X128.887 Y121.064 E2.00544
G1 X128.942 Y121.131 E2.00839
G1 X132.662 Y125.769 E2.21009
G1 X132.722 Y125.848 E2.21346
G1 X135.523 Y129.72 E2.37558
G1 X135.586 Y129.811 E2.37934
G1 X137.186 Y132.301 E2.47975
G1 X137.273 Y132.45 E2.4856
G1 X138.563 Y134.899 E2.57951
G1 X138.686 Y135.185 E2.59007
G1 X139.103 Y136.406 E2.63384
G1 X139.193 Y136.795 E2.64738
G1 X139.209 Y137.125 E2.65859
G1 X139.181 Y137.887 E2.68446
G1 X139.126 Y138.283 E2.69802
G1 X138.943 Y138.762 E2.71542
G1 X138.809 Y139.011 E2.72501
G1 X138.586 Y139.342 E2.73855
G1 X138.259 Y139.654 E2.75389
G1 X138.079 Y139.791 E2.76156
G1 X137.739 Y140 E2.7751
G1 X137.308 Y140.151 E2.79059
G1 X136.811 Y140.263 E2.80788
G1 X136.414 Y140.312 E2.82145
G1 X135.928 Y140.262 E2.83802
G1 X134.995 Y140.05 E2.87048
G1 X134.552 Y139.893 E2.88643
G1 X132.975 Y139.114 E2.9461
G1 X132.792 Y139.011 E2.95322
G1 X130.428 Y137.515 E3.04813
G1 X130.294 Y137.423 E3.05365
G1 X126.26 Y134.386 E3.22495
G1 X126.171 Y134.315 E3.22881
G1 X121.87 Y130.675 E3.41997
G1 X121.802 Y130.614 E3.42306
G1 X117.309 Y126.446 E3.63098
G1 X117.246 Y126.386 E3.63393
G1 X112.888 Y121.976 E3.84427
G1 X112.823 Y121.906 E3.84751
G1 X109.791 Y118.528 E4.0015
G1 X109.739 Y118.468 E4.00419
G1 X105.387 Y113.216 E4.23559
G1 X105.349 Y113.169 E4.23764
G1 X101.539 Y108.278 E4.44797
G1 X101.515 Y108.246 E4.44933
G1 X89.627 Y92.339 E5.12304
G1 X85.743 Y87.632 E5.33007
G1 X85.521 Y87.3 E5.34362
G1 X85.369 Y86.93 E5.35719
G1 X85.294 Y86.538 E5.37073
G0 F3600 X85.686 Y86.389
G1 F1800 X85.72 Y86.033 E5.38286
G1 X85.831 Y85.694 E5.39496
G1 X86.075 Y85.313 E5.41031
G1 X86.145 Y85.232 E5.41394
G1 X86.408 Y84.989 E5.42609
G1 X86.717 Y84.811 E5.43819
G1 X87.059 Y84.706 E5.45032
G1 X87.415 Y84.679 E5.46244
G1 X87.768 Y84.732 E5.47455
G1 X88.101 Y84.862 E5.48667
G1 X88.425 Y85.088 E5.50007
G1 X92.66 Y88.894 E5.69324
G1 X110.958 Y103.861 E6.49522
G1 X111.002 Y103.898 E6.49717
G1 X117.077 Y109.243 E6.77168
G1 X117.128 Y109.289 E6.77401
G1 X121.192 Y113.188 E6.96508
G1 X121.246 Y113.243 E6.96769
G1 X124.687 Y116.878 E7.1375
G1 X124.729 Y116.924 E7.13962
G1 X128.586 Y121.328 E7.33822
G1 X128.63 Y121.381 E7.34056
G1 X132.35 Y126.019 E7.54226
G1 X132.398 Y126.082 E7.54495
G1 X135.199 Y129.954 E7.70708
G1 X135.249 Y130.027 E7.71008
G1 X136.849 Y132.517 E7.81049
G1 X136.919 Y132.636 E7.81517
G1 X138.209 Y135.085 E7.90908
G1 X138.307 Y135.314 E7.91753
G1 X138.724 Y136.535 E7.9613
G1 X138.801 Y136.884 E7.97342
G1 X138.809 Y137.111 E7.98113
G1 X138.781 Y137.873 E8.007
G1 X138.728 Y138.226 E8.01911
G1 X138.591 Y138.572 E8.03173
G1 X138.457 Y138.821 E8.04133
G1 X138.254 Y139.115 E8.05345
G1 X138.017 Y139.336 E8.06444
G1 X137.837 Y139.473 E8.07211
G1 X137.53 Y139.656 E8.08424
G1 X137.22 Y139.761 E8.09534
G1 X136.723 Y139.873 E8.11263
G1 X136.368 Y139.912 E8.12474
G1 X136.016 Y139.872 E8.13676
G1 X135.083 Y139.66 E8.16922
G1 X134.729 Y139.535 E8.18196
G1 X133.152 Y138.756 E8.24163
G1 X133.005 Y138.673 E8.24736
G1 X130.641 Y137.177 E8.34226
G1 X130.535 Y137.103 E8.34665
G1 X126.501 Y134.066 E8.51795
G1 X126.429 Y134.009 E8.52107
G1 X122.128 Y130.369 E8.71222
G1 X122.074 Y130.321 E8.71467
G1 X117.581 Y126.153 E8.92259
G1 X117.531 Y126.105 E8.92494
G1 X113.173 Y121.695 E9.13528
G1 X113.12 Y121.639 E9.13789
G1 X110.088 Y118.261 E9.29188
G1 X110.047 Y118.213 E9.29403
G1 X105.695 Y112.961 E9.52542
G1 X105.665 Y112.923 E9.52707
G1 X101.855 Y108.032 E9.7374
G1 X101.835 Y108.007 E9.73848
G1 X89.925 Y92.071 E10.41342
G1 X86.052 Y87.377 E10.61988
G1 X85.857 Y87.078 E10.63199
G1 X85.733 Y86.743 E10.64411
G1 X85.686 Y86.389 E10.65622
G0 F3600 X86.104 Y86.566
G1 F1800 X86.09 Y86.257 E10.66671
G1 X86.156 Y85.955 E10.6772
G1 X86.378 Y85.574 E10.69216
G1 X86.448 Y85.493 E10.69579
G1 X86.679 Y85.287 E10.70629
G1 X86.954 Y85.147 E10.71676
G1 X87.257 Y85.082 E10.72728
G1 X87.565 Y85.096 E10.73774
G1 X87.86 Y85.189 E10.74823
G1 X88.158 Y85.385 E10.76033
G1 X92.4 Y89.197 E10.95381
G1 X110.705 Y104.17 E11.7561
G1 X110.738 Y104.198 E11.75757
G1 X116.813 Y109.543 E12.03208
G1 X116.851 Y109.578 E12.03384
G1 X120.915 Y113.477 E12.2249
G1 X120.955 Y113.518 E12.22684
G1 X124.396 Y117.153 E12.39665
G1 X124.428 Y117.187 E12.39824
G1 X128.285 Y121.591 E12.59684
G1 X128.318 Y121.631 E12.5986
G1 X132.038 Y126.269 E12.80031
G1 X132.074 Y126.317 E12.80234
G1 X134.875 Y130.189 E12.96447
G1 X134.913 Y130.243 E12.96671
G1 X136.513 Y132.733 E13.06712
G1 X136.565 Y132.823 E13.07064
G1 X137.855 Y135.272 E13.16455
G1 X137.929 Y135.443 E13.17087
G1 X138.346 Y136.664 E13.21464
G1 X138.409 Y137.096 E13.22945
G1 X138.381 Y137.858 E13.25532
G1 X138.33 Y138.163 E13.26581
G1 X138.239 Y138.383 E13.27389
G1 X138.105 Y138.632 E13.28348
G1 X137.924 Y138.883 E13.29398
G1 X137.775 Y139.018 E13.3008
G1 X137.595 Y139.155 E13.30847
G1 X137.327 Y139.309 E13.31896
G1 X137.132 Y139.371 E13.3259
G1 X136.635 Y139.483 E13.34319
G1 X136.327 Y139.511 E13.35368
G1 X136.105 Y139.482 E13.36127
G1 X135.172 Y139.27 E13.39373
G1 X134.907 Y139.176 E13.40327
G1 X133.33 Y138.397 E13.46294
G1 X133.219 Y138.335 E13.46726
G1 X130.855 Y136.839 E13.56217
G1 X130.775 Y136.784 E13.56546
G1 X126.741 Y133.747 E13.73676
G1 X126.688 Y133.704 E13.73908
G1 X122.387 Y130.064 E13.93023
G1 X122.346 Y130.028 E13.93208
G1 X117.853 Y125.86 E14.14
G1 X117.815 Y125.823 E14.1418
G1 X113.457 Y121.413 E14.35213
G1 X113.418 Y121.372 E14.35405
G1 X110.386 Y117.994 E14.50805
G1 X110.355 Y117.958 E14.50966
G1 X106.003 Y112.706 E14.74106
G1 X105.98 Y112.677 E14.74231
G1 X102.17 Y107.786 E14.95264
G1 X102.156 Y107.767 E14.95344
G1 X90.26 Y91.85 E15.62758
G1 X86.36 Y87.123 E15.83548
G1 X86.196 Y86.861 E15.84597
G1 X86.104 Y86.566 E15.85645
G1 F1500 E15.05645
G0 F3600 X89.145 Y88.211
;TYPE:WALL-OUTER
G1 F1500 E15.89803
G1 F1200 X90.228 Y89.176 E15.94724
G1 X91.07 Y89.904 E15.985
G1 X91.933 Y90.638 E16.02343
G1 X93.554 Y91.991 E16.09507
G1 X96.129 Y94.096 E16.2079
G1 X102.762 Y99.434 E16.49674
G1 X104.555 Y100.887 E16.57504
G1 X106.133 Y102.177 E16.64418
G1 X107.818 Y103.571 E16.71838
G1 X109.575 Y105.046 E16.7962
G1 X111.351 Y106.562 E16.87542
G1 X113.14 Y108.122 E16.95594
G1 X114.33 Y109.179 E17.00994
G1 X115.636 Y110.363 E17.06975
G1 X116.538 Y111.195 E17.11138
G1 X117.359 Y111.964 E17.14954
G1 X118.866 Y113.411 E17.22042
G1 X119.717 Y114.254 E17.26105
G1 X120.62 Y115.173 E17.30476
G1 X121.423 Y116.01 E17.34411
G1 X122.477 Y117.138 E17.39649
G1 X123.524 Y118.273 E17.44887
G1 X124.569 Y119.432 E17.50182
G1 X125.403 Y120.377 E17.54458
G1 X126.257 Y121.365 E17.58888
G1 X127.432 Y122.75 E17.6505
G1 X128.342 Y123.852 E17.69898
G1 X129.198 Y124.91 E17.74515
G1 X130.03 Y125.958 E17.79055
G1 X131.176 Y127.444 E17.85421
G1 X131.836 Y128.326 E17.89158
G1 X132.621 Y129.402 E17.93677
G1 X133.296 Y130.356 E17.97642
G1 X134.032 Y131.436 E18.02075
G1 X134.633 Y132.353 E18.05795
G1 X135.115 Y133.119 E18.08865
G1 X135.515 Y133.788 E18.1151
G1 X135.833 Y134.346 E18.13688
G1 X136.11 Y134.862 E18.15675
G1 X136.427 Y135.492 E18.18068
G1 X136.684 Y136.053 E18.20161
G1 X136.814 Y136.38 E18.21355
G1 X136.92 Y136.682 E18.22441
G1 X136.992 Y136.93 E18.23317
G1 X137.044 Y137.2 E18.2425
G1 X137.056 Y137.42 E18.24997
G1 X137.044 Y137.577 E18.25532
G1 X137.008 Y137.735 E18.26081
G1 X136.964 Y137.843 E18.26477
G1 X136.902 Y137.94 E18.26867
G1 X136.807 Y138.019 E18.27287
G1 X136.714 Y138.062 E18.27634
G1 X136.597 Y138.096 E18.28048
G1 X136.422 Y138.121 E18.28647
G1 X136.212 Y138.115 E18.2936
G1 X135.915 Y138.059 E18.30385
G1 X135.601 Y137.955 E18.31508
G1 X135.306 Y137.841 E18.3258
G1 X134.746 Y137.581 E18.34675
G1 X134.219 Y137.302 E18.36698
G1 X133.637 Y136.971 E18.38969
G1 X132.958 Y136.556 E18.41669
G1 X132.423 Y136.212 E18.43827
G1 X131.939 Y135.889 E18.45801
G1 X131.317 Y135.458 E18.48368
G1 X130.362 Y134.772 E18.52357
G1 X129.427 Y134.076 E18.56312
G1 X128.416 Y133.294 E18.60648
G1 X127.237 Y132.352 E18.65768
G1 X125.983 Y131.318 E18.71282
G1 X125.156 Y130.619 E18.74955
G1 X124.005 Y129.625 E18.80114
G1 X123.14 Y128.861 E18.8403
G1 X121.998 Y127.834 E18.8924
G1 X121.057 Y126.97 E18.93574
G1 X119.709 Y125.705 E18.99846
G1 X118.424 Y124.465 E19.05904
G1 X116.556 Y122.607 E19.14842
G1 X115.582 Y121.613 E19.19563
G1 X114.643 Y120.635 E19.24163
G1 X113.756 Y119.685 E19.28572
G1 X112.438 Y118.221 E19.35255
G1 X111.656 Y117.328 E19.39282
G1 X110.179 Y115.597 E19.47002
G1 X109.199 Y114.425 E19.52185
G1 X108.511 Y113.589 E19.55858
G1 X107.258 Y112.036 E19.62627
G1 X105.597 Y109.935 E19.71713
G1 X104.36 Y108.341 E19.78559
G1 X103.277 Y106.928 E19.84598
G1 X102.087 Y105.353 E19.91295
G1 X100.188 Y102.813 E20.02054
G1 X95.856 Y96.943 E20.26804
G1 X93.365 Y93.601 E20.40945
G1 X92.34 Y92.249 E20.46701
G1 X90.902 Y90.392 E20.54669
G1 X90.052 Y89.32 E20.5931
G1 X89.145 Y88.211 E20.6417
G0 F3600 X89.294 Y88.344
G1 F1500 E19.8417
G0 F3600 X95.256 Y95.592
G1 F1500 E20.68328
G1 F1200 X102.733 Y103.386 E21.04969
G1 X103.744 Y102.417 E21.0972
G1 X96.267 Y94.623 E21.46361
G1 X95.256 Y95.592 E21.51112
G0 F3600 X95.394 Y95.736
G0 X95.298 Y95.298
;TYPE:SKIN
G1 F1200 X93.553 Y93.553 E21.59484
G1 X93.483 Y93.483
G1 F1500 E20.79484
G0 F3600 X95.565 Y93.868
G1 F1500 E21.63642
G1 F1200 X96.166 Y94.469 E21.66525
G1 X96.236 Y94.539
G0 F3600 X95.877 Y94.745
G1 F1200 X92.363 Y91.232 E21.83382
G1 X92.293 Y91.162
G0 F3600 X91.715 Y91.149
G1 F1200 X95.588 Y95.022 E22.01964
G1 X95.658 Y95.092
G1 F1500 E21.21964
G0 F3600 X122.244 Y117.153
G1 F1500 E22.06122
G1 F1200 X116.479 Y111.388 E22.33781
G1 X116.409 Y111.318
G1 F1500 E21.53781
G0 F3600 X111.174 Y106.649
G1 F1500 E22.37938
G1 F1200 X126.749 Y122.224 E23.12663
G1 X126.819 Y122.294
G1 F1500 E22.32663
G0 F3600 X129.343 Y125.384
G1 F1500 E23.16821
G1 F1200 X107.512 Y103.552 E24.21563
G1 X107.442 Y103.482
G1 F1500 E23.41563
G0 F3600 X103.771 Y102.64
G1 F1500 E24.25721
G1 F1200 X135.801 Y134.67 E25.79393
G1 X135.871 Y134.74
G1 F1500 E24.99393
G0 F3600 X136.373 Y135.807
G1 F1500 E25.83551
G1 F1200 X103.482 Y102.916 E27.41354
G1 X103.412 Y102.846
G0 F3600 X103.193 Y103.193
G1 F1200 X136.753 Y136.753 E29.02367
G1 X136.823 Y136.823
G0 F3600 X136.874 Y137.44
G1 F1200 X102.905 Y103.47 E30.65345
G1 X102.835 Y103.4
G1 F1500 E29.85345
G0 F3600 X101.681 Y104.509
G1 F1500 E30.69503
G1 F1200 X134.324 Y137.153 E32.26119
G1 X134.394 Y137.223
G1 F1500 E31.46119
G0 F3600 X135.433 Y137.696
G1 F1500 E32.30276
G1 F1200 X100.02 Y102.283 E34.00179
G1 X99.95 Y102.213
G1 F1500 E33.20179
G0 F3600 X98.427 Y100.124
G1 F1500 E34.04337
G1 F1200 X136.238 Y137.935 E35.85745
G1 X136.308 Y138.005
G0 F3600 X136.722 Y137.854
G1 F1200 X96.833 Y97.964 E37.77126
G1 X96.763 Y97.894
G1 F1500 E36.97126
G0 F3600 X98.489 Y96.226
G1 F1500 E37.81283
G1 F1200 X134.037 Y131.774 E39.51834
G1 X134.107 Y131.844
G1 F1500 E38.71834
G0 F3600 X135.035 Y133.338
G1 F1500 E39.55992
G1 F1200 X101.159 Y99.462 E41.18521
G1 X101.089 Y99.392
G1 F1500 E40.38521
G0 F3600 X101.383 Y98.555
G1 F1500 E41.22679
G1 F1200 X132.81 Y129.981 E42.73456
G1 X132.88 Y130.051
G1 F1500 E41.93456
G0 F3600 X131.282 Y127.888
G1 F1500 E42.77613
G1 F1200 X104.335 Y100.941 E44.06899
G1 X104.265 Y100.871
G1 F1500 E43.26899
G0 F3600 X103.406 Y106.8
G1 F1500 E44.11056
G1 F1200 X132.925 Y136.319 E45.52681
G1 X132.995 Y136.389
G1 F1500 E44.72681
G0 F3600 X131.169 Y135.128
G1 F1500 E45.56839
G1 F1200 X105.303 Y109.262 E46.80938
G1 X105.233 Y109.192
G1 F1500 E46.00938
G0 F3600 X107.403 Y111.929
G1 F1500 E46.85095
G1 F1200 X128.967 Y133.492 E47.88552
G1 X129.037 Y133.562
G1 F1500 E47.08552
G0 F3600 X126.026 Y131.118
G1 F1500 E47.9271
G1 F1200 X109.945 Y115.037 E48.69862
G1 X109.875 Y114.967
G1 F1500 E47.89862
G0 F3600 X113.749 Y119.406
G1 F1500 E48.7402
G1 F1200 X121.196 Y126.853 E49.09749
G1 X121.266 Y126.923
G1 F1500 E48.29749
G0 F3600 X89.077 Y88.141
;TIME_ELAPSED:69.849664
;LAYER:1
M140 S60
M106 S255
G0 F5400 X89.077 Y88.141 Z0.4
;TYPE:WALL-OUTER
G1 F1500 E49.13906
G1 F1800 X90.249 Y89.18 E49.1922
G1 X91.081 Y89.9 E49.22953
G1 X92.006 Y90.684 E49.27066
G1 X93.681 Y92.08 E49.34464
G1 X95.371 Y93.464 E49.41874
G1 X102.338 Y99.074 E49.7222
G1 X105.568 Y101.699 E49.8634
G1 X107.188 Y103.036 E49.93466
G1 X108.543 Y104.166 E49.99452
G1 X110.537 Y105.855 E50.08317
G1 X112.457 Y107.515 E50.16928
G1 X113.757 Y108.664 E50.22814
G1 X114.889 Y109.682 E50.27979
G1 X116.03 Y110.726 E50.33225
G1 X117.374 Y111.984 E50.39471
G1 X118.182 Y112.757 E50.43264
G1 X118.983 Y113.538 E50.4706
G1 X119.773 Y114.327 E50.50848
G1 X120.555 Y115.126 E50.5464
G1 X122.109 Y116.767 E50.62308
G1 X123.631 Y118.423 E50.69938
G1 X124.384 Y119.259 E50.73755
G1 X125.912 Y121.005 E50.81626
G1 X127.21 Y122.536 E50.88436
G1 X128.05 Y123.551 E50.92906
G1 X128.884 Y124.576 E50.97389
G1 X130.02 Y126.012 E51.036
G1 X130.726 Y126.926 E51.07518
G1 X131.613 Y128.104 E51.12521
G1 X132.257 Y128.983 E51.16218
G1 X133.052 Y130.101 E51.20872
G1 X133.748 Y131.119 E51.25055
G1 X134.385 Y132.087 E51.28987
G1 X134.825 Y132.786 E51.31789
G1 X135.217 Y133.431 E51.34349
G1 X135.588 Y134.077 E51.36877
G1 X135.867 Y134.593 E51.38867
G1 X136.063 Y134.972 E51.40314
G1 X136.354 Y135.577 E51.42592
G1 X136.493 Y135.897 E51.43775
G1 X136.632 Y136.258 E51.45088
G1 X136.732 Y136.56 E51.46167
G1 X136.793 Y136.788 E51.46968
G1 X136.825 Y136.97 E51.47595
G1 X136.838 Y137.14 E51.48173
G1 X136.831 Y137.31 E51.4875
G1 X136.785 Y137.531 E51.49516
G1 X136.749 Y137.612 E51.49817
G1 X136.687 Y137.713 E51.50219
G1 X136.64 Y137.76 E51.50444
G1 X136.513 Y137.831 E51.50938
G1 X136.394 Y137.869 E51.51362
G1 X136.292 Y137.886 E51.51713
G1 X136.125 Y137.895 E51.5228
G1 X136.027 Y137.891 E51.52613
G1 X135.877 Y137.871 E51.53126
G1 X135.716 Y137.835 E51.53686
G1 X135.537 Y137.781 E51.5432
G1 X135.193 Y137.654 E51.55564
G1 X134.866 Y137.514 E51.56771
G1 X134.57 Y137.373 E51.57883
G1 X134.057 Y137.103 E51.5985
G1 X133.554 Y136.819 E51.61809
G1 X133.054 Y136.521 E51.63784
G1 X132.444 Y136.136 E51.66231
G1 X131.884 Y135.766 E51.68508
G1 X131.231 Y135.318 E51.71195
G1 X130.305 Y134.658 E51.75053
G1 X129.288 Y133.901 E51.79354
G1 X128.312 Y133.147 E51.83538
G1 X127.388 Y132.413 E51.87541
G1 X126.419 Y131.624 E51.91781
G1 X125.35 Y130.729 E51.9651
G1 X124.016 Y129.586 E52.0247
G1 X123.053 Y128.738 E52.06823
G1 X122.089 Y127.874 E52.11215
G1 X121.183 Y127.047 E52.15376
G1 X119.608 Y125.572 E52.22697
G1 X118.707 Y124.708 E52.26932
G1 X117.005 Y123.032 E52.35036
G1 X115.332 Y121.331 E52.4313
G1 X114.513 Y120.478 E52.47142
G1 X113.7 Y119.607 E52.51184
G1 X112.903 Y118.731 E52.55201
G1 X112.112 Y117.842 E52.59238
G1 X111.334 Y116.949 E52.63256
G1 X110.035 Y115.427 E52.70045
G1 X109.12 Y114.334 E52.74881
G1 X108.224 Y113.24 E52.79678
G1 X106.907 Y111.605 E52.868
G1 X105.75 Y110.142 E52.93128
G1 X104.485 Y108.517 E53.00115
G1 X103.316 Y106.995 E53.06625
G1 X101.46 Y104.537 E53.17074
G1 X99.771 Y102.273 E53.26657
G1 X95.473 Y96.449 E53.51213
G1 X94.093 Y94.593 E53.59059
G1 X92.737 Y92.789 E53.66715
G1 X91.368 Y91.005 E53.74344
G1 X90.675 Y90.118 E53.78163
G1 X89.971 Y89.234 E53.81997
G1 X89.077 Y88.141 E53.86787
G0 F5400 X89.226 Y88.273
G1 F1500 E53.06787
G0 F5400 X95.256 Y95.592
G1 F1500 E53.90945
G1 F1800 X102.733 Y103.386 E54.27586
G1 X103.744 Y102.417 E54.32337
