;FLAVOR:Marlin
;TIME:1534
;Filament used: 1.85925m
;Layer height: 0.2
;Generated with Cura_SteamEngine 3.1.0
M190 S60
M104 S230
M109 S230
M82 ; absolute extrusion mode
G28 ;Home
G1 Z15.0 F6000 ;Move the platform down 15mm
;Prime the extruder
G92 E0
G1 F200 E3
G92 E0
;LAYER_COUNT:255
;LAYER:0
M107
G0 F3600 X83.981 Y63.434 Z0.2
;TYPE:SKIRT
G1 F1800 X84.254 Y63.142 E0.01356
G1 X84.58 Y62.91 E0.02714
G1 X84.945 Y62.748 E0.04068
G1 X85.335 Y62.662 E0.05423
G1 X85.734 Y62.655 E0.06777
G1 X86.115 Y62.724 E0.08091
G1 X91.131 Y64.146 E0.25778
G1 X91.206 Y64.168 E0.26043
G1 X95.497 Y65.566 E0.41354
G1 X95.593 Y65.6 E0.41699
G1 X101.333 Y67.8 E0.62554
G1 X101.463 Y67.856 E0.63034
G1 X106.09 Y70.016 E0.80357
G1 X106.194 Y70.068 E0.80752
G1 X108.674 Y71.406 E0.90312
G1 X108.765 Y71.458 E0.90667
G1 X111.594 Y73.182 E1.01906
G1 X111.683 Y73.24 E1.02267
G1 X113.662 Y74.596 E1.10406
G1 X113.773 Y74.677 E1.10872
G1 X117.11 Y77.316 E1.25305
G1 X117.227 Y77.417 E1.25829
G1 X119.333 Y79.365 E1.35562
G1 X119.419 Y79.449 E1.3597
G1 X120.927 Y81.023 E1.43365
G1 X120.999 Y81.102 E1.43727
G1 X122.399 Y82.728 E1.51006
G1 X122.473 Y82.819 E1.51404
G1 X124.085 Y84.93 E1.60415
G1 X124.174 Y85.057 E1.60941
G1 X126.106 Y88.04 E1.72998
G1 X126.186 Y88.175 E1.73531
G1 X127.463 Y90.533 E1.82628
G1 X127.52 Y90.647 E1.83061
G1 X128.549 Y92.877 E1.91393
G1 X128.599 Y92.994 E1.91824
G1 X129.455 Y95.209 E1.9988
G1 X129.499 Y95.338 E2.00343
G1 X130.304 Y97.937 E2.09573
G1 X130.349 Y98.107 E2.1017
G1 X131.086 Y101.521 E2.22019
G1 X131.118 Y101.714 E2.22682
G1 X131.468 Y104.753 E2.3306
G1 X131.481 Y104.94 E2.33696
G1 X131.54 Y107.731 E2.43167
G1 X131.535 Y107.908 E2.43768
G1 X131.368 Y110.381 E2.52177
G1 X131.342 Y110.594 E2.52905
G1 X130.537 Y115.149 E2.68597
G1 X130.498 Y115.325 E2.69209
G1 X130.083 Y116.853 E2.7458
G1 X130.051 Y116.959 E2.74956
G1 X129.291 Y119.247 E2.83135
G1 X129.237 Y119.392 E2.8366
G1 X127.958 Y122.436 E2.94861
G1 X127.902 Y122.557 E2.95314
G1 X127.037 Y124.282 E3.0186
G1 X126.989 Y124.372 E3.02206
G1 X125.895 Y126.303 E3.09736
G1 X125.814 Y126.434 E3.10258
G1 X123.614 Y129.701 E3.2362
G1 X123.501 Y129.853 E3.24263
G1 X121.158 Y132.709 E3.36795
G1 X121.031 Y132.85 E3.37439
G1 X118.131 Y135.769 E3.51398
G1 X118.015 Y135.876 E3.51933
G1 X115.956 Y137.644 E3.61141
G1 X115.868 Y137.716 E3.61526
G1 X113.745 Y139.34 E3.70594
G1 X113.641 Y139.414 E3.71027
G1 X110.572 Y141.464 E3.83548
G1 X110.446 Y141.542 E3.84051
G1 X106.453 Y143.801 E3.99615
G1 X106.35 Y143.855 E4.00009
G1 X103.702 Y145.156 E4.10018
G1 X103.618 Y145.195 E4.10333
G1 X100.272 Y146.65 E4.22711
G1 X100.184 Y146.686 E4.23033
G1 X95.915 Y148.307 E4.38525
G1 X95.837 Y148.334 E4.38805
G1 X91.95 Y149.629 E4.52704
G1 X91.872 Y149.654 E4.52982
G1 X86.238 Y151.278 E4.72874
G1 X85.845 Y151.35 E4.7423
G1 X85.446 Y151.342 E4.75583
G1 X85.056 Y151.255 E4.76939
G1 X84.691 Y151.092 E4.78295
G1 X84.366 Y150.86 E4.7965
G1 X84.093 Y150.568 E4.81006
G1 X83.884 Y150.227 E4.82363
G1 X83.751 Y149.868 E4.83662
G1 X82.982 Y146.963 E4.93856
G1 X82.918 Y146.568 E4.95214
G1 X82.935 Y146.169 E4.96569
G1 X83.055 Y145.715 E4.98162
G1 X85.055 Y140.659 E5.16608
G1 X86.806 Y135.392 E5.35438
G1 X88.251 Y130.056 E5.54192
G1 X88.876 Y127.294 E5.63799
G1 X89.393 Y124.64 E5.72973
G1 X90.231 Y119.148 E5.9182
G1 X90.754 Y113.638 E6.10597
G1 X90.966 Y108.088 E6.29439
G1 X90.864 Y102.536 E6.48278
G1 X90.45 Y97.032 E6.67003
G1 X89.722 Y91.526 E6.85845
G1 X88.68 Y86.058 E7.04729
G1 X88.056 Y83.397 E7.14001
G1 X87.35 Y80.729 E7.23364
G1 X85.693 Y75.398 E7.42303
G1 X83.751 Y70.205 E7.61112
G1 X82.972 Y68.333 E7.67991
G1 X82.856 Y67.95 E7.69349
G1 X82.818 Y67.553 E7.70702
G1 X82.881 Y67.065 E7.72371
G1 X83.633 Y64.149 E7.82587
G1 X83.771 Y63.774 E7.83943
G1 X83.981 Y63.434 E7.85299
G0 F3600 X84.346 Y63.617
G1 F1800 X84.605 Y63.372 E7.86508
G1 X84.912 Y63.189 E7.87721
G1 X85.252 Y63.08 E7.88932
G1 X85.608 Y63.048 E7.90145
G1 X86.006 Y63.109 E7.91511
G1 X91.022 Y64.531 E8.09198
G1 X91.082 Y64.549 E8.09411
G1 X95.373 Y65.947 E8.24721
G1 X95.45 Y65.974 E8.24998
G1 X101.19 Y68.174 E8.45852
G1 X101.294 Y68.218 E8.46235
G1 X105.921 Y70.378 E8.63559
G1 X106.004 Y70.42 E8.63874
G1 X108.484 Y71.758 E8.73434
G1 X108.557 Y71.8 E8.7372
G1 X111.386 Y73.524 E8.84959
G1 X111.457 Y73.57 E8.85246
G1 X113.436 Y74.926 E8.93385
G1 X113.524 Y74.991 E8.93756
G1 X116.861 Y77.63 E9.08189
G1 X116.955 Y77.71 E9.08608
G1 X119.061 Y79.658 E9.1834
G1 X119.13 Y79.726 E9.18669
G1 X120.638 Y81.3 E9.26064
G1 X120.695 Y81.363 E9.26352
G1 X122.095 Y82.989 E9.33632
G1 X122.155 Y83.062 E9.33952
G1 X123.767 Y85.173 E9.42963
G1 X123.838 Y85.274 E9.43382
G1 X125.77 Y88.257 E9.55439
G1 X125.834 Y88.365 E9.55865
G1 X127.111 Y90.723 E9.64962
G1 X127.157 Y90.815 E9.65311
G1 X128.186 Y93.045 E9.73643
G1 X128.225 Y93.138 E9.73985
G1 X129.081 Y95.353 E9.82041
G1 X129.117 Y95.457 E9.82415
G1 X129.922 Y98.056 E9.91645
G1 X129.958 Y98.191 E9.92119
G1 X130.695 Y101.605 E10.03968
G1 X130.72 Y101.76 E10.04501
G1 X131.07 Y104.799 E10.14879
G1 X131.081 Y104.948 E10.15386
G1 X131.14 Y107.739 E10.24856
G1 X131.136 Y107.881 E10.25338
G1 X130.969 Y110.354 E10.33747
G1 X130.949 Y110.524 E10.34328
G1 X130.144 Y115.079 E10.5002
G1 X130.112 Y115.22 E10.50511
G1 X129.697 Y116.748 E10.55882
G1 X129.671 Y116.833 E10.56184
G1 X128.911 Y119.121 E10.64363
G1 X128.868 Y119.237 E10.64783
G1 X127.589 Y122.281 E10.75984
G1 X127.544 Y122.378 E10.76347
G1 X126.679 Y124.103 E10.82894
G1 X126.641 Y124.175 E10.8317
G1 X125.547 Y126.106 E10.90699
G1 X125.482 Y126.211 E10.91118
G1 X123.282 Y129.478 E11.0448
G1 X123.192 Y129.599 E11.04992
G1 X120.849 Y132.455 E11.17524
G1 X120.747 Y132.568 E11.18041
G1 X117.847 Y135.487 E11.32
G1 X117.754 Y135.573 E11.32429
G1 X115.695 Y137.341 E11.41637
G1 X115.625 Y137.398 E11.41943
G1 X113.502 Y139.022 E11.51011
G1 X113.419 Y139.081 E11.51356
G1 X110.35 Y141.131 E11.63877
G1 X110.249 Y141.194 E11.64281
G1 X106.256 Y143.453 E11.79845
G1 X106.174 Y143.496 E11.80159
G1 X103.526 Y144.797 E11.90168
G1 X103.458 Y144.828 E11.90422
G1 X100.112 Y146.283 E12.028
G1 X100.042 Y146.312 E12.03057
G1 X95.773 Y147.933 E12.18549
G1 X95.711 Y147.955 E12.18772
G1 X91.824 Y149.25 E12.32671
G1 X91.761 Y149.269 E12.32894
G1 X86.127 Y150.893 E12.52786
G1 X85.775 Y150.953 E12.53997
G1 X85.418 Y150.934 E12.5521
G1 X85.075 Y150.836 E12.56421
G1 X84.762 Y150.664 E12.57632
G1 X84.495 Y150.426 E12.58846
G1 X84.287 Y150.136 E12.60056
G1 X84.137 Y149.765 E12.61414
G1 X83.368 Y146.86 E12.71609
G1 X83.316 Y146.507 E12.72819
G1 X83.343 Y146.151 E12.7403
G1 X83.427 Y145.863 E12.75048
G1 X85.431 Y140.796 E12.93534
G1 X87.188 Y135.513 E13.12422
G1 X88.639 Y130.153 E13.3126
G1 X89.266 Y127.383 E13.40895
G1 X89.784 Y124.727 E13.50076
G1 X90.628 Y119.195 E13.6906
G1 X91.154 Y113.656 E13.87936
G1 X91.366 Y108.096 E14.06812
G1 X91.264 Y102.516 E14.25746
G1 X90.848 Y96.986 E14.44559
G1 X90.118 Y91.468 E14.63443
G1 X89.073 Y85.984 E14.82382
G1 X88.446 Y83.308 E14.91706
G1 X87.731 Y80.605 E15.01192
G1 X86.076 Y75.281 E15.20106
G1 X84.118 Y70.045 E15.39071
G1 X83.341 Y68.179 E15.45928
G1 X83.241 Y67.836 E15.4714
G1 X83.22 Y67.479 E15.48353
G1 X83.269 Y67.164 E15.49435
G1 X84.021 Y64.248 E15.59651
G1 X84.148 Y63.915 E15.6086
G1 X84.346 Y63.617 E15.62074
G0 F3600 X84.708 Y63.813
G1 F1800 X84.95 Y63.621 E15.63122
G1 X85.233 Y63.496 E15.64172
G1 X85.538 Y63.448 E15.65219
G1 X85.897 Y63.493 E15.66447
G1 X90.913 Y64.915 E15.84134
G1 X90.958 Y64.929 E15.84294
G1 X95.249 Y66.327 E15.99604
G1 X95.306 Y66.347 E15.99809
G1 X101.046 Y68.547 E16.20664
G1 X101.125 Y68.581 E16.20956
G1 X105.752 Y70.741 E16.38279
G1 X105.814 Y70.772 E16.38514
G1 X108.294 Y72.11 E16.48074
G1 X108.348 Y72.141 E16.48285
G1 X111.177 Y73.865 E16.59525
G1 X111.231 Y73.9 E16.59743
G1 X113.21 Y75.256 E16.67882
G1 X113.276 Y75.305 E16.6816
G1 X116.613 Y77.944 E16.82594
G1 X116.684 Y78.004 E16.82909
G1 X118.79 Y79.952 E16.92641
G1 X118.842 Y80.003 E16.92888
G1 X120.35 Y81.577 E17.00284
G1 X120.392 Y81.624 E17.00497
G1 X121.792 Y83.25 E17.07777
G1 X121.837 Y83.305 E17.08018
G1 X123.449 Y85.416 E17.17029
G1 X123.502 Y85.492 E17.17343
G1 X125.434 Y88.475 E17.294
G1 X125.482 Y88.556 E17.29719
G1 X126.759 Y90.914 E17.38817
G1 X126.794 Y90.982 E17.39076
G1 X127.823 Y93.212 E17.47408
G1 X127.852 Y93.282 E17.47665
G1 X128.708 Y95.497 E17.55721
G1 X128.735 Y95.575 E17.56001
G1 X129.54 Y98.174 E17.65232
G1 X129.567 Y98.276 E17.6559
G1 X130.304 Y101.69 E17.77439
G1 X130.323 Y101.806 E17.77837
G1 X130.673 Y104.845 E17.88215
G1 X130.681 Y104.957 E17.88596
G1 X130.74 Y107.748 E17.98067
G1 X130.737 Y107.854 E17.98427
G1 X130.57 Y110.327 E18.06836
G1 X130.555 Y110.455 E18.07273
G1 X129.75 Y115.01 E18.22965
G1 X129.726 Y115.116 E18.23334
G1 X129.311 Y116.644 E18.28706
G1 X129.292 Y116.707 E18.28929
G1 X128.532 Y118.995 E18.37108
G1 X128.499 Y119.082 E18.37424
G1 X127.22 Y122.126 E18.48625
G1 X127.187 Y122.199 E18.48897
G1 X126.322 Y123.924 E18.55444
G1 X126.293 Y123.978 E18.55651
G1 X125.199 Y125.909 E18.63181
G1 X125.15 Y125.987 E18.63493
G1 X122.95 Y129.254 E18.76855
G1 X122.883 Y129.345 E18.77239
G1 X120.54 Y132.201 E18.89771
G1 X120.463 Y132.286 E18.9016
G1 X117.563 Y135.205 E19.04119
G1 X117.494 Y135.269 E19.04439
G1 X115.435 Y137.037 E19.13646
G1 X115.382 Y137.08 E19.13877
G1 X113.259 Y138.704 E19.22945
G1 X113.197 Y138.749 E19.23205
G1 X110.128 Y140.799 E19.35726
G1 X110.052 Y140.845 E19.36027
G1 X106.059 Y143.104 E19.51591
G1 X105.997 Y143.137 E19.5183
G1 X103.349 Y144.438 E19.61839
G1 X103.299 Y144.461 E19.62025
G1 X99.953 Y145.916 E19.74404
G1 X99.9 Y145.938 E19.74598
G1 X95.631 Y147.559 E19.9009
G1 X95.584 Y147.575 E19.90258
G1 X91.697 Y148.87 E20.04158
G1 X91.65 Y148.885 E20.04325
G1 X86.016 Y150.509 E20.24217
G1 X85.711 Y150.556 E20.25264
G1 X85.403 Y150.523 E20.26315
G1 X85.114 Y150.412 E20.27365
G1 X84.864 Y150.232 E20.2841
G1 X84.667 Y149.993 E20.29461
G1 X84.524 Y149.663 E20.30681
G1 X83.755 Y146.758 E20.40876
G1 X83.715 Y146.451 E20.41926
G1 X83.799 Y146.01 E20.43449
G1 X85.803 Y140.943 E20.61935
G1 X87.572 Y135.622 E20.80958
G1 X89.033 Y130.225 E20.99926
G1 X89.649 Y127.506 E21.09384
G1 X90.184 Y124.766 E21.18855
G1 X91.024 Y119.256 E21.37764
G1 X91.554 Y113.674 E21.56787
G1 X91.766 Y108.104 E21.75697
G1 X91.664 Y102.514 E21.94664
G1 X91.244 Y96.938 E22.13634
G1 X90.511 Y91.394 E22.32606
G1 X89.463 Y85.891 E22.51611
G1 X88.839 Y83.229 E22.60887
G1 X88.116 Y80.497 E22.70474
G1 X86.454 Y75.149 E22.89473
G1 X84.494 Y69.909 E23.08453
G1 X83.71 Y68.025 E23.15376
G1 X83.629 Y67.727 E23.16424
G1 X83.627 Y67.418 E23.17472
G1 X83.656 Y67.264 E23.18004
G1 X84.408 Y64.348 E23.2822
G1 X84.523 Y64.061 E23.29269
G1 X84.708 Y63.813 E23.30318
G1 F1500 E22.50318
G0 F3600 X85.706 Y64.882
;TYPE:WALL-OUTER
G1 F1500 E23.34476
G1 F1200 X86.678 Y65.144 E23.37891
G1 X88.131 Y65.553 E23.43012
G1 X90.045 Y66.111 E23.49776
G1 X92.288 Y66.81 E23.57746
G1 X94.364 Y67.499 E23.65167
G1 X96.327 Y68.193 E23.7223
G1 X98.193 Y68.897 E23.78996
G1 X99.962 Y69.609 E23.85466
G1 X100.801 Y69.963 E23.88555
G1 X101.814 Y70.407 E23.92307
G1 X103.152 Y71.02 E23.973
G1 X104.617 Y71.733 E24.02827
G1 X105.534 Y72.201 E24.0632
G1 X106.788 Y72.868 E24.11139
G1 X108.073 Y73.594 E24.16146
G1 X108.907 Y74.088 E24.19434
G1 X110.016 Y74.778 E24.23865
G1 X110.879 Y75.341 E24.27361
G1 X111.905 Y76.039 E24.31571
G1 X112.932 Y76.78 E24.35867
G1 X114.164 Y77.723 E24.41131
G1 X115.229 Y78.594 E24.45798
G1 X116.246 Y79.477 E24.50367
G1 X117.215 Y80.371 E24.5484
G1 X117.704 Y80.843 E24.57146
G1 X118.154 Y81.291 E24.593
G1 X119.027 Y82.203 E24.63583
G1 X119.49 Y82.71 E24.65912
G1 X119.943 Y83.221 E24.68229
G1 X120.306 Y83.645 E24.70123
G1 X121.096 Y84.61 E24.74354
G1 X121.483 Y85.107 E24.76491
G1 X122.104 Y85.939 E24.80013
G1 X122.583 Y86.609 E24.82807
G1 X123.022 Y87.25 E24.85443
G1 X123.697 Y88.296 E24.89666
G1 X123.994 Y88.78 E24.91592
G1 X124.623 Y89.858 E24.95827
G1 X125.21 Y90.939 E25
G1 X125.834 Y92.19 E25.04742
G1 X126.322 Y93.25 E25.08701
G1 X126.797 Y94.373 E25.12838
G1 X127.236 Y95.511 E25.16976
G1 X127.635 Y96.654 E25.21083
G1 X128.062 Y98.051 E25.26039
G1 X128.335 Y99.062 E25.29592
G1 X128.591 Y100.139 E25.33347
G1 X128.821 Y101.274 E25.37276
G1 X129.009 Y102.407 E25.41172
G1 X129.091 Y103.004 E25.43217
G1 X129.173 Y103.694 E25.45574
G1 X129.265 Y104.671 E25.48903
G1 X129.303 Y105.243 E25.50848
G1 X129.345 Y106.299 E25.54433
G1 X129.353 Y106.947 E25.56632
G1 X129.335 Y108.002 E25.60211
G1 X129.31 Y108.586 E25.62194
G1 X129.277 Y109.123 E25.6402
G1 X129.234 Y109.679 E25.65912
G1 X129.115 Y110.803 E25.69746
G1 X128.941 Y111.999 E25.73846
G1 X128.739 Y113.127 E25.77734
G1 X128.494 Y114.265 E25.81683
G1 X128.212 Y115.392 E25.85624
G1 X127.889 Y116.522 E25.89611
G1 X127.726 Y117.045 E25.9147
G1 X127.343 Y118.174 E25.95514
G1 X127.12 Y118.781 E25.97708
G1 X126.919 Y119.306 E25.99615
G1 X126.641 Y119.99 E26.0212
G1 X126.152 Y121.114 E26.06279
G1 X125.872 Y121.712 E26.08519
G1 X125.372 Y122.734 E26.12379
G1 X124.793 Y123.825 E26.16569
G1 X124.177 Y124.901 E26.20775
G1 X123.776 Y125.563 E26.23401
G1 X123.106 Y126.608 E26.27612
G1 X122.402 Y127.637 E26.31842
G1 X122.069 Y128.099 E26.33774
G1 X121.32 Y129.095 E26.38002
G1 X120.464 Y130.156 E26.42627
G1 X119.653 Y131.099 E26.46846
G1 X119.276 Y131.518 E26.48758
G1 X118.369 Y132.481 E26.53246
G1 X117.399 Y133.444 E26.57883
G1 X116.956 Y133.865 E26.59957
G1 X116.256 Y134.503 E26.6317
G1 X115.504 Y135.165 E26.66569
G1 X114.983 Y135.605 E26.68882
G1 X113.883 Y136.491 E26.73674
G1 X113.37 Y136.887 E26.75873
G1 X112.808 Y137.307 E26.78253
G1 X111.813 Y138.018 E26.82402
G1 X110.96 Y138.601 E26.85907
G1 X109.928 Y139.277 E26.90092
G1 X108.733 Y140.015 E26.94857
G1 X107.907 Y140.503 E26.98112
G1 X106.649 Y141.21 E27.03007
G1 X105.622 Y141.756 E27.06953
G1 X104.584 Y142.29 E27.10913
G1 X103.091 Y143.015 E27.16544
G1 X102.282 Y143.391 E27.1957
G1 X100.698 Y144.092 E27.25447
G1 X99.091 Y144.758 E27.31348
G1 X98.082 Y145.158 E27.35031
G1 X96.496 Y145.761 E27.40787
G1 X95.519 Y146.116 E27.44314
G1 X93.589 Y146.786 E27.51244
G1 X91.558 Y147.448 E27.58491
G1 X90.542 Y147.763 E27.621
G1 X88.233 Y148.452 E27.70275
G1 X87.1 Y148.773 E27.7427
G1 X85.811 Y149.124 E27.78802
G1 X85.144 Y146.603 E27.87649
G1 X87.853 Y145.844 E27.97193
G1 X88.945 Y145.519 E28.01058
G1 X90.414 Y145.066 E28.06274
G1 X91.997 Y144.559 E28.11913
G1 X93.013 Y144.218 E28.15548
G1 X94.227 Y143.797 E28.19908
G1 X95.78 Y143.235 E28.25511
G1 X97.57 Y142.546 E28.32018
G1 X98.414 Y142.205 E28.35106
G1 X99.803 Y141.618 E28.40221
G1 X101.412 Y140.901 E28.46198
G1 X102.869 Y140.203 E28.51678
G1 X104.264 Y139.494 E28.56987
G1 X105.148 Y139.024 E28.60384
G1 X106.228 Y138.424 E28.64575
G1 X106.823 Y138.077 E28.66912
G1 X107.659 Y137.574 E28.70222
G1 X108.618 Y136.973 E28.74061
G1 X109.211 Y136.583 E28.76469
G1 X110.099 Y135.978 E28.80114
G1 X110.89 Y135.418 E28.83402
G1 X111.913 Y134.652 E28.87738
G1 X112.425 Y134.249 E28.89949
G1 X113.172 Y133.642 E28.93214
G1 X113.717 Y133.181 E28.95636
G1 X114.236 Y132.728 E28.97973
G1 X114.678 Y132.329 E28.99993
G1 X115.532 Y131.522 E29.03979
G1 X116.382 Y130.673 E29.08055
G1 X117.177 Y129.829 E29.11988
G1 X118.002 Y128.893 E29.16221
G1 X118.783 Y127.948 E29.2038
G1 X119.491 Y127.032 E29.24308
G1 X119.899 Y126.478 E29.26642
G1 X120.591 Y125.485 E29.30748
G1 X120.862 Y125.074 E29.32418
G1 X121.379 Y124.26 E29.3569
G1 X121.914 Y123.371 E29.3921
G1 X122.475 Y122.369 E29.43105
G1 X122.777 Y121.795 E29.45306
G1 X123.237 Y120.872 E29.48804
G1 X123.645 Y119.994 E29.52089
G1 X124.061 Y119.035 E29.55635
G1 X124.498 Y117.931 E29.59663
G1 X124.895 Y116.823 E29.63656
G1 X125.321 Y115.459 E29.68504
G1 X125.578 Y114.528 E29.71781
G1 X125.822 Y113.528 E29.75273
G1 X126.051 Y112.425 E29.79095
G1 X126.239 Y111.324 E29.82884
G1 X126.385 Y110.231 E29.86625
G1 X126.428 Y109.802 E29.88088
G1 X126.508 Y108.854 E29.91315
G1 X126.557 Y107.903 E29.94546
G1 X126.572 Y106.953 E29.97769
G1 X126.551 Y105.902 E30.01335
G1 X126.49 Y104.848 E30.04917
G1 X126.389 Y103.784 E30.08543
G1 X126.247 Y102.707 E30.12228
G1 X126.14 Y102.053 E30.14476
G1 X125.934 Y100.969 E30.1822
