;FLAVOR:Marlin
;TIME:1693
;Filament used: 1.99665m
;Layer height: 0.2
;Generated with Cura_SteamEngine 3.1.0
M190 S60
M104 S230
M109 S230
M82 ; absolute extrusion mode
G28 ;Home
G1 Z15.0 F6000 ;Move the platform down 15mm
;Prime the extruder
G92 E0
G1 F200 E3
G92 E0
;LAYER_COUNT:260
;LAYER:0
M107
G0 F3600 X78.519 Y66.059 Z0.2
;TYPE:SKIRT
G1 F1800 X78.83 Y65.809 E0.01354
G1 X79.167 Y65.634 E0.02642
G1 X83.646 Y63.817 E0.1904
G1 X84.03 Y63.704 E0.20398
G1 X84.428 Y63.67 E0.21753
G1 X84.961 Y63.751 E0.23582
G1 X91.119 Y65.556 E0.45352
G1 X91.225 Y65.59 E0.4573
G1 X96.648 Y67.516 E0.65253
G1 X96.748 Y67.555 E0.65617
G1 X101.591 Y69.571 E0.83414
G1 X101.691 Y69.616 E0.83786
G1 X106.158 Y71.771 E1.00612
G1 X106.263 Y71.825 E1.01013
G1 X110.643 Y74.266 E1.18024
G1 X110.754 Y74.333 E1.18463
G1 X115.528 Y77.415 E1.37741
G1 X115.643 Y77.495 E1.38216
G1 X119.819 Y80.626 E1.55923
G1 X119.905 Y80.694 E1.56295
G1 X122.249 Y82.662 E1.66679
G1 X122.312 Y82.718 E1.66965
G1 X124.437 Y84.66 E1.76731
G1 X124.506 Y84.726 E1.77055
G1 X126.749 Y86.982 E1.87847
G1 X126.832 Y87.07 E1.88258
G1 X128.812 Y89.319 E1.98423
G1 X128.905 Y89.433 E1.98922
G1 X130.958 Y92.143 E2.10456
G1 X131.032 Y92.248 E2.10892
G1 X131.88 Y93.531 E2.16109
G1 X131.968 Y93.676 E2.16685
G1 X133.782 Y97 E2.29532
G1 X133.89 Y97.234 E2.30406
G1 X135 Y100.094 E2.40814
G1 X135.067 Y100.299 E2.41545
G1 X135.516 Y101.969 E2.47412
G1 X135.561 Y102.177 E2.48134
G1 X135.996 Y104.939 E2.5762
G1 X136.019 Y105.187 E2.58465
G1 X136.079 Y107.09 E2.64924
G1 X136.072 Y107.332 E2.65745
G1 X135.852 Y109.78 E2.74084
G1 X135.814 Y110.029 E2.74938
G1 X135.25 Y112.603 E2.83878
G1 X135.194 Y112.806 E2.84592
G1 X134.56 Y114.713 E2.9141
G1 X134.495 Y114.881 E2.92021
G1 X133.536 Y117.08 E3.0016
G1 X133.46 Y117.236 E3.00748
G1 X132.299 Y119.371 E3.08993
G1 X132.219 Y119.506 E3.09526
G1 X130.638 Y121.939 E3.19369
G1 X130.569 Y122.038 E3.19779
G1 X129.662 Y123.265 E3.24955
G1 X129.591 Y123.356 E3.25347
G1 X127.467 Y125.906 E3.36605
G1 X127.385 Y125.998 E3.37024
G1 X125.327 Y128.18 E3.47199
G1 X125.26 Y128.248 E3.47523
G1 X123.413 Y130.028 E3.56225
G1 X123.344 Y130.091 E3.56542
G1 X120.27 Y132.788 E3.70416
G1 X120.183 Y132.86 E3.70799
G1 X116.772 Y135.528 E3.8549
G1 X116.672 Y135.602 E3.85912
G1 X112.306 Y138.599 E4.03878
G1 X112.199 Y138.667 E4.04308
G1 X107.94 Y141.209 E4.21135
G1 X107.835 Y141.268 E4.21543
G1 X103.228 Y143.656 E4.39148
G1 X103.129 Y143.704 E4.39521
G1 X98.647 Y145.723 E4.56198
G1 X98.576 Y145.753 E4.56459
G1 X96.144 Y146.737 E4.6536
G1 X96.088 Y146.759 E4.65564
G1 X92.849 Y147.957 E4.7728
G1 X92.784 Y147.98 E4.77514
G1 X88.666 Y149.344 E4.9223
G1 X88.601 Y149.364 E4.92461
G1 X85.591 Y150.248 E5.03104
G1 X85.198 Y150.322 E5.04461
G1 X84.798 Y150.316 E5.05818
G1 X84.302 Y150.193 E5.07551
G1 X79.806 Y148.443 E5.23919
G1 X79.45 Y148.261 E5.25275
G1 X79.137 Y148.013 E5.2663
G1 X78.88 Y147.707 E5.27986
G1 X78.688 Y147.356 E5.29343
G1 X78.571 Y146.975 E5.30695
G1 X78.531 Y146.601 E5.31971
G1 X78.488 Y142.603 E5.45535
G1 X78.524 Y142.205 E5.46891
G1 X78.599 Y141.924 E5.47878
G1 X79.856 Y138.313 E5.60849
G1 X80.681 Y135.676 E5.70223
G1 X82.117 Y130.289 E5.89137
G1 X82.711 Y127.606 E5.98459
G1 X83.678 Y122.155 E6.17241
G1 X84.339 Y116.637 E6.36095
G1 X84.684 Y111.112 E6.54875
G1 X84.718 Y105.558 E6.73717
G1 X84.439 Y100.048 E6.92434
G1 X83.843 Y94.507 E7.11341
G1 X82.941 Y89.048 E7.30112
G1 X82.384 Y86.38 E7.39358
G1 X81.01 Y80.965 E7.58311
G1 X79.342 Y75.669 E7.77148
G1 X78.546 Y73.517 E7.84932
G1 X78.522 Y73.448 E7.8518
G1 X78.039 Y71.981 E7.90419
G1 X77.953 Y71.591 E7.91774
G1 X77.939 Y71.366 E7.92539
G1 X77.919 Y67.497 E8.05665
G1 X77.957 Y67.1 E8.07018
G1 X78.073 Y66.717 E8.08376
G1 X78.263 Y66.366 E8.0973
G1 X78.519 Y66.059 E8.11086
G0 F3600 X78.912 Y66.244
G1 F1800 X79.318 Y66.004 E8.12686
G1 X83.797 Y64.187 E8.29084
G1 X84.14 Y64.091 E8.30292
G1 X84.497 Y64.073 E8.31505
G1 X84.848 Y64.135 E8.32714
G1 X91.006 Y65.94 E8.54484
G1 X91.091 Y65.967 E8.54787
G1 X96.514 Y67.893 E8.7431
G1 X96.594 Y67.924 E8.74601
G1 X101.437 Y69.94 E8.92398
G1 X101.517 Y69.976 E8.92696
G1 X105.984 Y72.131 E9.09521
G1 X106.068 Y72.174 E9.09841
G1 X110.448 Y74.615 E9.26853
G1 X110.537 Y74.669 E9.27206
G1 X115.311 Y77.751 E9.46483
G1 X115.403 Y77.815 E9.46864
G1 X119.579 Y80.946 E9.64571
G1 X119.648 Y81.001 E9.6487
G1 X121.992 Y82.969 E9.75253
G1 X122.042 Y83.013 E9.75479
G1 X124.167 Y84.955 E9.85245
G1 X124.223 Y85.008 E9.85507
G1 X126.466 Y87.264 E9.963
G1 X126.532 Y87.335 E9.96628
G1 X128.512 Y89.584 E10.06794
G1 X128.586 Y89.675 E10.07192
G1 X130.639 Y92.385 E10.18726
G1 X130.699 Y92.469 E10.19076
G1 X131.547 Y93.752 E10.24293
G1 X131.616 Y93.868 E10.24751
G1 X133.43 Y97.192 E10.37598
G1 X133.518 Y97.379 E10.38299
G1 X134.628 Y100.239 E10.48707
G1 X134.681 Y100.403 E10.49292
G1 X135.13 Y102.073 E10.55158
G1 X135.166 Y102.239 E10.55735
G1 X135.601 Y105.001 E10.6522
G1 X135.619 Y105.2 E10.65898
G1 X135.679 Y107.103 E10.72357
G1 X135.674 Y107.296 E10.73012
G1 X135.454 Y109.744 E10.81351
G1 X135.423 Y109.943 E10.82034
G1 X134.859 Y112.517 E10.90974
G1 X134.814 Y112.68 E10.91547
G1 X134.18 Y114.587 E10.98365
G1 X134.129 Y114.722 E10.98855
G1 X133.17 Y116.921 E11.06993
G1 X133.109 Y117.045 E11.07462
G1 X131.948 Y119.18 E11.15707
G1 X131.884 Y119.288 E11.16133
G1 X130.303 Y121.721 E11.25976
G1 X130.248 Y121.8 E11.26303
G1 X129.341 Y123.027 E11.31479
G1 X129.283 Y123.1 E11.31796
G1 X127.159 Y125.65 E11.43055
G1 X127.094 Y125.724 E11.43389
G1 X125.036 Y127.906 E11.53564
G1 X124.982 Y127.96 E11.53823
G1 X123.135 Y129.74 E11.62526
G1 X123.08 Y129.791 E11.6278
G1 X120.006 Y132.488 E11.76654
G1 X119.937 Y132.545 E11.76957
G1 X116.526 Y135.213 E11.91649
G1 X116.445 Y135.272 E11.91988
G1 X112.079 Y138.269 E12.09954
G1 X111.994 Y138.324 E12.10298
G1 X107.735 Y140.866 E12.27124
G1 X107.651 Y140.913 E12.27451
G1 X103.044 Y143.301 E12.45055
G1 X102.965 Y143.339 E12.45353
G1 X98.483 Y145.358 E12.62029
G1 X98.426 Y145.382 E12.62239
G1 X95.994 Y146.366 E12.7114
G1 X95.949 Y146.384 E12.71304
G1 X92.71 Y147.582 E12.8302
G1 X92.658 Y147.6 E12.83207
G1 X88.54 Y148.964 E12.97924
G1 X88.488 Y148.98 E12.98108
G1 X85.478 Y149.864 E13.08751
G1 X85.126 Y149.926 E13.09964
G1 X84.769 Y149.908 E13.11176
G1 X84.447 Y149.82 E13.12309
G1 X79.951 Y148.07 E13.28676
G1 X79.634 Y147.904 E13.2989
G1 X79.363 Y147.672 E13.311
G1 X79.149 Y147.386 E13.32312
G1 X79.005 Y147.059 E13.33524
G1 X78.931 Y146.596 E13.35115
G1 X78.888 Y142.598 E13.48679
G1 X78.924 Y142.243 E13.4989
G1 X78.977 Y142.055 E13.50552
G1 X80.236 Y138.437 E13.63548
G1 X81.062 Y135.8 E13.72923
G1 X82.512 Y130.36 E13.92023
G1 X83.101 Y127.694 E14.01286
G1 X84.073 Y122.219 E14.2015
G1 X84.737 Y116.675 E14.39093
G1 X85.084 Y111.122 E14.57968
G1 X85.118 Y105.558 E14.76845
G1 X84.836 Y100.002 E14.95718
G1 X84.241 Y94.471 E15.1459
G1 X83.329 Y88.948 E15.33581
G1 X82.774 Y86.291 E15.42789
G1 X81.395 Y80.856 E15.61812
G1 X79.724 Y75.548 E15.80691
G1 X78.921 Y73.378 E15.88541
G1 X78.902 Y73.323 E15.88738
G1 X78.419 Y71.856 E15.93978
G1 X78.339 Y71.364 E15.95669
G1 X78.319 Y67.495 E16.08795
G1 X78.357 Y67.14 E16.10006
G1 X78.473 Y66.802 E16.11218
G1 X78.661 Y66.498 E16.12431
G1 X78.912 Y66.244 E16.13642
G0 F3600 X79.057 Y66.652
G1 F1800 X79.3 Y66.459 E16.14695
G1 X79.468 Y66.375 E16.15332
G1 X83.947 Y64.558 E16.3173
G1 X84.246 Y64.48 E16.32778
G1 X84.555 Y64.48 E16.33827
G1 X84.736 Y64.518 E16.34454
G1 X90.894 Y66.323 E16.56224
G1 X90.958 Y66.344 E16.56453
G1 X96.381 Y68.27 E16.75976
G1 X96.44 Y68.293 E16.76191
G1 X101.283 Y70.309 E16.93988
G1 X101.343 Y70.336 E16.94211
G1 X105.81 Y72.491 E17.11037
G1 X105.873 Y72.524 E17.11278
G1 X110.253 Y74.965 E17.28289
G1 X110.32 Y75.005 E17.28554
G1 X115.094 Y78.087 E17.47832
G1 X115.163 Y78.135 E17.48117
G1 X119.339 Y81.266 E17.65824
G1 X119.391 Y81.307 E17.66048
G1 X121.735 Y83.275 E17.76432
G1 X121.773 Y83.308 E17.76602
G1 X123.898 Y85.25 E17.86369
G1 X123.939 Y85.29 E17.86563
G1 X126.182 Y87.546 E17.97356
G1 X126.232 Y87.599 E17.97603
G1 X128.212 Y89.848 E18.07768
G1 X128.268 Y89.916 E18.08067
G1 X130.321 Y92.626 E18.19601
G1 X130.365 Y92.689 E18.19862
G1 X131.213 Y93.972 E18.25079
G1 X131.265 Y94.059 E18.25423
G1 X133.079 Y97.383 E18.3827
G1 X133.145 Y97.524 E18.38798
G1 X134.255 Y100.384 E18.49206
G1 X134.295 Y100.506 E18.49641
G1 X134.744 Y102.176 E18.55508
G1 X134.77 Y102.301 E18.55941
G1 X135.205 Y105.063 E18.65427
G1 X135.219 Y105.212 E18.65935
G1 X135.279 Y107.115 E18.72394
G1 X135.275 Y107.26 E18.72886
G1 X135.055 Y109.708 E18.81224
G1 X135.032 Y109.858 E18.81739
G1 X134.468 Y112.432 E18.90679
G1 X134.435 Y112.554 E18.91107
G1 X133.801 Y114.461 E18.97925
G1 X133.762 Y114.562 E18.98292
G1 X132.803 Y116.761 E19.06431
G1 X132.757 Y116.854 E19.06783
G1 X131.596 Y118.989 E19.15028
G1 X131.548 Y119.07 E19.15347
G1 X129.967 Y121.503 E19.25191
G1 X129.926 Y121.562 E19.25435
G1 X129.019 Y122.789 E19.30611
G1 X128.976 Y122.844 E19.30848
G1 X126.852 Y125.394 E19.42107
G1 X126.803 Y125.449 E19.42357
G1 X124.745 Y127.631 E19.52532
G1 X124.705 Y127.672 E19.52727
G1 X122.858 Y129.452 E19.61429
G1 X122.816 Y129.49 E19.61621
G1 X119.742 Y132.187 E19.75494
G1 X119.69 Y132.23 E19.75723
G1 X116.279 Y134.898 E19.90415
G1 X116.219 Y134.942 E19.90667
G1 X111.853 Y137.939 E20.08633
G1 X111.789 Y137.98 E20.08891
G1 X107.53 Y140.522 E20.25717
G1 X107.467 Y140.557 E20.25962
G1 X102.86 Y142.945 E20.43566
G1 X102.801 Y142.974 E20.43789
G1 X98.319 Y144.993 E20.60466
G1 X98.276 Y145.011 E20.60624
G1 X95.844 Y145.995 E20.69525
G1 X95.81 Y146.008 E20.69648
G1 X92.571 Y147.206 E20.81364
G1 X92.532 Y147.22 E20.81505
G1 X88.414 Y148.584 E20.96222
G1 X88.375 Y148.596 E20.9636
G1 X85.365 Y149.48 E21.07003
G1 X85.06 Y149.529 E21.08051
G1 X84.752 Y149.497 E21.09101
G1 X84.592 Y149.447 E21.0967
G1 X80.096 Y147.697 E21.26037
G1 X79.824 Y147.549 E21.27088
G1 X79.6 Y147.336 E21.28137
G1 X79.437 Y147.073 E21.29186
G1 X79.348 Y146.777 E21.30235
G1 X79.331 Y146.592 E21.30865
G1 X79.288 Y142.594 E21.44429
G1 X79.355 Y142.187 E21.45829
G1 X80.617 Y138.562 E21.58851
G1 X81.447 Y135.91 E21.68278
G1 X82.895 Y130.48 E21.87343
G1 X83.491 Y127.78 E21.96723
G1 X84.473 Y122.247 E22.15788
G1 X85.134 Y116.729 E22.34642
G1 X85.484 Y111.131 E22.5367
G1 X85.518 Y105.54 E22.72638
G1 X85.236 Y99.974 E22.91545
G1 X84.638 Y94.417 E23.10506
G1 X83.726 Y88.893 E23.295
G1 X83.16 Y86.185 E23.38886
G1 X81.782 Y80.754 E23.57894
G1 X80.095 Y75.397 E23.76948
G1 X79.297 Y73.239 E23.84754
G1 X79.282 Y73.198 E23.84902
G1 X78.799 Y71.731 E23.90142
G1 X78.739 Y71.362 E23.9141
G1 X78.719 Y67.493 E24.04536
G1 X78.757 Y67.186 E24.05585
G1 X78.873 Y66.9 E24.06632
G1 X79.057 Y66.652 E24.0768
G1 F1500 E23.2768
G0 F3600 X80.106 Y67.681
;TYPE:WALL-OUTER
G1 F1500 E24.11837
G1 F1200 X81.438 Y67.671 E24.16356
G1 X81.461 Y70.671 E24.26534
G1 X83.316 Y70.658 E24.32828
G1 X84.543 Y65.905 E24.49481
G1 X86.542 Y66.458 E24.56517
G1 X88.093 Y66.916 E24.62004
G1 X89.698 Y67.408 E24.67699
G1 X90.751 Y67.748 E24.71453
G1 X92.201 Y68.237 E24.76644
G1 X93.718 Y68.767 E24.82096
G1 X94.717 Y69.133 E24.85705
G1 X96.239 Y69.714 E24.91232
G1 X97.525 Y70.225 E24.95927
G1 X98.468 Y70.611 E24.99383
G1 X99.35 Y70.986 E25.02635
G1 X101.114 Y71.765 E25.09177
G1 X102.012 Y72.18 E25.12533
G1 X103.147 Y72.723 E25.16801
G1 X104.552 Y73.418 E25.22119
G1 X105.409 Y73.86 E25.2539
G1 X106.21 Y74.284 E25.28465
G1 X107.807 Y75.16 E25.34645
G1 X108.628 Y75.629 E25.37852
G1 X109.774 Y76.308 E25.42371
G1 X110.946 Y77.021 E25.47025
G1 X112.428 Y77.97 E25.52995
G1 X113.906 Y78.964 E25.59038
G1 X114.653 Y79.485 E25.62128
G1 X116.039 Y80.489 E25.67934
G1 X117.489 Y81.587 E25.74104
G1 X118.164 Y82.117 E25.77016
G1 X118.869 Y82.685 E25.80087
G1 X120.178 Y83.776 E25.85868
G1 X121.044 Y84.532 E25.89768
G1 X122.112 Y85.488 E25.94631
G1 X123.276 Y86.588 E26.00064
G1 X123.806 Y87.106 E26.02578
G1 X124.857 Y88.178 E26.07672
G1 X125.418 Y88.775 E26.10451
G1 X126.36 Y89.823 E26.15231
G1 X126.781 Y90.311 E26.17418
G1 X127.624 Y91.337 E26.21923
G1 X128.075 Y91.91 E26.24397
G1 X128.829 Y92.926 E26.28689
G1 X129.52 Y93.922 E26.32801
G1 X129.905 Y94.514 E26.35197
G1 X130.451 Y95.395 E26.38713
G1 X130.997 Y96.353 E26.42454
G1 X131.519 Y97.353 E26.46281
G1 X131.954 Y98.275 E26.4974
G1 X132.159 Y98.742 E26.5147
G1 X132.532 Y99.67 E26.54863
G1 X132.861 Y100.597 E26.582
G1 X133.136 Y101.497 E26.61393
G1 X133.34 Y102.287 E26.64161
G1 X133.463 Y102.82 E26.66017
G1 X133.554 Y103.269 E26.67571
G1 X133.704 Y104.166 E26.70656
G1 X133.795 Y104.912 E26.73206
G1 X133.845 Y105.471 E26.7511
G1 X133.874 Y105.91 E26.76602
G1 X133.894 Y106.495 E26.78588
G1 X133.896 Y106.745 E26.79436
G1 X133.879 Y107.459 E26.81859
G1 X133.854 Y107.93 E26.83459
G1 X133.783 Y108.741 E26.86221
G1 X133.724 Y109.213 E26.87835
G1 X133.614 Y109.917 E26.90252
G1 X133.501 Y110.525 E26.9235
G1 X133.302 Y111.415 E26.95444
G1 X133.148 Y111.995 E26.9748
G1 X132.932 Y112.731 E27.00082
G1 X132.629 Y113.626 E27.03288
G1 X132.447 Y114.108 E27.05036
G1 X132.081 Y115.002 E27.08313
G1 X131.88 Y115.459 E27.10007
G1 X131.664 Y115.92 E27.11734
G1 X131.192 Y116.865 E27.15317
G1 X130.677 Y117.806 E27.18957
G1 X130.1 Y118.779 E27.22794
G1 X129.47 Y119.762 E27.26755
G1 X129.16 Y120.222 E27.28637
G1 X128.459 Y121.208 E27.32741
G1 X128.066 Y121.734 E27.34969
G1 X127.704 Y122.203 E27.36979
G1 X127.248 Y122.775 E27.39461
G1 X126.405 Y123.786 E27.43926
G1 X125.507 Y124.803 E27.48529
G1 X125.054 Y125.296 E27.508
G1 X124.052 Y126.345 E27.55722
G1 X123.461 Y126.938 E27.58562
G1 X122.355 Y128.01 E27.63787
G1 X121.385 Y128.906 E27.68267
G1 X120.54 Y129.664 E27.72118
G1 X119.267 Y130.761 E27.77819
G1 X118.584 Y131.33 E27.80835
G1 X117.93 Y131.862 E27.83695
G1 X116.56 Y132.936 E27.89601
G1 X115.828 Y133.49 E27.92715
G1 X115.133 Y134.005 E27.9565
G1 X113.688 Y135.037 E28.01674
G1 X112.224 Y136.032 E28.07679
G1 X110.728 Y137 E28.13724
G1 X109.99 Y137.46 E28.16674
G1 X109.196 Y137.944 E28.19829
G1 X107.645 Y138.853 E28.25928
G1 X106.528 Y139.478 E28.3027
G1 X105.242 Y140.177 E28.35236
G1 X104.393 Y140.621 E28.38486
G1 X103.584 Y141.032 E28.41565
G1 X101.905 Y141.854 E28.47907
G1 X101.017 Y142.274 E28.51239
G1 X99.258 Y143.068 E28.57787
G1 X97.456 Y143.838 E28.64435
G1 X96.565 Y144.203 E28.67701
G1 X95.611 Y144.583 E28.71185
G1 X94.692 Y144.939 E28.74529
G1 X93.713 Y145.307 E28.78077
G1 X92.77 Y145.651 E28.81482
G1 X90.756 Y146.353 E28.88718
G1 X89.784 Y146.679 E28.92196
G1 X88.705 Y147.027 E28.96042
G1 X87.725 Y147.333 E28.99525
G1 X86.643 Y147.661 E29.03361
G1 X85.169 Y148.091 E29.0857
G1 X83.872 Y143.355 E29.25228
G1 X82.015 Y143.371 E29.31529
G1 X82.038 Y146.37 E29.41703
G1 X80.707 Y146.38 E29.46219
G1 X80.678 Y142.759 E29.58504
G1 X93.006 Y141.373 E30.0059
G1 X96.672 Y141.346 E30.13028
G1 X98.506 Y140.552 E30.19807
G1 X99.359 Y140.17 E30.22978
G1 X100.965 Y139.418 E30.28994
G1 X102.602 Y138.611 E30.35186
G1 X104.276 Y137.74 E30.41588
G1 X105.448 Y137.099 E30.4612
G1 X106.706 Y136.389 E30.5102
G1 X107.52 Y135.912 E30.54221
G1 X108.865 Y135.092 E30.59565
G1 X110.414 Y134.105 E30.65796
G1 X111.351 Y133.479 E30.69619
G1 X112.576 Y132.635 E30.74666
G1 X114.01 Y131.598 E30.8067
G1 X114.739 Y131.049 E30.83766
G1 X116.111 Y129.979 E30.89669
G1 X117.45 Y128.887 E30.9553
G1 X118.73 Y127.791 E31.01247
G1 X119.315 Y127.271 E31.03902
G1 X120.459 Y126.218 E31.09177
G1 X121.035 Y125.671 E31.11872
G1 X121.556 Y125.162 E31.14343
G1 X122.546 Y124.158 E31.19127
G1 X123.08 Y123.594 E31.21762
G1 X123.936 Y122.657 E31.26067
G1 X124.617 Y121.869 E31.296
G1 X125.489 Y120.81 E31.34254
G1 X126.194 Y119.892 E31.38181
G1 X126.871 Y118.955 E31.42103
G1 X127.469 Y118.066 E31.45738
G1 X127.969 Y117.273 E31.48918
G1 X128.442 Y116.47 E31.5208
G1 X128.668 Y116.067 E31.53647
G1 X128.906 Y115.62 E31.55365
G1 X129.157 Y115.128 E31.57239
G1 X129.49 Y114.426 E31.59875
G1 X129.68 Y113.997 E31.61467
G1 X129.962 Y113.32 E31.63955
G1 X130.132 Y112.876 E31.65568
G1 X130.428 Y112.021 E31.68637
G1 X130.677 Y111.178 E31.71619
G1 X130.822 Y110.6 E31.73641
G1 X130.922 Y110.157 E31.75182
G1 X131.045 Y109.517 E31.77393
G1 X131.117 Y109.073 E31.78919
G1 X131.198 Y108.426 E31.81131
