;FLAVOR:Marlin
;TIME:4506
;Filament used: 3.90451m
;Layer height: 0.2
;Generated with Cura_SteamEngine 3.1.0
M190 S60
M104 S230
M109 S230
M82 ; absolute extrusion mode
G28 ;Home
G1 Z15.0 F6000 ;Move the platform down 15mm
;Prime the extruder
G92 E0
G1 F200 E3
G92 E0
;LAYER_COUNT:784
;LAYER:0
M107
G0 F3600 X76.089 Y91.018 Z0.2
;TYPE:SKIRT
G1 F1800 X76.077 Y90.618 E0.01358
G1 X76.144 Y90.225 E0.0271
G1 X76.288 Y89.852 E0.04067
G1 X76.618 Y89.384 E0.06009
G1 X78.513 Y87.378 E0.15371
G1 X82.162 Y83.169 E0.34269
G1 X84.495 Y80.206 E0.47063
G1 X84.772 Y79.918 E0.48419
G1 X85.101 Y79.691 E0.49775
G1 X85.468 Y79.534 E0.51129
G1 X85.86 Y79.454 E0.52487
G1 X86.259 Y79.452 E0.5384
G1 X86.651 Y79.53 E0.55196
G1 X87.138 Y79.755 E0.57016
G1 X91.569 Y82.568 E0.74822
G1 X91.603 Y82.59 E0.74959
G1 X97.524 Y86.521 E0.9907
G1 X97.569 Y86.552 E0.99256
G1 X104.483 Y91.42 E1.27942
G1 X104.546 Y91.465 E1.28205
G1 X109.989 Y95.62 E1.51436
G1 X110.057 Y95.675 E1.51733
G1 X113.105 Y98.22 E1.65204
G1 X113.17 Y98.276 E1.65495
G1 X118.312 Y102.958 E1.89087
G1 X118.379 Y103.023 E1.89404
G1 X122.877 Y107.521 E2.10984
G1 X122.937 Y107.583 E2.11277
G1 X126.391 Y111.35 E2.28616
G1 X126.446 Y111.413 E2.28899
G1 X129.635 Y115.198 E2.4569
G1 X129.704 Y115.284 E2.46064
G1 X132.921 Y119.557 E2.64209
G1 X132.986 Y119.648 E2.64589
G1 X134.352 Y121.691 E2.72926
G1 X134.409 Y121.782 E2.73291
G1 X135.749 Y124.04 E2.82198
G1 X135.833 Y124.197 E2.82802
G1 X136.989 Y126.612 E2.91886
G1 X137.085 Y126.852 E2.92763
G1 X137.615 Y128.465 E2.98523
G1 X137.706 Y128.901 E3.00034
G1 X137.821 Y130.121 E3.04191
G1 X137.819 Y130.521 E3.05548
G1 X137.778 Y130.761 E3.06374
G1 X137.603 Y131.516 E3.09003
G1 X137.453 Y131.939 E3.10526
G1 X137.309 Y132.235 E3.11642
G1 X137.061 Y132.624 E3.13207
G1 X136.588 Y133.204 E3.15747
G1 X136.207 Y133.563 E3.17522
G1 X135.746 Y133.895 E3.1945
G1 X135.354 Y134.115 E3.20975
G1 X134.856 Y134.325 E3.22808
G1 X134.362 Y134.462 E3.24548
G1 X133.479 Y134.588 E3.27573
G1 X133.094 Y134.605 E3.28881
G1 X132.369 Y134.568 E3.31344
G1 X132.085 Y134.533 E3.32314
G1 X130.18 Y134.158 E3.38901
G1 X129.981 Y134.108 E3.39597
G1 X128.227 Y133.571 E3.4582
G1 X128.063 Y133.513 E3.46411
G1 X124.829 Y132.207 E3.58243
G1 X124.688 Y132.144 E3.58767
G1 X120.608 Y130.118 E3.74221
G1 X120.498 Y130.059 E3.74644
G1 X115.696 Y127.285 E3.93458
G1 X115.599 Y127.225 E3.93845
G1 X109.65 Y123.321 E4.17985
G1 X109.569 Y123.265 E4.18319
G1 X104.86 Y119.834 E4.38085
G1 X104.789 Y119.78 E4.38388
G1 X99.372 Y115.447 E4.61921
G1 X99.294 Y115.382 E4.62266
G1 X94.968 Y111.548 E4.81876
G1 X94.898 Y111.482 E4.82202
G1 X90.014 Y106.716 E5.05353
G1 X89.967 Y106.669 E5.05579
G1 X85.128 Y101.621 E5.29302
G1 X85.083 Y101.572 E5.29528
G1 X76.583 Y92.092 E5.72724
G1 X76.347 Y91.77 E5.74078
G1 X76.18 Y91.407 E5.75434
G1 X76.089 Y91.018 E5.76789
G0 F3600 X76.475 Y90.853
G1 F1800 X76.493 Y90.496 E5.78002
G1 X76.591 Y90.152 E5.79215
G1 X76.762 Y89.839 E5.80425
G1 X76.909 Y89.658 E5.81216
G1 X78.811 Y87.644 E5.90614
G1 X82.466 Y83.428 E6.09543
G1 X84.809 Y80.453 E6.2239
G1 X85.06 Y80.199 E6.23602
G1 X85.361 Y80.007 E6.24813
G1 X85.697 Y79.886 E6.26025
G1 X86.052 Y79.843 E6.27238
G1 X86.407 Y79.88 E6.28449
G1 X86.746 Y79.995 E6.29663
G1 X86.924 Y80.092 E6.30351
G1 X91.355 Y82.905 E6.48157
G1 X91.382 Y82.923 E6.48267
G1 X97.303 Y86.854 E6.72378
G1 X97.339 Y86.879 E6.72526
G1 X104.253 Y91.747 E7.01213
G1 X104.303 Y91.783 E7.01422
G1 X109.746 Y95.938 E7.24653
G1 X109.8 Y95.982 E7.24889
G1 X112.848 Y98.527 E7.3836
G1 X112.9 Y98.572 E7.38594
G1 X118.042 Y103.254 E7.62186
G1 X118.096 Y103.306 E7.6244
G1 X122.594 Y107.804 E7.84021
G1 X122.642 Y107.854 E7.84256
G1 X126.096 Y111.621 E8.01595
G1 X126.141 Y111.671 E8.01823
G1 X129.33 Y115.456 E8.18614
G1 X129.384 Y115.525 E8.18911
G1 X132.601 Y119.798 E8.37056
G1 X132.653 Y119.871 E8.3736
G1 X134.019 Y121.914 E8.45698
G1 X134.065 Y121.986 E8.45988
G1 X135.405 Y124.244 E8.54895
G1 X135.472 Y124.37 E8.55379
G1 X136.628 Y126.785 E8.64463
G1 X136.705 Y126.977 E8.65164
G1 X137.235 Y128.59 E8.70924
G1 X137.308 Y128.939 E8.72134
G1 X137.423 Y130.159 E8.76291
G1 X137.389 Y130.67 E8.78029
G1 X137.214 Y131.425 E8.80658
G1 X137.094 Y131.764 E8.81878
G1 X136.95 Y132.06 E8.82995
G1 X136.751 Y132.371 E8.84247
G1 X136.278 Y132.951 E8.86786
G1 X135.973 Y133.238 E8.88207
G1 X135.512 Y133.57 E8.90134
G1 X135.199 Y133.746 E8.91353
G1 X134.701 Y133.956 E8.93186
G1 X134.305 Y134.066 E8.94581
G1 X133.422 Y134.192 E8.97606
G1 X133.114 Y134.206 E8.98652
G1 X132.389 Y134.169 E9.01115
G1 X132.162 Y134.141 E9.01891
G1 X130.257 Y133.766 E9.08478
G1 X130.098 Y133.726 E9.09034
G1 X128.344 Y133.189 E9.15257
G1 X128.213 Y133.143 E9.15728
G1 X124.979 Y131.837 E9.27561
G1 X124.866 Y131.786 E9.27981
G1 X120.786 Y129.76 E9.43435
G1 X120.698 Y129.712 E9.43775
G1 X115.896 Y126.938 E9.62589
G1 X115.818 Y126.891 E9.62898
G1 X109.869 Y122.987 E9.87038
G1 X109.805 Y122.942 E9.87304
G1 X105.096 Y119.511 E10.0707
G1 X105.039 Y119.467 E10.07314
G1 X99.622 Y115.134 E10.30847
G1 X99.56 Y115.082 E10.31122
G1 X95.234 Y111.248 E10.50732
G1 X95.178 Y111.196 E10.50991
G1 X90.294 Y106.43 E10.74142
G1 X90.256 Y106.392 E10.74325
G1 X85.417 Y101.344 E10.98048
G1 X85.381 Y101.305 E10.98228
G1 X76.881 Y91.825 E11.41424
G1 X76.673 Y91.534 E11.42637
G1 X76.536 Y91.205 E11.43846
G1 X76.475 Y90.853 E11.45058
G0 F3600 X76.899 Y91.012
G1 F1800 X76.873 Y90.704 E11.46107
G1 X76.927 Y90.399 E11.47158
G1 X77.056 Y90.119 E11.48204
G1 X77.2 Y89.933 E11.49002
G1 X79.099 Y87.923 E11.58383
G1 X82.778 Y83.678 E11.7744
G1 X85.123 Y80.701 E11.90296
G1 X85.344 Y80.484 E11.91347
G1 X85.613 Y80.332 E11.92395
G1 X85.912 Y80.253 E11.93444
G1 X86.221 Y80.253 E11.94493
G1 X86.52 Y80.332 E11.95542
G1 X86.709 Y80.43 E11.96264
G1 X91.14 Y83.243 E12.1407
G1 X91.161 Y83.256 E12.14154
G1 X97.082 Y87.187 E12.38265
G1 X97.109 Y87.206 E12.38377
G1 X104.023 Y92.074 E12.67063
G1 X104.06 Y92.101 E12.67219
G1 X109.503 Y96.256 E12.9045
G1 X109.544 Y96.289 E12.90628
G1 X112.592 Y98.834 E13.04099
G1 X112.631 Y98.868 E13.04275
G1 X117.773 Y103.55 E13.27867
G1 X117.814 Y103.588 E13.28057
G1 X122.312 Y108.086 E13.49637
G1 X122.347 Y108.124 E13.49813
G1 X125.801 Y111.891 E13.67151
G1 X125.835 Y111.929 E13.67324
G1 X129.024 Y115.714 E13.84115
G1 X129.065 Y115.765 E13.84337
G1 X132.282 Y120.038 E14.02482
G1 X132.321 Y120.093 E14.02711
G1 X133.687 Y122.136 E14.11049
G1 X133.721 Y122.191 E14.11268
G1 X135.061 Y124.449 E14.20176
G1 X135.111 Y124.543 E14.20537
G1 X136.267 Y126.958 E14.2962
G1 X136.325 Y127.101 E14.30144
G1 X136.855 Y128.714 E14.35904
G1 X136.91 Y128.976 E14.36812
G1 X137.025 Y130.196 E14.40969
G1 X136.999 Y130.58 E14.42275
G1 X136.824 Y131.335 E14.44904
G1 X136.734 Y131.589 E14.45818
G1 X136.59 Y131.885 E14.46935
G1 X136.441 Y132.118 E14.47873
G1 X135.968 Y132.698 E14.50412
G1 X135.739 Y132.914 E14.5148
G1 X135.278 Y133.246 E14.53408
G1 X135.043 Y133.378 E14.54322
G1 X134.545 Y133.588 E14.56155
G1 X134.249 Y133.67 E14.57197
G1 X133.366 Y133.796 E14.60223
G1 X133.135 Y133.806 E14.61008
G1 X132.41 Y133.769 E14.63471
G1 X132.239 Y133.748 E14.64055
G1 X130.334 Y133.373 E14.70642
G1 X130.215 Y133.343 E14.71058
G1 X128.461 Y132.806 E14.77281
G1 X128.363 Y132.772 E14.77633
G1 X125.129 Y131.466 E14.89466
G1 X125.044 Y131.428 E14.89781
G1 X120.964 Y129.402 E15.05236
G1 X120.898 Y129.366 E15.05491
G1 X116.096 Y126.592 E15.24304
G1 X116.038 Y126.556 E15.24536
G1 X110.089 Y122.652 E15.48676
G1 X110.04 Y122.619 E15.48876
G1 X105.331 Y119.188 E15.68643
G1 X105.288 Y119.155 E15.68826
G1 X99.871 Y114.822 E15.9236
G1 X99.825 Y114.783 E15.92564
G1 X95.499 Y110.949 E16.12175
G1 X95.457 Y110.91 E16.12369
G1 X90.573 Y106.144 E16.3552
G1 X90.545 Y106.115 E16.35657
G1 X85.706 Y101.067 E16.5938
G1 X85.679 Y101.038 E16.59514
G1 X77.179 Y91.558 E17.0271
G1 X77.004 Y91.303 E17.03759
G1 X76.899 Y91.012 E17.04809
G1 F1500 E16.24809
G0 F3600 X79.016 Y91.293
;TYPE:WALL-OUTER
G1 F1500 E17.08967
G1 F1200 X79.569 Y91.409 E17.10883
G1 X80.111 Y91.474 E17.12735
G1 X80.67 Y91.495 E17.14633
G1 X81.212 Y91.468 E17.16474
G1 X81.765 Y91.398 E17.18365
G1 X82.207 Y91.305 E17.19898
G1 X82.741 Y91.152 E17.21782
G1 X83.242 Y90.96 E17.23602
G1 X83.74 Y90.723 E17.25473
G1 X84.202 Y90.453 E17.27289
G1 X84.652 Y90.139 E17.2915
G1 X85.062 Y89.801 E17.30953
G1 X85.457 Y89.416 E17.32824
G1 X85.805 Y89.015 E17.34625
G1 X86.128 Y88.576 E17.36474
G1 X86.416 Y88.112 E17.38327
G1 X86.66 Y87.631 E17.40157
G1 X86.868 Y87.125 E17.42013
G1 X87.03 Y86.613 E17.43835
G1 X87.152 Y86.084 E17.45676
G1 X87.228 Y85.556 E17.47486
G1 X87.263 Y85.016 E17.49322
G1 X87.253 Y84.487 E17.51117
G1 X87.202 Y83.955 E17.5293
G1 X87.108 Y83.439 E17.54709
G1 X86.976 Y82.929 E17.56497
G1 X86.804 Y82.44 E17.58255
G1 X86.614 Y82.007 E17.59859
G1 X87.503 Y82.565 E17.6342
G1 X90.46 Y84.47 E17.75354
G1 X92.546 Y85.836 E17.83813
G1 X93.923 Y86.752 E17.89423
G1 X96.542 Y88.512 E18.00128
G1 X98.835 Y90.092 E18.09575
G1 X100.225 Y91.064 E18.1533
G1 X101.853 Y92.225 E18.22113
G1 X103.473 Y93.406 E18.28914
G1 X105.089 Y94.607 E18.35745
G1 X106.552 Y95.719 E18.41979
G1 X107.823 Y96.707 E18.47441
G1 X108.881 Y97.549 E18.52028
G1 X109.955 Y98.426 E18.56732
G1 X112.067 Y100.226 E18.66146
G1 X113.256 Y101.279 E18.71534
G1 X114.649 Y102.544 E18.77918
G1 X115.882 Y103.689 E18.83626
G1 X116.958 Y104.706 E18.88649
G1 X118.13 Y105.841 E18.94184
G1 X119.692 Y107.395 E19.01659
G1 X120.451 Y108.169 E19.05337
G1 X121.53 Y109.293 E19.10623
G1 X122.538 Y110.368 E19.15622
G1 X123.522 Y111.44 E19.20559
G1 X124.486 Y112.515 E19.25457
G1 X125.547 Y113.728 E19.30925
G1 X126.421 Y114.75 E19.35487
G1 X127.244 Y115.74 E19.39854
G1 X128.25 Y116.982 E19.45277
G1 X128.981 Y117.915 E19.49298
G1 X129.741 Y118.911 E19.53548
G1 X130.75 Y120.292 E19.5935
G1 X131.351 Y121.149 E19.62901
G1 X131.933 Y122.004 E19.6641
G1 X132.368 Y122.667 E19.691
G1 X132.837 Y123.409 E19.72078
G1 X133.315 Y124.199 E19.75211
G1 X133.698 Y124.864 E19.77814
G1 X134.045 Y125.503 E19.80281
G1 X134.374 Y126.145 E19.82729
G1 X134.666 Y126.757 E19.85029
G1 X134.942 Y127.392 E19.87378
G1 X135.1 Y127.783 E19.88809
G1 X135.269 Y128.246 E19.90481
G1 X135.404 Y128.659 E19.91955
G1 X135.505 Y129.034 E19.93272
G1 X135.577 Y129.361 E19.94408
G1 X135.627 Y129.664 E19.9545
G1 X135.65 Y129.927 E19.96346
G1 X135.647 Y130.182 E19.97211
G1 X135.635 Y130.363 E19.97826
G1 X135.604 Y130.573 E19.98546
G1 X135.556 Y130.766 E19.99221
G1 X135.485 Y130.977 E19.99976
G1 X135.413 Y131.137 E20.00572
G1 X135.321 Y131.306 E20.01224
G1 X135.216 Y131.455 E20.01843
G1 X134.98 Y131.731 E20.03075
G1 X134.857 Y131.852 E20.0366
G1 X134.745 Y131.938 E20.04139
G1 X134.551 Y132.069 E20.04933
G1 X134.346 Y132.177 E20.05719
G1 X134.146 Y132.26 E20.06454
G1 X133.927 Y132.33 E20.07234
G1 X133.785 Y132.361 E20.07727
G1 X133.503 Y132.404 E20.08695
G1 X133.242 Y132.417 E20.09581
G1 X132.987 Y132.415 E20.10447
G1 X132.628 Y132.392 E20.11667
G1 X132.254 Y132.352 E20.12943
G1 X131.918 Y132.3 E20.14096
G1 X131.414 Y132.205 E20.15836
G1 X130.945 Y132.094 E20.17471
G1 X130.383 Y131.947 E20.19442
G1 X129.757 Y131.766 E20.21653
G1 X128.553 Y131.36 E20.25964
G1 X127.97 Y131.141 E20.28076
G1 X127.055 Y130.778 E20.31416
G1 X126.082 Y130.362 E20.35006
G1 X125.166 Y129.947 E20.38417
G1 X124.52 Y129.641 E20.40842
G1 X123.279 Y129.033 E20.45531
G1 X122.286 Y128.521 E20.49321
G1 X121.26 Y127.973 E20.53267
G1 X120.048 Y127.301 E20.57969
G1 X118.924 Y126.655 E20.62367
G1 X117.847 Y126.019 E20.6661
G1 X116.492 Y125.194 E20.71992
G1 X115.225 Y124.398 E20.77068
G1 X114.197 Y123.734 E20.8122
G1 X112.393 Y122.539 E20.88561
G1 X110.621 Y121.319 E20.9586
G1 X109.756 Y120.712 E20.99445
G1 X108.886 Y120.088 E21.03077
G1 X107.176 Y118.831 E21.10277
G1 X105.915 Y117.874 E21.15647
G1 X104.486 Y116.762 E21.2179
G1 X103.096 Y115.659 E21.2781
G1 X101.662 Y114.492 E21.34082
G1 X100.388 Y113.43 E21.39709
G1 X99.226 Y112.433 E21.44903
G1 X98.204 Y111.53 E21.4953
G1 X97.234 Y110.652 E21.53969
G1 X96.208 Y109.697 E21.58724
G1 X95.058 Y108.604 E21.64106
G1 X93.65 Y107.237 E21.70764
G1 X92.506 Y106.105 E21.76224
G1 X91.323 Y104.913 E21.81921
G1 X89.661 Y103.209 E21.89996
G1 X88.019 Y101.489 E21.98064
G1 X86.777 Y100.163 E22.04227
G1 X84.877 Y98.109 E22.1372
G1 X83.291 Y96.366 E22.21714
G1 X81.411 Y94.271 E22.31264
G1 X79.414 Y92.014 E22.41488
G1 X78.711 Y91.203 E22.45129
G1 X79.016 Y91.293 E22.46208
G0 F3600 X79.211 Y91.334
G1 F1500 E21.66208
G0 F3600 X86.97 Y99.585
G1 F1500 E22.50365
G1 F1200 X96.145 Y88.891 E22.98168
G1 X94.4 Y87.394 E23.05968
G1 X85.224 Y98.086 E23.53767
G1 X86.97 Y99.585 E23.61574
G0 F3600 X87.1 Y99.434
G1 F1500 E22.81574
G0 F3600 X114.846 Y123.455
G1 F1500 E23.65732
G1 F1200 X116.592 Y124.952 E23.73534
G1 X125.716 Y114.32 E24.21064
G1 X123.97 Y112.821 E24.28871
G1 X114.846 Y123.455 E24.76407
G0 F3600 X114.997 Y123.585
G1 F1500 E23.96407
G0 F3600 X114.939 Y103.06
;TYPE:SKIN
G1 F1500 E24.80564
G1 F1200 X122.814 Y110.935 E25.18347
G1 X122.884 Y111.005
G1 F1500 E24.38347
G0 F3600 X123.917 Y112.603
G1 F1500 E25.22504
G1 F1200 X110.097 Y98.784 E25.88807
G1 X110.027 Y98.714
G1 F1500 E25.08807
G0 F3600 X107.197 Y96.449
G1 F1500 E25.92964
G1 F1200 X123.656 Y112.908 E26.71931
G1 X123.726 Y112.978
G0 F3600 X123.395 Y113.212
G1 F1200 X104.799 Y94.617 E27.61148
G1 X104.729 Y94.547
G1 F1500 E26.81148
G0 F3600 X102.635 Y93.019
G1 F1500 E27.65305
G1 F1200 X123.134 Y113.517 E28.63652
G1 X123.204 Y113.587
G0 F3600 X122.873 Y113.822
G1 F1200 X100.613 Y91.562 E29.70451
G1 X100.543 Y91.492
G1 F1500 E28.90451
G0 F3600 X98.712 Y90.226
G1 F1500 E29.74608
G1 F1200 X122.611 Y114.126 E30.89272
G1 X122.681 Y114.196
G0 F3600 X122.35 Y114.431
G1 F1200 X96.892 Y88.972 E32.11416
G1 X96.822 Y88.902
G0 F3600 X96.317 Y88.963
G1 F1200 X122.089 Y114.735 E33.35064
G1 X122.159 Y114.805
G0 F3600 X121.828 Y115.039
G1 F1200 X96.056 Y89.268 E34.5871
G1 X95.986 Y89.198
G0 F3600 X95.795 Y89.572
G1 F1200 X121.567 Y115.344 E35.82358
G1 X121.637 Y115.414
G0 F3600 X121.305 Y115.648
G1 F1200 X95.534 Y89.877 E37.06001
G1 X95.464 Y89.807
G0 F3600 X95.272 Y90.181
G1 F1200 X121.044 Y115.953 E38.29649
G1 X121.114 Y116.023
G0 F3600 X120.783 Y116.257
G1 F1200 X95.011 Y90.486 E39.53295
G1 X94.941 Y90.416
G0 F3600 X94.75 Y90.791
G1 F1200 X120.522 Y116.562 E40.76941
G1 X120.592 Y116.632
G0 F3600 X120.261 Y116.867
G1 F1200 X94.489 Y91.095 E42.00589
G1 X94.419 Y91.025
G0 F3600 X94.228 Y91.399
G1 F1200 X119.999 Y117.171 E43.24234
G1 X120.069 Y117.241
G0 F3600 X119.738 Y117.475
G1 F1200 X93.967 Y91.704 E44.47878
G1 X93.897 Y91.634
G0 F3600 X93.705 Y92.008
G1 F1200 X119.477 Y117.779 E45.71523
G1 X119.547 Y117.849
G0 F3600 X119.216 Y118.084
G1 F1200 X93.444 Y92.313 E46.95169
G1 X93.374 Y92.243
G0 F3600 X93.183 Y92.617
G1 F1200 X118.954 Y118.388 E48.18812
G1 X119.024 Y118.458
G0 F3600 X118.693 Y118.693
G1 F1200 X92.922 Y92.922 E49.42455
G1 X92.852 Y92.852
G0 F3600 X92.661 Y93.227
G1 F1200 X118.432 Y118.998 E50.66099
G1 X118.502 Y119.068
G0 F3600 X118.17 Y119.302
G1 F1200 X92.399 Y93.531 E51.89742
G1 X92.329 Y93.461
G0 F3600 X92.138 Y93.835
G1 F1200 X117.91 Y119.607 E53.1339
G1 X117.98 Y119.677
G0 F3600 X117.648 Y119.911
G1 F1200 X91.877 Y94.139 E54.37036
G1 X91.807 Y94.069
G0 F3600 X91.616 Y94.444
G1 F1200 X117.387 Y120.215 E55.60679
G1 X117.457 Y120.285
G0 F3600 X117.126 Y120.52
G1 F1200 X91.355 Y94.749 E56.84322
G1 X91.285 Y94.679
G0 F3600 X91.093 Y95.053
G1 F1200 X116.864 Y120.824 E58.07966
G1 X116.934 Y120.894
G0 F3600 X116.604 Y121.129
G1 F1200 X90.832 Y95.358 E59.31611
G1 X90.762 Y95.288
G0 F3600 X90.571 Y95.663
G1 F1200 X116.342 Y121.433 E60.55252
G1 X116.412 Y121.503
G0 F3600 X116.081 Y121.738
G1 F1200 X90.31 Y95.967 E61.78895
G1 X90.24 Y95.897
G0 F3600 X90.049 Y96.271
G1 F1200 X115.82 Y122.043 E63.02541
G1 X115.89 Y122.113
G0 F3600 X115.558 Y122.347
G1 F1200 X89.787 Y96.575 E64.26187
G1 X89.717 Y96.505
G0 F3600 X89.526 Y96.88
G1 F1200 X115.298 Y122.651 E65.49832
G1 X115.368 Y122.721
G0 F3600 X115.036 Y122.955
G1 F1200 X89.265 Y97.185 E66.73473
G1 X89.195 Y97.115
G0 F3600 X89.004 Y97.489
G1 F1200 X114.775 Y123.26 E67.97116
G1 X114.845 Y123.33
G0 F3600 X114.962 Y124.013
