;FLAVOR:Marlin
;TIME:6219
;Filament used: 6.51667m
;Layer height: 0.2
;Generated with Cura_SteamEngine 3.1.0
M190 S60
M104 S215
M109 S215
M82 ; absolute extrusion mode
G28 ;Home
G1 Z15.0 F6000 ;Move the platform down 15mm
;Prime the extruder
G92 E0
G1 F200 E3
G92 E0
;LAYER_COUNT:304
;LAYER:0
M107
G0 F5400 X83.513 Y97.709 Z0.2
;TYPE:SKIRT
G1 F1800 X83.82 Y97.454 E0.01327
G1 X84.173 Y97.265 E0.02659
G1 X84.555 Y97.151 E0.03985
G1 X84.872 Y97.115 E0.05046
G1 X86.954 Y97.049 E0.11974
G1 X92.479 Y96.676 E0.30392
G1 X97.998 Y95.988 E0.48891
G1 X104.271 Y94.822 E0.70112
G1 X104.637 Y94.788 E0.71335
G1 X109.226 Y94.788 E0.86598
G1 X109.596 Y94.822 E0.87834
G1 X115.559 Y95.943 E1.08014
G1 X121.055 Y96.646 E1.26443
G1 X126.598 Y97.039 E1.44925
G1 X129.107 Y97.113 E1.53274
G1 X129.503 Y97.164 E1.54602
G1 X129.881 Y97.294 E1.55931
G1 X130.226 Y97.495 E1.57259
G1 X130.419 Y97.656 E1.58095
G1 X130.658 Y97.881 E1.59187
G1 X130.918 Y98.18 E1.60505
G1 X133.142 Y101.316 E1.73292
G1 X133.34 Y101.663 E1.74621
G1 X133.464 Y102.043 E1.7595
G1 X133.511 Y102.467 E1.77369
G1 X133.522 Y106.421 E1.9052
G1 X133.483 Y106.819 E1.9185
G1 X133.357 Y107.223 E1.93258
G1 X131.143 Y112.323 E2.1175
G1 X130.934 Y112.692 E2.1316
G1 X130.757 Y112.939 E2.14171
G1 X130.493 Y113.239 E2.155
G1 X130.174 Y113.48 E2.1683
G1 X129.707 Y113.689 E2.18532
G1 X125.402 Y114.984 E2.33484
G1 X125.236 Y115.026 E2.34054
G1 X121.812 Y115.744 E2.4569
G1 X121.687 Y115.767 E2.46112
G1 X117.863 Y116.318 E2.58962
G1 X117.748 Y116.331 E2.59347
G1 X112.897 Y116.745 E2.7554
G1 X112.777 Y116.751 E2.7594
G1 X107.308 Y116.889 E2.94136
G1 X107.243 Y116.89 E2.94352
G1 X104.254 Y116.868 E3.04294
G1 X104.186 Y116.866 E3.0452
G1 X100.572 Y116.715 E3.16551
G1 X100.469 Y116.708 E3.16894
G1 X95.524 Y116.245 E3.33413
G1 X95.421 Y116.233 E3.33758
G1 X93.366 Y115.933 E3.40665
G1 X93.273 Y115.917 E3.40979
G1 X89.63 Y115.208 E3.53323
G1 X89.496 Y115.177 E3.53781
G1 X85.997 Y114.243 E3.65826
G1 X85.896 Y114.214 E3.66175
G1 X84.245 Y113.679 E3.71948
G1 X83.88 Y113.518 E3.73275
G1 X83.553 Y113.288 E3.74604
G1 X83.279 Y112.998 E3.75931
G1 X83.035 Y112.59 E3.77512
G1 X80.653 Y107.241 E3.96988
G1 X80.528 Y106.861 E3.98318
G1 X80.48 Y106.426 E3.99774
G1 X80.482 Y102.496 E4.12845
G1 X80.522 Y102.099 E4.14172
G1 X80.64 Y101.717 E4.15502
G1 X80.848 Y101.344 E4.16922
G1 X83.069 Y98.197 E4.29733
G1 X83.28 Y97.945 E4.30827
G1 X83.513 Y97.709 E4.3193
G0 F5400 X83.797 Y97.99
G1 F1800 X84.075 Y97.765 E4.33119
G1 X84.396 Y97.608 E4.34308
G1 X84.885 Y97.515 E4.35963
G1 X86.965 Y97.449 E4.42885
G1 X92.519 Y97.074 E4.614
G1 X98.058 Y96.384 E4.79965
G1 X104.345 Y95.215 E5.01234
G1 X104.637 Y95.188 E5.02209
G1 X109.226 Y95.188 E5.17472
G1 X109.522 Y95.216 E5.18461
G1 X115.486 Y96.337 E5.38645
G1 X121.01 Y97.044 E5.57168
G1 X126.582 Y97.439 E5.75747
G1 X129.095 Y97.513 E5.84109
G1 X129.449 Y97.563 E5.85298
G1 X129.782 Y97.69 E5.86483
G1 X130.145 Y97.947 E5.87962
G1 X130.384 Y98.172 E5.89054
G1 X130.592 Y98.411 E5.90108
G1 X132.816 Y101.547 E6.02895
G1 X132.989 Y101.86 E6.04084
G1 X133.088 Y102.203 E6.05272
G1 X133.111 Y102.469 E6.0616
G1 X133.122 Y106.423 E6.19311
G1 X133.083 Y106.778 E6.20499
G1 X132.99 Y107.064 E6.21499
G1 X130.776 Y112.164 E6.39991
G1 X130.609 Y112.459 E6.41119
G1 X130.432 Y112.706 E6.42129
G1 X130.192 Y112.971 E6.43318
G1 X129.9 Y113.177 E6.44507
G1 X129.592 Y113.306 E6.45618
G1 X125.287 Y114.601 E6.6057
G1 X125.154 Y114.635 E6.61027
G1 X121.73 Y115.353 E6.72662
G1 X121.63 Y115.371 E6.73
G1 X117.806 Y115.922 E6.8585
G1 X117.714 Y115.932 E6.86158
G1 X112.863 Y116.346 E7.02351
G1 X112.767 Y116.351 E7.02671
G1 X107.298 Y116.489 E7.20867
G1 X107.246 Y116.49 E7.2104
G1 X104.257 Y116.468 E7.30982
G1 X104.202 Y116.467 E7.31165
G1 X100.588 Y116.316 E7.43195
G1 X100.506 Y116.31 E7.43469
G1 X95.561 Y115.847 E7.59988
G1 X95.479 Y115.837 E7.60263
G1 X93.424 Y115.537 E7.6717
G1 X93.349 Y115.525 E7.67423
G1 X89.706 Y114.816 E7.79767
G1 X89.599 Y114.791 E7.80132
G1 X86.1 Y113.857 E7.92177
G1 X86.02 Y113.833 E7.92455
G1 X84.369 Y113.298 E7.98227
G1 X84.043 Y113.151 E7.99417
G1 X83.759 Y112.935 E8.00604
G1 X83.529 Y112.661 E8.01793
G1 X83.4 Y112.427 E8.02682
G1 X81.018 Y107.078 E8.22157
G1 X80.91 Y106.737 E8.23347
G1 X80.88 Y106.426 E8.24386
G1 X80.882 Y102.496 E8.37457
G1 X80.922 Y102.141 E8.38646
G1 X81.04 Y101.804 E8.39833
G1 X81.175 Y101.574 E8.4072
G1 X83.396 Y98.427 E8.53531
G1 X83.564 Y98.226 E8.54403
G1 X83.797 Y97.99 E8.55506
G0 F5400 X84.082 Y98.271
G1 F1800 X84.326 Y98.081 E8.56534
G1 X84.61 Y97.959 E8.57562
G1 X84.898 Y97.915 E8.58531
G1 X86.977 Y97.849 E8.6545
G1 X92.561 Y97.472 E8.84064
G1 X98.112 Y96.78 E9.0267
G1 X104.418 Y95.608 E9.24003
G1 X104.637 Y95.588 E9.24734
G1 X109.226 Y95.588 E9.39997
G1 X109.448 Y95.609 E9.40739
G1 X115.43 Y96.734 E9.60984
G1 X120.966 Y97.442 E9.79547
G1 X126.567 Y97.839 E9.98223
G1 X129.083 Y97.913 E10.06595
G1 X129.389 Y97.961 E10.07625
G1 X129.671 Y98.087 E10.08652
G1 X129.871 Y98.238 E10.09486
G1 X130.11 Y98.463 E10.10577
G1 X130.266 Y98.643 E10.1137
G1 X132.49 Y101.779 E10.24157
G1 X132.635 Y102.052 E10.25185
G1 X132.711 Y102.47 E10.26598
G1 X132.722 Y106.424 E10.39749
G1 X132.683 Y106.73 E10.40775
G1 X132.623 Y106.905 E10.4139
G1 X130.409 Y112.005 E10.59882
G1 X130.283 Y112.226 E10.60728
G1 X130.106 Y112.473 E10.61739
G1 X129.895 Y112.699 E10.62767
G1 X129.634 Y112.864 E10.63794
G1 X129.477 Y112.923 E10.64352
G1 X125.172 Y114.218 E10.79305
G1 X125.072 Y114.243 E10.79647
G1 X121.648 Y114.961 E10.91283
G1 X121.573 Y114.975 E10.91537
G1 X117.749 Y115.526 E11.04387
G1 X117.68 Y115.534 E11.04618
G1 X112.829 Y115.948 E11.20811
G1 X112.757 Y115.952 E11.21051
G1 X107.288 Y116.09 E11.39247
G1 X107.249 Y116.09 E11.39377
G1 X104.26 Y116.068 E11.49318
G1 X104.219 Y116.067 E11.49455
G1 X100.605 Y115.916 E11.61486
G1 X100.543 Y115.912 E11.61692
G1 X95.598 Y115.449 E11.78211
G1 X95.537 Y115.441 E11.78416
G1 X93.482 Y115.141 E11.85323
G1 X93.426 Y115.132 E11.85512
G1 X89.783 Y114.423 E11.97856
G1 X89.703 Y114.404 E11.98129
G1 X86.204 Y113.47 E12.10175
G1 X86.143 Y113.453 E12.10385
G1 X84.492 Y112.918 E12.16158
G1 X84.213 Y112.785 E12.17186
G1 X83.976 Y112.586 E12.18215
G1 X83.766 Y112.264 E12.19493
G1 X81.384 Y106.915 E12.38969
G1 X81.295 Y106.619 E12.39997
G1 X81.28 Y106.426 E12.40641
G1 X81.282 Y102.496 E12.53712
G1 X81.322 Y102.19 E12.54738
G1 X81.502 Y101.805 E12.56152
G1 X83.723 Y98.658 E12.68963
G1 X83.849 Y98.507 E12.69617
G1 X84.082 Y98.271 E12.7072
G1 F1500 E12.0072
G0 F5400 X85.016 Y99.303
;TYPE:SUPPORT
G1 F1500 E12.7072
G1 F1800 X91.1 Y99.304 E12.90956
G1 X91.1 Y106.804 E13.15901
G1 X91.499 Y107.203 E13.17777
G1 X122.501 Y107.203 E14.2089
G1 X122.9 Y106.804 E14.22767
G1 X122.9 Y99.303 E14.47716
G1 X128.983 Y99.303 E14.67948
G1 X129.099 Y99.419 E14.68493
G1 X129.099 Y101.366 E14.74969
G1 X129.387 Y101.8 E14.76702
G1 X131.332 Y102.618 E14.8372
G1 X131.332 Y106.365 E14.96182
G1 X130.442 Y107.62 E15.01299
G1 X129.402 Y107.991 E15.04972
G1 X129.1 Y108.421 E15.0672
G1 X129.1 Y111.506 E15.1698
G1 X129.025 Y111.608 E15.17401
G1 X127.907 Y111.978 E15.21318
G1 X126.346 Y112.458 E15.2675
G1 X125.302 Y112.748 E15.30354
G1 X124.539 Y112.937 E15.32968
G1 X123.647 Y113.14 E15.36011
G1 X123.032 Y113.273 E15.38104
G1 X121.966 Y113.485 E15.41719
G1 X120.288 Y113.776 E15.47383
G1 X119.216 Y113.933 E15.50987
G1 X118.554 Y114.02 E15.53207
G1 X116.778 Y114.227 E15.59154
G1 X115.441 Y114.358 E15.63623
G1 X114.526 Y114.434 E15.66676
G1 X113.107 Y114.531 E15.71407
G1 X111.938 Y114.594 E15.75301
G1 X111.4 Y114.615 E15.77091
G1 X109.121 Y114.676 E15.84674
G1 X106.926 Y114.693 E15.91975
G1 X103.825 Y114.663 E16.02289
G1 X103.212 Y114.645 E16.04329
G1 X101.025 Y114.539 E16.11612
G1 X99.865 Y114.469 E16.15477
G1 X98.476 Y114.352 E16.20113
G1 X96.61 Y114.17 E16.26349
G1 X94.875 Y113.941 E16.3217
G1 X93.111 Y113.667 E16.38107
G1 X92.152 Y113.496 E16.41347
G1 X90.437 Y113.139 E16.47173
G1 X89.552 Y112.935 E16.50194
G1 X88.607 Y112.692 E16.53439
G1 X87.747 Y112.466 E16.56397
G1 X87.232 Y112.319 E16.58178
G1 X85.905 Y111.92 E16.62787
G1 X84.978 Y111.614 E16.66034
G1 X84.9 Y111.506 E16.66477
G1 X84.9 Y108.428 E16.76714
G1 X84.605 Y107.997 E16.78452
G1 X83.55 Y107.59 E16.82213
G1 X82.668 Y106.365 E16.87233
G1 X82.671 Y102.628 E16.99662
G1 X84.615 Y101.798 E17.06693
G1 X84.9 Y101.366 E17.08414
G1 X84.9 Y99.419 E17.1489
G1 X85.016 Y99.303 E17.15436
G0 F5400 X85.06 Y100
G1 F1800 X90.94 Y100 E17.34993
G1 F1500 E16.64993
G0 F5400 X90 Y99.464
G1 F1500 E17.34993
G1 F1800 X90 Y112.873 E17.79591
G1 F1500 E17.09591
G0 F5400 X92 Y113.3
G1 F1500 E17.79591
G1 F1800 X92 Y107.363 E17.99338
G1 F1500 E17.29338
G0 F5400 X90.94 Y106
G1 F1500 E17.99338
G1 F1800 X82.829 Y106 E18.26315
G1 F1500 E17.56315
G0 F5400 X84 Y107.591
G1 F1500 E18.26315
G1 F1800 X84 Y102.234 E18.44132
G0 F5400 X84.548 Y102
G1 F1800 X90.94 Y102 E18.65392
G1 F1500 E17.95392
G0 F5400 X90.94 Y104
G1 F1500 E18.65392
G1 F1800 X82.83 Y104 E18.92366
G1 F1500 E18.22366
G0 F5400 X84.8 Y108
G1 F1500 E18.92366
G1 F1800 X129.199 Y108 E20.40038
G1 F1500 E19.70038
G0 F5400 X130 Y107.608
G1 F1500 E20.40038
G1 F1800 X130 Y102.231 E20.57922
G0 F5400 X129.454 Y102
G1 F1800 X123.06 Y102 E20.79188
G1 F1500 E20.09188
G0 F5400 X123.06 Y100
G1 F1500 E20.79188
G1 F1800 X128.939 Y100 E20.98742
G1 F1500 E20.28742
G0 F5400 X128 Y99.463
G1 F1500 E20.98742
G1 F1800 X128 Y111.779 E21.39705
G0 F5400 X127.287 Y112
G1 F1800 X86.737 Y112 E22.74575
G0 F5400 X86 Y111.78
G1 F1800 X86 Y99.464 E23.15538
G1 F1500 E22.45538
G0 F5400 X88 Y99.464
G1 F1500 E23.15538
G1 F1800 X88 Y112.367 E23.58454
G1 F1500 E22.88454
G0 F5400 X85.06 Y110
G1 F1500 E23.58454
G1 F1800 X128.94 Y110 E25.04399
G1 F1500 E24.34399
G0 F5400 X126 Y112.388
G1 F1500 E25.04399
G1 F1800 X126 Y99.463 E25.47388
G1 F1500 E24.77388
G0 F5400 X124 Y99.463
G1 F1500 E25.47388
G1 F1800 X124 Y112.894 E25.9206
G1 F1500 E25.2206
G0 F5400 X122 Y113.316
G1 F1500 E25.9206
G1 F1800 X122 Y107.363 E26.11859
G1 F1500 E25.41859
G0 F5400 X123.06 Y106
G1 F1500 E26.11859
G1 F1800 X131.172 Y106 E26.3884
G1 F1500 E25.6884
G0 F5400 X131.172 Y104
G1 F1500 E26.3884
G1 F1800 X123.06 Y104 E26.65821
G1 F1500 E25.95821
G0 F5400 X120 Y107.363
G1 F1500 E26.65821
G1 F1800 X120 Y113.657 E26.86755
G1 F1500 E26.16755
G0 F5400 X118 Y113.925
G1 F1500 E26.86755
G1 F1800 X118 Y107.363 E27.0858
G1 F1500 E26.3858
G0 F5400 X116 Y107.363
G1 F1500 E27.0858
G1 F1800 X116 Y114.143 E27.3113
G1 F1500 E26.6113
G0 F5400 X117.346 Y114
G1 F1500 E27.3113
G1 F1800 X96.541 Y114 E28.00328
G0 F5400 X96 Y113.928
G1 F1800 X96 Y107.363 E28.22163
G1 F1500 E27.52163
G0 F5400 X94 Y107.363
G1 F1500 E28.22163
G1 F1800 X94 Y113.643 E28.43051
G1 F1500 E27.73051
G0 F5400 X98 Y114.145
G1 F1500 E28.43051
G1 F1800 X98 Y107.363 E28.65608
G1 F1500 E27.95608
G0 F5400 X100 Y107.363
G1 F1500 E28.65608
G1 F1800 X100 Y114.317 E28.88737
G1 F1500 E28.18737
G0 F5400 X102 Y114.425
G1 F1500 E28.88737
G1 F1800 X102 Y107.363 E29.12225
G1 F1500 E28.42225
G0 F5400 X104 Y107.363
G1 F1500 E29.12225
G1 F1800 X104 Y114.504 E29.35976
G1 F1500 E28.65976
G0 F5400 X106 Y114.524
G1 F1500 E29.35976
G1 F1800 X106 Y107.363 E29.59794
G1 F1500 E28.89794
G0 F5400 X108 Y107.363
G1 F1500 E29.59794
G1 F1800 X108 Y114.525 E29.83615
G1 F1500 E29.13615
G0 F5400 X110 Y114.493
G1 F1500 E29.83615
G1 F1800 X110 Y107.363 E30.07329
G1 F1500 E29.37329
G0 F5400 X112 Y107.363
G1 F1500 E30.07329
G1 F1800 X112 Y114.431 E30.30837
G1 F1500 E29.60837
G0 F5400 X114 Y114.31
G1 F1500 E30.30837
G1 F1800 X114 Y107.363 E30.53943
G1 F1500 E29.83943
G0 F5400 X109.402 Y98.403
G1 F1500 E30.53943
G1 F1800 X104.481 Y98.403 E30.7031
G1 X104.794 Y96.978 E30.75163
G1 X109.073 Y96.978 E30.89395
G1 X109.402 Y98.403 E30.94259
G0 F5400 X109.145 Y98
G1 F1800 X104.733 Y98 E31.08934
G1 F1500 E30.38934
G0 F5400 X106 Y98.243
G1 F1500 E31.08934
G1 F1800 X106 Y97.138 E31.12609
G1 F1500 E30.42609
G0 F5400 X108 Y97.138
G1 F1500 E31.12609
G1 F1800 X108 Y98.243 E31.16284
G1 F1500 E30.46284
G0 F5400 X120.2 Y104.503
;TYPE:WALL-INNER
G1 F1500 E31.16284
G1 F1800 X93.8 Y104.503 E32.04091
G1 X93.8 Y103.968 E32.0587
G1 X120.2 Y103.967 E32.93677
G1 X120.2 Y104.503 E32.9546
G0 F5400 X120.6 Y104.903
G1 F1800 X93.4 Y104.903 E33.85927
G1 X93.4 Y103.568 E33.90368
G1 X120.6 Y103.567 E34.80835
G1 X120.6 Y104.903 E34.85279
G0 F5400 X121 Y105.303
G1 F1800 X93 Y105.303 E35.78407
G1 X93 Y103.168 E35.85508
G1 X121 Y103.167 E36.78637
G1 X121 Y105.303 E36.85741
G0 F5400 X121.4 Y105.703
G1 F1800 X92.6 Y105.703 E37.8153
G1 X92.6 Y102.768 E37.91292
G1 X121.4 Y102.767 E38.87081
G1 X121.4 Y105.703 E38.96846
G0 F5400 X121.8 Y106.103
;TYPE:WALL-OUTER
G1 F1800 X92.2 Y106.103 E39.95296
G1 X92.2 Y102.368 E40.07719
G1 X121.8 Y102.367 E41.06169
G1 X121.8 Y106.103 E41.18595
G0 F5400 X121.6 Y106.103
G1 F1500 E40.48595
G0 F5400 X86 Y99.104
;TIME_ELAPSED:47.454408
;LAYER:1
M140 S60
M106 S255
G0 F6300 X86 Y99.104 Z0.4
;TYPE:SUPPORT
G1 F1500 E41.18595
G1 F2100 X86 Y112.158 E41.62013
G1 F1500 E40.92013
G0 F6300 X88 Y112.739
G1 F1500 E41.62013
G1 F2100 X88 Y99.104 E42.07363
G1 F1500 E41.37363
G0 F6300 X90 Y99.104
G1 F1500 E42.07363
G1 F2100 X90 Y113.244 E42.54393
G1 F1500 E41.84393
G0 F6300 X92 Y113.668
G1 F1500 E42.54393
G1 F2100 X92 Y107.003 E42.76561
G1 F1500 E42.06561
G0 F6300 X94 Y107.003
G1 F1500 E42.76561
G1 F2100 X94 Y114.006 E42.99853
G1 F1500 E42.29853
G0 F6300 X96 Y114.291
G1 F1500 E42.99853
G1 F2100 X96 Y107.003 E43.24093
G1 F1500 E42.54093
G0 F6300 X98 Y107.003
G1 F1500 E43.24093
G1 F2100 X98 Y114.508 E43.49054
G1 F1500 E42.79054
G0 F6300 X100 Y114.676
G1 F1500 E43.49054
G1 F2100 X100 Y107.003 E43.74575
G1 F1500 E43.04575
G0 F6300 X102 Y107.003
G1 F1500 E43.74575
G1 F2100 X102 Y114.786 E44.00461
G1 F1500 E43.30461
G0 F6300 X104 Y114.865
G1 F1500 E44.00461
G1 F2100 X104 Y107.003 E44.2661
G1 F1500 E43.5661
G0 F6300 X106 Y107.003
G1 F1500 E44.2661
G1 F2100 X106 Y114.888 E44.52836
G1 F1500 E43.82836
G0 F6300 X108 Y114.885
G1 F1500 E44.52836
G1 F2100 X108 Y107.003 E44.79052
G1 F1500 E44.09052
G0 F6300 X110 Y107.003
G1 F1500 E44.79052
G1 F2100 X110 Y114.851 E45.05154
G1 F1500 E44.35154
G0 F6300 X112 Y114.792
G1 F1500 E45.05154
G1 F2100 X112 Y107.003 E45.31061
G1 F1500 E44.61061
G0 F6300 X114 Y107.003
G1 F1500 E45.31061
G1 F2100 X114 Y114.671 E45.56564
G1 F1500 E44.86564
G0 F6300 X116 Y114.505
G1 F1500 E45.56564
G1 F2100 X116 Y107.003 E45.81516
G1 F1500 E45.11516
G0 F6300 X118 Y107.003
G1 F1500 E45.81516
G1 F2100 X118 Y114.288 E46.05746
G1 F1500 E45.35746
G0 F6300 X120 Y114.021
G1 F1500 E46.05746
G1 F2100 X120 Y107.003 E46.29088
G1 F1500 E45.59088
G0 F6300 X122 Y107.003
G1 F1500 E46.29088
G1 F2100 X122 Y113.683 E46.51306
G1 F1500 E45.81306
G0 F6300 X124 Y113.266
G1 F1500 E46.51306
G1 F2100 X124 Y99.103 E46.98412
G1 F1500 E46.28412
G0 F6300 X126 Y99.103
G1 F1500 E46.98412
G1 F2100 X126 Y112.762 E47.43842
G1 F1500 E46.73842
G0 F6300 X128 Y112.159
G1 F1500 E47.43842
G1 F2100 X128 Y99.103 E47.87267
G1 F1500 E47.17267
G0 F6300 X130 Y101.841
G1 F1500 E47.87267
G1 F2100 X130 Y107.99 E48.07718
G1 F1500 E47.37718
G0 F6300 X84 Y107.977
G1 F1500 E48.07718
G1 F2100 X84 Y101.843 E48.2812
G1 F1500 E47.5812
G0 F6300 X106 Y98.603
G1 F1500 E48.2812
G1 F2100 X106 Y96.778 E48.3419
G1 F1500 E47.6419
G0 F6300 X108 Y96.778
G1 F1500 E48.3419
G1 F2100 X108 Y98.603 E48.4026
G1 F1500 E47.7026
G0 F6300 X120.2 Y104.503
;TYPE:WALL-INNER
G1 F1500 E48.4026
G1 F2100 X93.8 Y104.503 E49.28067
G1 X93.8 Y103.853 E49.30229
G1 X120.2 Y103.852 E50.18035
G1 X120.2 Y104.503 E50.20201
G0 F6300 X120.6 Y104.903
G1 F2100 X93.4 Y104.903 E51.10668
G1 X93.4 Y103.453 E51.15491
G1 X120.6 Y103.452 E52.05959
G1 X120.6 Y104.903 E52.10785
G0 F6300 X121 Y105.303
G1 F2100 X93 Y105.303 E53.03913
G1 X93 Y103.053 E53.11397
G1 X121 Y103.052 E54.04525
G1 X121 Y105.303 E54.12012
G0 F6300 X121.4 Y105.703
G1 F2100 X92.6 Y105.703 E55.07801
G1 X92.6 Y102.653 E55.17945
G1 X121.4 Y102.652 E56.13734
G1 X121.4 Y105.703 E56.23882
G0 F6300 X121.8 Y106.103
;TYPE:WALL-OUTER
G1 F2100 X92.2 Y106.103 E57.22332
G1 X92.2 Y102.253 E57.35137
G1 X121.8 Y102.252 E58.33587
G1 X121.8 Y106.103 E58.46396
G0 F6300 X121.6 Y106.103
G1 F1500 E57.76396
G0 F6300 X86 Y99.104
