;FLAVOR:Marlin
;TIME:3343
;Filament used: 1.10353m
;Layer height: 0.2
;Generated with Cura_SteamEngine 3.1.0
M190 S60
M104 S215
M109 S215
M82 ; absolute extrusion mode
G28 ;Home
G1 Z15.0 F6000 ;Move the platform down 15mm
;Prime the extruder
G92 E0
G1 F200 E3
G92 E0
;LAYER_COUNT:26
;LAYER:0
M107
G0 F7200 X72.93 Y100.329 Z0.2
;TYPE:SKIRT
G1 F1800 X73.286 Y100.148 E0.01328
G1 X73.671 Y100.042 E0.02656
G1 X74.008 Y100.013 E0.03781
G1 X83.865 Y100.003 E0.36566
G1 X89.423 Y99.845 E0.55059
G1 X94.954 Y99.375 E0.73522
G1 X100.438 Y98.593 E0.91946
G1 X105.853 Y97.507 E1.10315
G1 X108.576 Y96.84 E1.1964
G1 X113.884 Y95.296 E1.38026
G1 X117.94 Y93.981 E1.52208
G1 X118.206 Y93.915 E1.53119
G1 X119.233 Y93.732 E1.56589
G1 X119.422 Y93.708 E1.57222
G1 X120.505 Y93.62 E1.60836
G1 X120.667 Y93.613 E1.61376
G1 X139.986 Y93.61 E2.25631
G1 X140.383 Y93.65 E2.26958
G1 X140.765 Y93.768 E2.28288
G1 X141.115 Y93.959 E2.29614
G1 X141.421 Y94.217 E2.30945
G1 X141.669 Y94.53 E2.32273
G1 X141.85 Y94.886 E2.33602
G1 X141.957 Y95.271 E2.34931
G1 X141.986 Y95.62 E2.36096
G1 X141.965 Y99.885 E2.50281
G1 X141.963 Y99.96 E2.50531
G1 X141.725 Y105.548 E2.69133
G1 X141.802 Y111.112 E2.87641
G1 X141.903 Y112.883 E2.93541
G1 X141.903 Y112.884 E2.93544
G1 X141.982 Y114.288 E2.98221
G1 X141.985 Y114.4 E2.98594
G1 X141.985 Y118.391 E3.11868
G1 X141.945 Y118.789 E3.13199
G1 X141.827 Y119.17 E3.14525
G1 X141.635 Y119.521 E3.15856
G1 X141.378 Y119.826 E3.17182
G1 X141.065 Y120.074 E3.18511
G1 X140.709 Y120.255 E3.19839
G1 X140.324 Y120.362 E3.21168
G1 X139.983 Y120.391 E3.22306
G1 X120.335 Y120.373 E3.87656
G1 X120.074 Y120.356 E3.88526
G1 X118.507 Y120.148 E3.93783
G1 X118.267 Y120.101 E3.94597
G1 X117.236 Y119.833 E3.9814
G1 X117.096 Y119.791 E3.98626
G1 X114.591 Y118.941 E4.07424
G1 X109.265 Y117.348 E4.25914
G1 X103.856 Y116.057 E4.4441
G1 X101.171 Y115.539 E4.53505
G1 X95.665 Y114.711 E4.72024
G1 X90.141 Y114.198 E4.90476
G1 X87.416 Y114.061 E4.9955
G1 X73.998 Y113.984 E5.4418
G1 X73.6 Y113.942 E5.45511
G1 X73.219 Y113.822 E5.46839
G1 X72.87 Y113.628 E5.48167
G1 X72.566 Y113.369 E5.49496
G1 X72.319 Y113.054 E5.50827
G1 X72.14 Y112.697 E5.52155
G1 X72.036 Y112.311 E5.53485
G1 X72.009 Y111.984 E5.54576
G1 X72.01 Y102.013 E5.8774
G1 X72.05 Y101.615 E5.8907
G1 X72.168 Y101.234 E5.90397
G1 X72.36 Y100.883 E5.91728
G1 X72.617 Y100.578 E5.93054
G1 X72.93 Y100.329 E5.94384
G0 F7200 X73.009 Y100.765
G1 F1800 X73.311 Y100.574 E5.95573
G1 X73.648 Y100.455 E5.96762
G1 X74.008 Y100.413 E5.97967
G1 X83.877 Y100.403 E6.30792
G1 X89.449 Y100.244 E6.49332
G1 X94.992 Y99.773 E6.67834
G1 X100.501 Y98.988 E6.86342
G1 X105.958 Y97.893 E7.04854
G1 X108.663 Y97.23 E7.14117
G1 X114.027 Y95.671 E7.32696
G1 X118.064 Y94.362 E7.46812
G1 X118.276 Y94.309 E7.47538
G1 X119.303 Y94.126 E7.51008
G1 X119.454 Y94.106 E7.51515
G1 X120.537 Y94.018 E7.55129
G1 X120.667 Y94.013 E7.55561
G1 X139.986 Y94.01 E8.19817
G1 X140.341 Y94.05 E8.21005
G1 X140.678 Y94.167 E8.22191
G1 X140.981 Y94.357 E8.23381
G1 X141.234 Y94.609 E8.24569
G1 X141.425 Y94.911 E8.25757
G1 X141.544 Y95.247 E8.26943
G1 X141.586 Y95.618 E8.28184
G1 X141.565 Y99.883 E8.4237
G1 X141.564 Y99.943 E8.4257
G1 X141.325 Y105.554 E8.61249
G1 X141.403 Y111.14 E8.7983
G1 X141.503 Y112.905 E8.8571
G1 X141.582 Y114.309 E8.90387
G1 X141.585 Y114.4 E8.90689
G1 X141.585 Y118.391 E9.03964
G1 X141.545 Y118.746 E9.05152
G1 X141.427 Y119.083 E9.06339
G1 X141.238 Y119.386 E9.07527
G1 X140.986 Y119.639 E9.08715
G1 X140.684 Y119.83 E9.09903
G1 X140.347 Y119.949 E9.11092
G1 X139.984 Y119.991 E9.12307
G1 X120.336 Y119.973 E9.77657
G1 X120.126 Y119.959 E9.78357
G1 X118.559 Y119.751 E9.83615
G1 X118.367 Y119.714 E9.84265
G1 X117.336 Y119.446 E9.87808
G1 X117.225 Y119.412 E9.88194
G1 X114.732 Y118.566 E9.9695
G1 X109.363 Y116.96 E10.15589
G1 X103.933 Y115.664 E10.34157
G1 X101.237 Y115.144 E10.43289
G1 X95.725 Y114.315 E10.61828
G1 X90.174 Y113.799 E10.80371
G1 X87.416 Y113.661 E10.89555
G1 X74 Y113.584 E11.34178
G1 X73.645 Y113.542 E11.35367
G1 X73.308 Y113.423 E11.36555
G1 X73.007 Y113.231 E11.37743
G1 X72.755 Y112.978 E11.38931
G1 X72.566 Y112.675 E11.40118
G1 X72.449 Y112.337 E11.41308
G1 X72.409 Y111.984 E11.4249
G1 X72.41 Y102.013 E11.75653
G1 X72.45 Y101.658 E11.76841
G1 X72.568 Y101.321 E11.78029
G1 X72.757 Y101.018 E11.79217
G1 X73.009 Y100.765 E11.80405
G0 F7200 X73.396 Y100.982
G1 F1800 X73.68 Y100.859 E11.81434
G1 X74.009 Y100.813 E11.82539
G1 X83.854 Y100.803 E12.15283
G1 X89.477 Y100.643 E12.33993
G1 X95.048 Y100.169 E12.52589
G1 X100.565 Y99.383 E12.71124
G1 X106.035 Y98.286 E12.8968
G1 X108.779 Y97.613 E12.99077
G1 X114.131 Y96.057 E13.17615
G1 X118.187 Y94.742 E13.31796
G1 X118.346 Y94.703 E13.32341
G1 X119.373 Y94.52 E13.3581
G1 X119.487 Y94.505 E13.36193
G1 X120.57 Y94.417 E13.39807
G1 X120.667 Y94.413 E13.4013
G1 X139.986 Y94.41 E14.04385
G1 X140.292 Y94.45 E14.05411
G1 X140.579 Y94.567 E14.06442
G1 X140.826 Y94.753 E14.07471
G1 X141.017 Y94.996 E14.08499
G1 X141.14 Y95.279 E14.09525
G1 X141.186 Y95.616 E14.10656
G1 X141.165 Y99.881 E14.24842
G1 X141.164 Y99.926 E14.24992
G1 X140.924 Y105.543 E14.43691
G1 X141.003 Y111.145 E14.62325
G1 X141.104 Y112.928 E14.68265
G1 X141.183 Y114.332 E14.72942
G1 X141.185 Y114.4 E14.73168
G1 X141.185 Y118.391 E14.86442
G1 X141.145 Y118.698 E14.87472
G1 X141.028 Y118.984 E14.885
G1 X140.842 Y119.231 E14.89528
G1 X140.599 Y119.422 E14.90556
G1 X140.315 Y119.545 E14.91586
G1 X139.984 Y119.591 E14.92697
G1 X120.336 Y119.573 E15.58047
G1 X120.179 Y119.563 E15.5857
G1 X118.612 Y119.355 E15.63827
G1 X118.468 Y119.326 E15.64316
G1 X117.437 Y119.058 E15.67859
G1 X117.353 Y119.033 E15.68151
G1 X114.858 Y118.186 E15.76914
G1 X109.47 Y116.574 E15.9562
G1 X104.005 Y115.27 E16.14306
G1 X101.322 Y114.752 E16.23395
G1 X95.77 Y113.918 E16.42068
G1 X90.184 Y113.399 E16.60727
G1 X87.438 Y113.261 E16.69872
G1 X74.002 Y113.184 E17.14561
G1 X73.696 Y113.142 E17.15588
G1 X73.41 Y113.024 E17.16617
G1 X73.164 Y112.836 E17.17647
G1 X72.975 Y112.592 E17.18674
G1 X72.853 Y112.308 E17.19702
G1 X72.809 Y111.984 E17.20789
G1 X72.81 Y102.013 E17.53953
G1 X72.85 Y101.706 E17.54983
G1 X72.967 Y101.42 E17.5601
G1 X73.153 Y101.173 E17.57039
G1 X73.396 Y100.982 E17.58067
G1 F1500 E16.88067
G0 F7200 X108.2 Y107.397
;TYPE:WALL-INNER
G1 F1500 E17.58067
G1 F600 X84.985 Y107.395 E18.3528
G1 X85.023 Y106.604 E18.37914
G1 X108.199 Y106.601 E19.14998
G1 X109.425 Y105.893 E19.19707
G1 X109.4 Y106.537 E19.2185
G1 X109.4 Y107.494 E19.25033
G1 X109.425 Y108.105 E19.27067
G1 X108.2 Y107.397 E19.31773
G0 F7200 X108.093 Y107.797
G1 F600 X84.565 Y107.795 E20.10027
G1 X84.631 Y106.432 E20.14566
G1 X84.559 Y106.204 E20.15361
G1 X108.092 Y106.201 E20.93632
G1 X109.894 Y105.16 E21.00554
G1 X109.824 Y105.911 E21.03063
G1 X109.8 Y106.545 E21.05173
G1 X109.8 Y107.486 E21.08303
G1 X109.825 Y108.114 E21.10393
G1 X109.891 Y108.836 E21.12805
G1 X108.093 Y107.797 E21.19711
G0 F7200 X107.986 Y108.197
G1 F600 X84.031 Y108.195 E21.99386
G1 X84.159 Y107.899 E22.00459
G1 X84.228 Y106.484 E22.05171
G1 X84.012 Y105.804 E22.07544
G1 X107.985 Y105.801 E22.87278
G1 X110.434 Y104.386 E22.96685
G1 X110.389 Y104.592 E22.97387
G1 X110.282 Y105.265 E22.99653
G1 X110.223 Y105.936 E23.01894
G1 X110.2 Y106.552 E23.03944
G1 X110.2 Y107.478 E23.07024
G1 X110.224 Y108.088 E23.09054
G1 X110.284 Y108.763 E23.11308
G1 X110.393 Y109.443 E23.13599
G1 X110.431 Y109.61 E23.14168
G1 X107.986 Y108.197 E23.23561
G0 F7200 X107.879 Y108.597
G1 F600 X83.421 Y108.595 E24.04908
G1 X83.763 Y107.807 E24.07766
G1 X83.825 Y106.537 E24.11995
G1 X83.477 Y105.443 E24.15813
G1 X83.45 Y105.404 E24.15971
G1 X107.878 Y105.401 E24.97219
G1 X111.053 Y103.566 E25.09415
G1 X110.92 Y104.03 E25.11021
G1 X110.782 Y104.666 E25.13185
G1 X110.679 Y105.314 E25.15368
G1 X110.622 Y105.961 E25.17528
G1 X110.6 Y106.559 E25.19518
G1 X110.6 Y107.47 E25.22548
G1 X110.623 Y108.062 E25.24519
G1 X110.681 Y108.713 E25.26693
G1 X110.786 Y109.367 E25.28896
G1 X110.932 Y110.005 E25.31073
G1 X111.059 Y110.434 E25.32561
G1 X107.879 Y108.597 E25.44775
G0 F7200 X107.772 Y108.997
G1 F600 X82.685 Y108.995 E26.28215
G1 X82.996 Y108.569 E26.29969
G1 X83.367 Y107.715 E26.33066
G1 X83.422 Y106.59 E26.36812
G1 X83.113 Y105.62 E26.40198
G1 X82.695 Y105.004 E26.42674
G1 X107.771 Y105.001 E27.26077
G1 X111.812 Y102.666 E27.416
G1 X111.699 Y102.925 E27.4254
G1 X111.484 Y103.515 E27.44629
G1 X111.308 Y104.128 E27.4675
G1 X111.175 Y104.74 E27.48833
G1 X111.076 Y105.363 E27.50931
G1 X111.021 Y105.986 E27.53011
G1 X111 Y106.566 E27.54942
G1 X111 Y107.462 E27.57922
G1 X111.022 Y108.037 E27.59836
G1 X111.078 Y108.663 E27.61926
G1 X111.179 Y109.291 E27.64042
G1 X111.319 Y109.904 E27.66133
G1 X111.496 Y110.501 E27.68204
G1 X111.705 Y111.089 E27.7028
G1 X111.809 Y111.329 E27.71149
G1 X107.772 Y108.997 E27.86656
G0 F7200 X107.665 Y109.397
G1 F600 X81.771 Y109.395 E28.7278
G1 X82.317 Y108.82 E28.75417
G1 X82.647 Y108.369 E28.77276
G1 X82.971 Y107.623 E28.79981
G1 X83.019 Y106.643 E28.83244
G1 X82.749 Y105.796 E28.86201
G1 X82.391 Y105.265 E28.88331
G1 X82.034 Y104.872 E28.90097
G1 X81.768 Y104.604 E28.91353
G1 X107.664 Y104.601 E29.77483
G1 X112.784 Y101.643 E29.9715
G1 X112.581 Y101.988 E29.98482
G1 X112.31 Y102.523 E30.00476
G1 X112.071 Y103.073 E30.02471
G1 X111.865 Y103.639 E30.04474
G1 X111.696 Y104.226 E30.06506
G1 X111.568 Y104.814 E30.08507
G1 X111.473 Y105.412 E30.10521
G1 X111.42 Y106.011 E30.12521
G1 X111.4 Y106.573 E30.14392
G1 X111.4 Y107.454 E30.17322
G1 X111.421 Y108.012 E30.19179
G1 X111.475 Y108.613 E30.21186
G1 X111.572 Y109.215 E30.23214
G1 X111.706 Y109.803 E30.2522
G1 X111.876 Y110.377 E30.27211
G1 X112.077 Y110.942 E30.29206
G1 X112.317 Y111.495 E30.31211
G1 X112.589 Y112.035 E30.33222
G1 X112.779 Y112.351 E30.34448
G1 X107.665 Y109.397 E30.54091
G0 F7200 X107.558 Y109.797
G1 F600 X80.808 Y109.795 E31.43062
G1 X81.55 Y109.051 E31.46557
G1 X82.009 Y108.564 E31.48783
G1 X82.298 Y108.169 E31.5041
G1 X82.575 Y107.531 E31.52724
G1 X82.616 Y106.696 E31.55504
G1 X82.385 Y105.972 E31.58032
G1 X82.075 Y105.512 E31.59877
G1 X81.744 Y105.147 E31.61516
G1 X80.807 Y104.204 E31.65937
G1 X107.557 Y104.201 E32.54908
G1 X114.273 Y100.322 E32.80704
G1 X113.907 Y100.739 E32.82549
G1 X113.55 Y101.205 E32.84502
G1 X113.227 Y101.68 E32.86412
G1 X112.932 Y102.18 E32.88343
G1 X112.672 Y102.693 E32.90256
G1 X112.443 Y103.221 E32.9217
G1 X112.246 Y103.763 E32.94088
G1 X112.084 Y104.324 E32.9603
G1 X111.961 Y104.888 E32.9795
G1 X111.87 Y105.461 E32.9988
G1 X111.819 Y106.036 E33.018
G1 X111.8 Y106.58 E33.0361
G1 X111.8 Y107.447 E33.06494
G1 X111.82 Y107.987 E33.08291
G1 X111.872 Y108.563 E33.10215
G1 X111.965 Y109.139 E33.12156
G1 X112.093 Y109.702 E33.14076
G1 X112.256 Y110.253 E33.15987
G1 X112.449 Y110.795 E33.17901
G1 X112.679 Y111.325 E33.19822
G1 X112.94 Y111.842 E33.21748
G1 X113.239 Y112.341 E33.23683
G1 X113.561 Y112.814 E33.25586
G1 X113.909 Y113.264 E33.27478
G1 X114.271 Y113.675 E33.293
G1 X107.558 Y109.797 E33.55085
G0 F7200 X107.451 Y110.197
G1 F600 X79.844 Y110.195 E34.46907
G1 X81.263 Y108.773 E34.53588
G1 X81.701 Y108.308 E34.55713
G1 X81.949 Y107.969 E34.5711
G1 X82.179 Y107.439 E34.59032
G1 X82.213 Y106.749 E34.61329
G1 X82.021 Y106.148 E34.63428
G1 X81.759 Y105.759 E34.64988
G1 X81.454 Y105.422 E34.66499
G1 X79.845 Y103.804 E34.74089
G1 X107.45 Y103.801 E35.65903
G1 X116.276 Y98.703 E35.99804
G1 X116.762 Y98.437 E36.01647
G1 X117.208 Y98.22 E36.03296
G1 X117.549 Y98.073 E36.04531
G1 X117.979 Y97.913 E36.06057
G1 X118.426 Y97.769 E36.07619
G1 X118.792 Y97.671 E36.0888
G1 X119.262 Y97.568 E36.1048
G1 X119.675 Y97.498 E36.11873
G1 X120.103 Y97.447 E36.13307
G1 X120.546 Y97.414 E36.14784
G1 X121.033 Y97.401 E36.16405
G1 X133.108 Y97.4 E36.56566
G1 X133.108 Y97.8 E36.57897
G1 X120.971 Y97.8 E36.98264
G1 X120.447 Y97.818 E37.00008
G1 X119.898 Y97.868 E37.01842
G1 X119.35 Y97.955 E37.03687
G1 X118.81 Y98.075 E37.05527
G1 X118.279 Y98.23 E37.07367
G1 X117.759 Y98.418 E37.09206
G1 X117.254 Y98.637 E37.11037
G1 X116.76 Y98.887 E37.12878
G1 X116.286 Y99.169 E37.14713
G1 X115.828 Y99.479 E37.16552
G1 X115.391 Y99.817 E37.1839
G1 X114.975 Y100.183 E37.20233
G1 X114.583 Y100.575 E37.22077
G1 X114.216 Y100.993 E37.23927
G1 X113.874 Y101.439 E37.25796
G1 X113.565 Y101.894 E37.27625
G1 X113.283 Y102.372 E37.29471
G1 X113.034 Y102.863 E37.31302
G1 X112.815 Y103.369 E37.33136
G1 X112.627 Y103.887 E37.34969
G1 X112.472 Y104.422 E37.36821
G1 X112.354 Y104.962 E37.3866
G1 X112.267 Y105.51 E37.40505
G1 X112.218 Y106.061 E37.42345
G1 X112.2 Y106.587 E37.44096
G1 X112.2 Y107.44 E37.46933
G1 X112.219 Y107.962 E37.4867
G1 X112.269 Y108.513 E37.5051
G1 X112.358 Y109.063 E37.52363
G1 X112.48 Y109.601 E37.54198
G1 X112.636 Y110.129 E37.56029
G1 X112.821 Y110.648 E37.57862
G1 X113.041 Y111.155 E37.597
G1 X113.291 Y111.649 E37.61542
G1 X113.576 Y112.126 E37.6339
G1 X113.885 Y112.579 E37.65214
G1 X114.218 Y113.009 E37.67023
G1 X114.583 Y113.424 E37.68861
G1 X114.975 Y113.817 E37.70707
G1 X115.391 Y114.183 E37.7255
G1 X115.828 Y114.521 E37.74387
G1 X116.286 Y114.831 E37.76227
G1 X116.76 Y115.113 E37.78061
G1 X117.254 Y115.363 E37.79903
G1 X117.759 Y115.582 E37.81733
G1 X118.279 Y115.77 E37.83573
G1 X118.81 Y115.925 E37.85412
G1 X119.35 Y116.045 E37.87252
G1 X119.898 Y116.132 E37.89098
G1 X120.447 Y116.182 E37.90931
G1 X120.971 Y116.2 E37.92675
G1 X133.108 Y116.2 E38.33043
G1 X133.108 Y116.6 E38.34373
G1 X121.043 Y116.6 E38.74502
G1 X120.556 Y116.588 E38.76122
G1 X120.107 Y116.555 E38.77619
G1 X119.675 Y116.503 E38.79067
G1 X119.273 Y116.436 E38.80422
G1 X118.831 Y116.341 E38.81926
G1 X118.399 Y116.223 E38.83415
G1 X118 Y116.096 E38.84808
G1 X117.577 Y115.94 E38.86307
G1 X117.168 Y115.764 E38.87788
G1 X116.815 Y115.591 E38.89096
G1 X116.207 Y115.255 E38.91406
G1 X107.451 Y110.197 E39.25039
G0 F7200 X107.344 Y110.597
G1 F600 X78.88 Y110.595 E40.1971
G1 X80.976 Y108.495 E40.29579
G1 X81.393 Y108.052 E40.31602
G1 X81.6 Y107.769 E40.32768
G1 X81.783 Y107.347 E40.34298
G1 X81.81 Y106.802 E40.36113
G1 X81.657 Y106.324 E40.37783
G1 X81.443 Y106.006 E40.39057
G1 X81.163 Y105.697 E40.40444
G1 X80.441 Y104.965 E40.43864
G1 X78.879 Y103.404 E40.51209
G1 X107.343 Y103.401 E41.4588
G1 X116.084 Y98.352 E41.79455
G1 X116.582 Y98.079 E41.81344
G1 X117.033 Y97.86 E41.83011
G1 X117.399 Y97.702 E41.84337
G1 X117.856 Y97.532 E41.85959
G1 X118.303 Y97.388 E41.87521
G1 X118.706 Y97.28 E41.88908
G1 X119.176 Y97.177 E41.90509
G1 X119.627 Y97.101 E41.9203
G1 X120.07 Y97.048 E41.93514
G1 X120.526 Y97.014 E41.95035
G1 X121.023 Y97.001 E41.96688
G1 X133.508 Y97 E42.38214
G1 X133.508 Y98.2 E42.42205
G1 X120.978 Y98.2 E42.8388
G1 X120.472 Y98.217 E42.85564
G1 X119.948 Y98.265 E42.87314
G1 X119.425 Y98.348 E42.89075
G1 X118.909 Y98.463 E42.90833
G1 X118.403 Y98.61 E42.92586
G1 X117.907 Y98.79 E42.94341
G1 X117.424 Y98.999 E42.96091
G1 X116.953 Y99.238 E42.97848
G1 X116.5 Y99.507 E42.996
G1 X116.063 Y99.803 E43.01356
G1 X115.646 Y100.126 E43.0311
G1 X115.249 Y100.475 E43.04868
G1 X114.875 Y100.849 E43.06627
G1 X114.525 Y101.247 E43.0839
G1 X114.198 Y101.673 E43.10176
G1 X113.903 Y102.108 E43.11925
G1 X113.634 Y102.564 E43.13685
G1 X113.396 Y103.033 E43.15435
G1 X113.187 Y103.517 E43.17188
G1 X113.008 Y104.011 E43.18936
G1 X112.86 Y104.521 E43.20702
G1 X112.747 Y105.036 E43.22456
G1 X112.664 Y105.559 E43.24217
G1 X112.617 Y106.085 E43.25973
G1 X112.6 Y106.594 E43.27667
G1 X112.6 Y107.433 E43.30458
G1 X112.618 Y107.937 E43.32135
G1 X112.666 Y108.463 E43.33892
G1 X112.751 Y108.987 E43.35658
G1 X112.867 Y109.5 E43.37407
G1 X113.016 Y110.005 E43.39158
G1 X113.193 Y110.501 E43.4091
G1 X113.403 Y110.985 E43.42664
G1 X113.642 Y111.456 E43.44421
G1 X113.913 Y111.911 E43.46183
G1 X114.208 Y112.343 E43.47922
G1 X114.527 Y112.754 E43.49653
G1 X114.875 Y113.15 E43.51406
G1 X115.249 Y113.525 E43.53168
G1 X115.646 Y113.874 E43.54926
G1 X116.063 Y114.197 E43.5668
G1 X116.5 Y114.493 E43.58436
G1 X116.953 Y114.762 E43.60188
G1 X117.424 Y115.001 E43.61945
G1 X117.907 Y115.21 E43.63695
G1 X118.403 Y115.39 E43.6545
G1 X118.909 Y115.537 E43.67203
G1 X119.425 Y115.652 E43.68961
