;FLAVOR:Marlin
;TIME:3728
;Filament used: 1.17387m
;Layer height: 0.2
;Generated with Cura_SteamEngine 3.1.0
M190 S60
M104 S215
M109 S215
M82 ; absolute extrusion mode
G28 ;Home
G1 Z15.0 F6000 ;Move the platform down 15mm
;Prime the extruder
G92 E0
G1 F200 E3
G92 E0
;LAYER_COUNT:251
;LAYER:0
M107
G0 F7200 X100.95 Y99.479 Z0.2
;TYPE:SKIRT
G1 F1800 X101.423 Y99.061 E0.02099
G1 X102.008 Y98.668 E0.04443
G1 X103.1 Y98.043 E0.08628
G1 X103.668 Y97.765 E0.10732
G1 X104.119 Y97.602 E0.12327
G1 X105.062 Y97.313 E0.15607
G1 X105.677 Y97.167 E0.17709
G1 X106.048 Y97.117 E0.18954
G1 X107.024 Y97.023 E0.22216
G1 X107.655 Y97.002 E0.24316
G1 X108.158 Y97.043 E0.25994
G1 X109.452 Y97.214 E0.30335
G1 X110.072 Y97.336 E0.32437
G1 X110.712 Y97.552 E0.34684
G1 X111.918 Y98.052 E0.39026
G1 X112.485 Y98.331 E0.41128
G1 X112.769 Y98.506 E0.42237
G1 X113.272 Y98.84 E0.44245
G1 X113.775 Y99.222 E0.46346
G1 X114.227 Y99.665 E0.48451
G1 X114.618 Y100.161 E0.50552
G1 X114.944 Y100.702 E0.52653
G1 X115.199 Y101.281 E0.54757
G1 X115.379 Y101.887 E0.5686
G1 X115.481 Y102.511 E0.58963
G1 X115.504 Y102.878 E0.60186
G1 X115.548 Y104.604 E0.65928
G1 X115.525 Y105.235 E0.68028
G1 X115.421 Y105.859 E0.70132
G1 X115.24 Y106.464 E0.72233
G1 X114.999 Y107.009 E0.74215
G1 X115.144 Y107.295 E0.75281
G1 X115.356 Y107.89 E0.77382
G1 X115.492 Y108.508 E0.79487
G1 X115.549 Y109.388 E0.8242
G1 X115.508 Y111.11 E0.88149
G1 X115.453 Y111.74 E0.90252
G1 X115.319 Y112.358 E0.92355
G1 X115.108 Y112.953 E0.94455
G1 X114.823 Y113.518 E0.9656
G1 X114.47 Y114.042 E0.98661
G1 X114.053 Y114.518 E1.00766
G1 X113.58 Y114.937 E1.02868
G1 X112.995 Y115.329 E1.0521
G1 X111.901 Y115.956 E1.09404
G1 X111.334 Y116.235 E1.11505
G1 X110.874 Y116.401 E1.13132
G1 X109.933 Y116.688 E1.16404
G1 X109.318 Y116.833 E1.18506
G1 X108.958 Y116.882 E1.19714
G1 X107.981 Y116.977 E1.22979
G1 X107.349 Y116.998 E1.25082
G1 X106.843 Y116.957 E1.26771
G1 X105.547 Y116.786 E1.31119
G1 X104.927 Y116.664 E1.3322
G1 X104.285 Y116.447 E1.35474
G1 X103.092 Y115.952 E1.3977
G1 X102.524 Y115.674 E1.41873
G1 X102.253 Y115.507 E1.42932
G1 X101.738 Y115.167 E1.44985
G1 X101.234 Y114.786 E1.47086
G1 X100.781 Y114.344 E1.49191
G1 X100.388 Y113.849 E1.51293
G1 X100.061 Y113.308 E1.53396
G1 X99.804 Y112.731 E1.55497
G1 X99.623 Y112.125 E1.576
G1 X99.519 Y111.502 E1.59701
G1 X99.495 Y111.119 E1.60977
G1 X99.452 Y109.394 E1.66717
G1 X99.476 Y108.762 E1.6882
G1 X99.58 Y108.138 E1.70924
G1 X99.761 Y107.533 E1.73025
G1 X100.002 Y106.992 E1.74994
G1 X99.856 Y106.705 E1.76065
G1 X99.644 Y106.11 E1.78166
G1 X99.508 Y105.492 E1.80271
G1 X99.451 Y104.609 E1.83214
G1 X99.493 Y102.886 E1.88946
G1 X99.549 Y102.256 E1.9105
G1 X99.683 Y101.639 E1.9315
G1 X99.894 Y101.043 E1.95253
G1 X100.179 Y100.479 E1.97355
G1 X100.533 Y99.955 E1.99458
G1 X100.95 Y99.479 E2.01563
G0 F7200 X101.34 Y99.658
G1 F1800 X101.808 Y99.273 E2.03578
G1 X102.207 Y99.016 E2.05157
G1 X103.299 Y98.391 E2.09342
G1 X103.844 Y98.125 E2.11359
G1 X104.236 Y97.985 E2.12743
G1 X105.179 Y97.696 E2.16023
G1 X105.769 Y97.557 E2.1804
G1 X106.086 Y97.515 E2.19103
G1 X107.062 Y97.421 E2.22364
G1 X107.668 Y97.403 E2.24381
G1 X108.106 Y97.44 E2.25843
G1 X109.4 Y97.611 E2.30184
G1 X109.994 Y97.73 E2.32199
G1 X110.559 Y97.922 E2.34184
G1 X111.765 Y98.422 E2.38526
G1 X112.548 Y98.839 E2.41476
G1 X113.051 Y99.173 E2.43485
G1 X113.532 Y99.541 E2.45499
G1 X113.962 Y99.969 E2.47517
G1 X114.331 Y100.45 E2.49533
G1 X114.634 Y100.975 E2.51549
G1 X114.865 Y101.536 E2.53567
G1 X115.02 Y102.122 E2.55583
G1 X115.105 Y102.888 E2.58147
G1 X115.149 Y104.614 E2.63889
G1 X115.124 Y105.22 E2.65907
G1 X115.02 Y105.817 E2.67922
G1 X114.838 Y106.395 E2.69938
G1 X114.582 Y106.945 E2.71955
G1 X114.548 Y106.998 E2.72165
G1 X114.805 Y107.521 E2.74103
G1 X114.998 Y108.096 E2.7612
G1 X115.114 Y108.691 E2.78136
G1 X115.149 Y109.378 E2.80424
G1 X115.108 Y111.1 E2.86153
G1 X115.053 Y111.704 E2.88171
G1 X114.92 Y112.296 E2.90189
G1 X114.71 Y112.865 E2.92206
G1 X114.427 Y113.401 E2.94222
G1 X114.076 Y113.895 E2.96238
G1 X113.663 Y114.339 E2.98254
G1 X113.196 Y114.725 E3.0027
G1 X112.796 Y114.982 E3.01851
G1 X111.702 Y115.609 E3.06045
G1 X111.158 Y115.875 E3.08059
G1 X110.757 Y116.018 E3.09475
G1 X109.816 Y116.305 E3.12747
G1 X109.226 Y116.443 E3.14762
G1 X108.919 Y116.483 E3.15792
G1 X107.942 Y116.578 E3.19057
G1 X107.336 Y116.597 E3.21073
G1 X106.895 Y116.56 E3.22545
G1 X105.599 Y116.389 E3.26893
G1 X105.005 Y116.271 E3.28907
G1 X104.438 Y116.078 E3.309
G1 X103.245 Y115.583 E3.35196
G1 X102.474 Y115.173 E3.381
G1 X101.959 Y114.833 E3.40152
G1 X101.476 Y114.466 E3.4217
G1 X101.045 Y114.039 E3.44188
G1 X100.675 Y113.559 E3.46204
G1 X100.371 Y113.035 E3.48219
G1 X100.138 Y112.475 E3.50236
G1 X99.981 Y111.889 E3.52254
G1 X99.894 Y111.109 E3.54864
G1 X99.851 Y109.384 E3.60603
G1 X99.876 Y108.778 E3.62621
G1 X99.981 Y108.181 E3.64637
G1 X100.163 Y107.602 E3.66655
G1 X100.419 Y107.053 E3.6867
G1 X100.452 Y107.002 E3.68872
G1 X100.195 Y106.479 E3.7081
G1 X100.002 Y105.904 E3.72828
G1 X99.886 Y105.309 E3.74844
G1 X99.851 Y104.619 E3.77142
G1 X99.893 Y102.896 E3.82874
G1 X99.948 Y102.292 E3.84891
G1 X100.082 Y101.701 E3.86907
G1 X100.292 Y101.132 E3.88924
G1 X100.575 Y100.596 E3.9094
G1 X100.926 Y100.102 E3.92956
G1 X101.34 Y99.658 E3.94975
G0 F7200 X101.728 Y99.845
G1 F1800 X102.406 Y99.363 E3.97742
G1 X103.498 Y98.738 E4.01926
G1 X104.019 Y98.485 E4.03853
G1 X104.353 Y98.367 E4.05031
G1 X105.296 Y98.078 E4.08311
G1 X106.124 Y97.913 E4.1112
G1 X107.1 Y97.819 E4.14381
G1 X107.679 Y97.804 E4.16307
G1 X108.053 Y97.836 E4.17556
G1 X109.347 Y98.007 E4.21897
G1 X109.915 Y98.123 E4.23825
G1 X110.406 Y98.291 E4.25551
G1 X111.612 Y98.791 E4.29893
G1 X112.326 Y99.172 E4.32585
G1 X112.829 Y99.506 E4.34593
G1 X113.289 Y99.859 E4.36522
G1 X113.695 Y100.272 E4.38448
G1 X114.041 Y100.737 E4.40376
G1 X114.319 Y101.245 E4.42302
G1 X114.525 Y101.786 E4.44227
G1 X114.655 Y102.351 E4.46156
G1 X114.705 Y102.898 E4.47982
G1 X114.749 Y104.624 E4.53725
G1 X114.723 Y105.203 E4.55653
G1 X114.619 Y105.773 E4.5758
G1 X114.437 Y106.322 E4.59504
G1 X114.181 Y106.842 E4.61431
G1 X114.073 Y107.001 E4.62071
G1 X114.217 Y107.221 E4.62945
G1 X114.464 Y107.745 E4.64872
G1 X114.636 Y108.298 E4.66798
G1 X114.731 Y108.87 E4.68727
G1 X114.749 Y109.369 E4.70387
G1 X114.708 Y111.091 E4.76116
G1 X114.654 Y111.668 E4.78044
G1 X114.522 Y112.232 E4.79971
G1 X114.313 Y112.772 E4.81896
G1 X114.031 Y113.279 E4.83826
G1 X113.683 Y113.741 E4.8575
G1 X113.274 Y114.152 E4.87678
G1 X112.597 Y114.635 E4.90444
G1 X111.503 Y115.262 E4.94638
G1 X110.982 Y115.515 E4.96565
G1 X110.64 Y115.635 E4.9777
G1 X109.699 Y115.922 E5.01042
G1 X108.88 Y116.085 E5.0382
G1 X107.903 Y116.18 E5.07084
G1 X107.324 Y116.196 E5.09011
G1 X106.948 Y116.164 E5.10266
G1 X105.652 Y115.993 E5.14614
G1 X105.084 Y115.878 E5.16541
G1 X104.591 Y115.708 E5.18276
G1 X103.398 Y115.213 E5.22572
G1 X102.694 Y114.839 E5.25223
G1 X102.179 Y114.499 E5.27276
G1 X101.719 Y114.147 E5.29202
G1 X101.311 Y113.736 E5.31128
G1 X100.964 Y113.272 E5.33056
G1 X100.684 Y112.764 E5.34985
G1 X100.477 Y112.223 E5.36911
G1 X100.346 Y111.659 E5.38837
G1 X100.294 Y111.099 E5.40708
G1 X100.251 Y109.374 E5.46447
G1 X100.277 Y108.795 E5.48375
G1 X100.382 Y108.225 E5.50302
G1 X100.564 Y107.675 E5.52229
G1 X100.82 Y107.156 E5.54154
G1 X100.927 Y106.999 E5.54786
G1 X100.783 Y106.779 E5.5566
G1 X100.536 Y106.255 E5.57587
G1 X100.364 Y105.702 E5.59513
G1 X100.269 Y105.13 E5.61442
G1 X100.251 Y104.629 E5.63109
G1 X100.293 Y102.906 E5.68842
G1 X100.347 Y102.329 E5.70769
G1 X100.48 Y101.765 E5.72697
G1 X100.689 Y101.225 E5.74622
G1 X100.971 Y100.718 E5.76552
G1 X101.319 Y100.256 E5.78476
G1 X101.728 Y99.845 E5.80404
G0 F7200 X101.712 Y100.418
G1 F1800 X102.115 Y100.043 E5.82235
G1 X102.604 Y99.71 E5.84203
G1 X103.696 Y99.085 E5.88388
G1 X104.193 Y98.847 E5.90221
G1 X104.471 Y98.75 E5.912
G1 X105.414 Y98.461 E5.9448
G1 X106.163 Y98.312 E5.9702
G1 X107.139 Y98.218 E6.00282
G1 X107.69 Y98.205 E6.02115
G1 X108.001 Y98.233 E6.03153
G1 X109.295 Y98.404 E6.07495
G1 X109.834 Y98.515 E6.09325
G1 X110.252 Y98.661 E6.10798
G1 X111.458 Y99.161 E6.1514
G1 X112.105 Y99.505 E6.17577
G1 X112.608 Y99.839 E6.19585
G1 X113.044 Y100.177 E6.2142
G1 X113.426 Y100.573 E6.2325
G1 X113.747 Y101.021 E6.25083
G1 X114 Y101.511 E6.26917
G1 X114.179 Y102.032 E6.2875
G1 X114.281 Y102.573 E6.30581
G1 X114.305 Y102.908 E6.31698
G1 X114.349 Y104.634 E6.3744
G1 X114.323 Y105.185 E6.39275
G1 X114.218 Y105.725 E6.41105
G1 X114.035 Y106.245 E6.42938
G1 X113.78 Y106.733 E6.44769
G1 X113.591 Y106.993 E6.45839
G1 X113.597 Y106.999 E6.45867
G1 X113.894 Y107.463 E6.47699
G1 X114.12 Y107.966 E6.49533
G1 X114.271 Y108.496 E6.51366
G1 X114.343 Y109.042 E6.53198
G1 X114.349 Y109.359 E6.54252
G1 X114.308 Y111.081 E6.59981
G1 X114.255 Y111.63 E6.61816
G1 X114.123 Y112.165 E6.63649
G1 X113.915 Y112.675 E6.65481
G1 X113.636 Y113.15 E6.67313
G1 X113.291 Y113.58 E6.69146
G1 X112.887 Y113.955 E6.7098
G1 X112.399 Y114.288 E6.72945
G1 X111.305 Y114.915 E6.77139
G1 X110.808 Y115.154 E6.78973
G1 X110.524 Y115.253 E6.79973
G1 X109.583 Y115.54 E6.83245
G1 X108.842 Y115.687 E6.85758
G1 X107.865 Y115.782 E6.89023
G1 X107.314 Y115.796 E6.90856
G1 X107 Y115.767 E6.91905
G1 X105.704 Y115.596 E6.96253
G1 X105.164 Y115.485 E6.98086
G1 X104.745 Y115.339 E6.99562
G1 X103.552 Y114.844 E7.03858
G1 X102.914 Y114.505 E7.06261
G1 X102.399 Y114.165 E7.08313
G1 X101.963 Y113.829 E7.10144
G1 X101.579 Y113.433 E7.11979
G1 X101.257 Y112.986 E7.13811
G1 X101.003 Y112.497 E7.15644
G1 X100.822 Y111.977 E7.17475
G1 X100.719 Y111.436 E7.19307
G1 X100.694 Y111.089 E7.20464
G1 X100.651 Y109.364 E7.26203
G1 X100.677 Y108.813 E7.28038
G1 X100.783 Y108.273 E7.29868
G1 X100.966 Y107.753 E7.31702
G1 X101.222 Y107.265 E7.33535
G1 X101.409 Y107.007 E7.34594
G1 X101.403 Y107.001 E7.34623
G1 X101.106 Y106.537 E7.36455
G1 X100.88 Y106.034 E7.38289
G1 X100.729 Y105.504 E7.40122
G1 X100.657 Y104.958 E7.41954
G1 X100.651 Y104.638 E7.43018
G1 X100.693 Y102.915 E7.48751
G1 X100.746 Y102.367 E7.50582
G1 X100.879 Y101.832 E7.52415
G1 X101.087 Y101.322 E7.54247
G1 X101.366 Y100.847 E7.5608
G1 X101.712 Y100.418 E7.57913
G0 F7200 X102.103 Y100.589
G1 F1800 X102.5 Y100.252 E7.59645
G1 X102.803 Y100.057 E7.60843
G1 X103.895 Y99.432 E7.65028
G1 X104.588 Y99.132 E7.6754
G1 X105.531 Y98.843 E7.7082
G1 X106.201 Y98.71 E7.73092
G1 X107.177 Y98.616 E7.76353
G1 X107.948 Y98.629 E7.78918
G1 X109.242 Y98.8 E7.83259
G1 X109.752 Y98.908 E7.84993
G1 X110.099 Y99.03 E7.86216
G1 X111.305 Y99.53 E7.90559
G1 X111.884 Y99.839 E7.92741
G1 X112.387 Y100.173 E7.9475
G1 X112.798 Y100.493 E7.96482
G1 X113.155 Y100.873 E7.98216
G1 X113.449 Y101.303 E7.99949
G1 X113.675 Y101.773 E8.01683
G1 X113.826 Y102.271 E8.03414
G1 X113.905 Y102.918 E8.05582
G1 X113.949 Y104.644 E8.11325
G1 X113.922 Y105.165 E8.1306
G1 X113.816 Y105.675 E8.14792
G1 X113.634 Y106.163 E8.16525
G1 X113.379 Y106.618 E8.18259
G1 X113.067 Y106.997 E8.19892
G1 X113.293 Y107.261 E8.21048
G1 X113.568 Y107.703 E8.2278
G1 X113.772 Y108.183 E8.24514
G1 X113.9 Y108.688 E8.26247
G1 X113.949 Y109.35 E8.28455
G1 X113.908 Y111.072 E8.34184
G1 X113.856 Y111.59 E8.35915
G1 X113.725 Y112.095 E8.37651
G1 X113.518 Y112.573 E8.39383
G1 X113.241 Y113.015 E8.41118
G1 X112.9 Y113.408 E8.42849
G1 X112.502 Y113.745 E8.44583
G1 X112.2 Y113.941 E8.45781
G1 X111.106 Y114.568 E8.49975
G1 X110.407 Y114.87 E8.52507
G1 X109.466 Y115.157 E8.55779
G1 X108.803 Y115.289 E8.58028
G1 X107.826 Y115.384 E8.61292
G1 X107.052 Y115.371 E8.63867
G1 X105.756 Y115.2 E8.68215
G1 X105.246 Y115.092 E8.69949
G1 X104.898 Y114.969 E8.71177
G1 X103.705 Y114.474 E8.75472
G1 X103.135 Y114.171 E8.7762
G1 X102.62 Y113.831 E8.79672
G1 X102.208 Y113.512 E8.81405
G1 X101.85 Y113.133 E8.83139
G1 X101.554 Y112.704 E8.84873
G1 X101.327 Y112.235 E8.86606
G1 X101.175 Y111.736 E8.88341
G1 X101.094 Y111.079 E8.90542
G1 X101.051 Y109.354 E8.96282
G1 X101.078 Y108.833 E8.98017
G1 X101.184 Y108.323 E8.99749
G1 X101.367 Y107.835 E9.01483
G1 X101.623 Y107.381 E9.03216
G1 X101.933 Y107.003 E9.04842
G1 X101.707 Y106.739 E9.05998
G1 X101.432 Y106.297 E9.07729
G1 X101.228 Y105.817 E9.09464
G1 X101.1 Y105.312 E9.11197
G1 X101.051 Y104.648 E9.13411
G1 X101.093 Y102.925 E9.19144
G1 X101.146 Y102.407 E9.20876
G1 X101.277 Y101.902 E9.22611
G1 X101.484 Y101.424 E9.24343
G1 X101.761 Y100.983 E9.26076
G1 X102.103 Y100.589 E9.27811
G0 F7200 X102.492 Y100.772
G1 F1800 X103.002 Y100.404 E9.29903
G1 X104.094 Y99.779 E9.34087
G1 X104.705 Y99.515 E9.36301
G1 X105.648 Y99.226 E9.39582
G1 X106.239 Y99.108 E9.41586
G1 X107.215 Y99.014 E9.44847
G1 X107.896 Y99.026 E9.47113
G1 X109.19 Y99.197 E9.51454
G1 X109.668 Y99.3 E9.5308
G1 X109.946 Y99.4 E9.54063
G1 X111.152 Y99.9 E9.58405
G1 X111.663 Y100.172 E9.6033
G1 X112.166 Y100.506 E9.62339
G1 X112.55 Y100.809 E9.63966
G1 X112.88 Y101.171 E9.65595
G1 X113.146 Y101.581 E9.6722
G1 X113.343 Y102.029 E9.68848
G1 X113.464 Y102.504 E9.70478
G1 X113.505 Y102.929 E9.71899
G1 X113.549 Y104.655 E9.77641
G1 X113.522 Y105.143 E9.79267
G1 X113.415 Y105.621 E9.80896
G1 X113.232 Y106.075 E9.82524
G1 X112.978 Y106.493 E9.84151
G1 X112.671 Y106.852 E9.85722
G1 X112.554 Y106.969 E9.86272
G1 X112.518 Y106.999 E9.86428
G1 X112.554 Y107.031 E9.86588
G1 X112.671 Y107.148 E9.87139
G1 X112.988 Y107.521 E9.88767
G1 X113.24 Y107.941 E9.90396
G1 X113.42 Y108.396 E9.92023
G1 X113.524 Y108.874 E9.9365
G1 X113.549 Y109.34 E9.95202
G1 X113.508 Y111.062 E10.00931
G1 X113.457 Y111.549 E10.0256
G1 X113.327 Y112.021 E10.04188
G1 X113.122 Y112.466 E10.05818
G1 X112.847 Y112.871 E10.07446
G1 X112.51 Y113.226 E10.09074
G1 X112.001 Y113.594 E10.11163
G1 X110.907 Y114.221 E10.15357
G1 X110.29 Y114.488 E10.17593
G1 X109.349 Y114.775 E10.20865
G1 X108.764 Y114.891 E10.22849
G1 X107.787 Y114.986 E10.26114
G1 X107.105 Y114.974 E10.28382
G1 X105.809 Y114.803 E10.3273
G1 X105.33 Y114.7 E10.3436
G1 X105.051 Y114.6 E10.35346
G1 X103.858 Y114.105 E10.39642
G1 X103.355 Y113.838 E10.41536
G1 X102.84 Y113.498 E10.43588
G1 X102.455 Y113.195 E10.45218
G1 X102.124 Y112.835 E10.46844
G1 X101.856 Y112.425 E10.48473
G1 X101.659 Y111.977 E10.50101
G1 X101.537 Y111.503 E10.51729
G1 X101.494 Y111.069 E10.5318
G1 X101.451 Y109.344 E10.58919
G1 X101.479 Y108.855 E10.60548
G1 X101.586 Y108.377 E10.62177
G1 X101.769 Y107.923 E10.63805
G1 X102.023 Y107.505 E10.65432
G1 X102.329 Y107.148 E10.66996
G1 X102.446 Y107.031 E10.67546
G1 X102.482 Y107.001 E10.67702
G1 X102.446 Y106.969 E10.67862
G1 X102.329 Y106.852 E10.68413
G1 X102.012 Y106.479 E10.70041
G1 X101.76 Y106.059 E10.7167
G1 X101.58 Y105.604 E10.73297
G1 X101.476 Y105.126 E10.74924
G1 X101.451 Y104.658 E10.76483
G1 X101.493 Y102.935 E10.82215
G1 X101.545 Y102.448 E10.83844
G1 X101.675 Y101.976 E10.85473
G1 X101.88 Y101.532 E10.87099
G1 X102.155 Y101.127 E10.88728
G1 X102.492 Y100.772 E10.90356
G0 F7200 X102.548 Y101.281
G1 F1800 X102.879 Y100.969 E10.91868
G1 X103.2 Y100.751 E10.93159
G1 X104.292 Y100.126 E10.97344
G1 X104.822 Y99.897 E10.99264
G1 X105.765 Y99.608 E11.02545
G1 X106.278 Y99.506 E11.04284
G1 X107.254 Y99.412 E11.07545
G1 X107.844 Y99.422 E11.09508
G1 X109.138 Y99.593 E11.13849
G1 X109.793 Y99.769 E11.16105
G1 X110.999 Y100.269 E11.20447
G1 X111.441 Y100.505 E11.22114
G1 X111.944 Y100.839 E11.24122
G1 X112.3 Y101.123 E11.25637
G1 X112.601 Y101.465 E11.27152
G1 X112.838 Y101.855 E11.2867
G1 X113.003 Y102.28 E11.30186
G1 X113.105 Y102.939 E11.32404
G1 X113.149 Y104.665 E11.38147
G1 X113.121 Y105.119 E11.3966
G1 X113.014 Y105.562 E11.41176
G1 X112.831 Y105.98 E11.42693
G1 X112.578 Y106.359 E11.44209
G1 X112.388 Y106.569 E11.45151
G1 X112.271 Y106.686 E11.45701
G1 X111.922 Y106.979 E11.47217
G1 X111.873 Y107.007 E11.47404
G1 X112.271 Y107.314 E11.49076
G1 X112.388 Y107.431 E11.49627
G1 X112.681 Y107.78 E11.51142
G1 X112.908 Y108.175 E11.52657
G1 X113.063 Y108.603 E11.54171
G1 X113.141 Y109.052 E11.55687
G1 X113.149 Y109.331 E11.56616
G1 X113.108 Y111.053 E11.62345
G1 X113.058 Y111.506 E11.6386
G1 X112.929 Y111.943 E11.65376
G1 X112.725 Y112.35 E11.6689
G1 X112.454 Y112.716 E11.68405
G1 X112.123 Y113.029 E11.6992
