;FLAVOR:Marlin
;TIME:846
;Filament used: 0.613122m
;Layer height: 0.2
;Generated with Cura_SteamEngine 3.3.1
M190 S60
M104 S230
M109 S230
M82 ;absolute extrusion mode
G28 ;Home
G1 Z15.0 F6000 ;Move the platform down 15mm
;Prime the extruder
G92 E0
G1 F200 E3
G92 E0
G92 E0
G1 F1500 E-0.8
;LAYER_COUNT:146
;LAYER:0
M107
G0 F3600 X85.933 Y87.667 Z0.2
;TYPE:SKIRT
G1 F1500 E0.04158
G1 F1800 X85.939 Y87.268 E0.05511
G1 X86.024 Y86.877 E0.06869
G1 X86.186 Y86.512 E0.08224
G1 X86.541 Y86.055 E0.10187
G1 X86.617 Y85.982 E0.10544
G1 X86.931 Y85.735 E0.119
G1 X87.288 Y85.556 E0.13254
G1 X87.673 Y85.451 E0.14608
G1 X88.072 Y85.425 E0.15965
G1 X88.468 Y85.479 E0.17321
G1 X88.845 Y85.61 E0.18675
G1 X89.189 Y85.814 E0.20031
G1 X89.388 Y85.983 E0.20917
G1 X90.792 Y87.334 E0.27527
G1 X95.183 Y91.259 E0.47508
G1 X107.92 Y101.925 E1.03868
G1 X107.955 Y101.955 E1.04025
G1 X115.07 Y108.199 E1.36139
G1 X115.13 Y108.253 E1.36413
G1 X120.152 Y113.031 E1.59929
G1 X120.221 Y113.1 E1.60261
G1 X123.507 Y116.548 E1.76419
G1 X123.561 Y116.608 E1.76693
G1 X127.218 Y120.769 E1.95487
G1 X127.271 Y120.831 E1.95763
G1 X130.954 Y125.383 E2.15628
G1 X131.008 Y125.454 E2.1593
G1 X134.177 Y129.75 E2.34041
G1 X134.227 Y129.82 E2.34333
G1 X135.641 Y131.919 E2.42919
G1 X135.685 Y131.987 E2.43194
G1 X137.086 Y134.26 E2.52252
G1 X137.166 Y134.402 E2.52805
G1 X138.366 Y136.761 E2.61784
G1 X138.475 Y137.019 E2.62734
G1 X138.873 Y138.18 E2.66898
G1 X138.962 Y138.551 E2.68192
G1 X139.021 Y138.971 E2.69631
G1 X139.025 Y139.495 E2.71409
G1 X138.972 Y139.922 E2.72868
G1 X138.883 Y140.312 E2.74225
G1 X138.719 Y140.676 E2.7558
G1 X138.596 Y140.863 E2.76339
G1 X138.281 Y141.29 E2.78139
G1 X138.013 Y141.586 E2.79494
G1 X137.692 Y141.823 E2.80848
G1 X137.329 Y141.992 E2.82206
G1 X137.077 Y142.062 E2.83093
G1 X136.53 Y142.175 E2.84988
G1 X136.132 Y142.216 E2.86346
G1 X135.756 Y142.182 E2.87626
G1 X135.224 Y142.082 E2.89463
G1 X134.793 Y141.949 E2.90993
G1 X133.507 Y141.388 E2.95753
G1 X133.247 Y141.251 E2.9675
G1 X130.683 Y139.648 E3.07008
G1 X130.553 Y139.56 E3.07541
G1 X128.318 Y137.906 E3.16974
G1 X128.234 Y137.84 E3.17336
G1 X124.127 Y134.447 E3.35409
G1 X124.054 Y134.384 E3.35736
G1 X120.023 Y130.713 E3.54233
G1 X119.965 Y130.657 E3.54506
G1 X115.978 Y126.72 E3.73515
G1 X115.924 Y126.665 E3.73777
G1 X112.267 Y122.764 E3.91917
G1 X112.2 Y122.689 E3.92258
G1 X108.688 Y118.546 E4.10684
G1 X108.642 Y118.489 E4.10932
G1 X104.568 Y113.307 E4.33295
G1 X104.539 Y113.27 E4.33455
G1 X102 Y109.879 E4.47826
G1 X101.979 Y109.851 E4.47945
G1 X90.5 Y93.952 E5.14472
G1 X88.809 Y91.737 E5.23926
G1 X86.378 Y88.763 E5.36957
G1 X86.157 Y88.43 E5.38313
G1 X86.007 Y88.06 E5.39667
G1 X85.933 Y87.667 E5.41024
G0 F3600 X86.326 Y87.52
G1 F1800 X86.361 Y87.164 E5.42238
G1 X86.474 Y86.825 E5.4345
G1 X86.659 Y86.52 E5.4466
G1 X86.818 Y86.343 E5.45467
G1 X86.894 Y86.27 E5.45825
G1 X87.177 Y86.053 E5.47035
G1 X87.502 Y85.904 E5.48248
G1 X87.852 Y85.831 E5.4946
G1 X88.209 Y85.837 E5.50672
G1 X88.556 Y85.923 E5.51885
G1 X88.875 Y86.083 E5.53095
G1 X89.111 Y86.271 E5.54119
G1 X90.531 Y87.637 E5.60803
G1 X94.909 Y91.551 E5.80726
G1 X107.663 Y102.231 E6.37161
G1 X107.691 Y102.255 E6.37286
G1 X114.806 Y108.499 E6.69401
G1 X114.854 Y108.543 E6.69622
G1 X119.876 Y113.321 E6.93138
G1 X119.931 Y113.376 E6.93402
G1 X123.217 Y116.824 E7.09561
G1 X123.261 Y116.872 E7.09782
G1 X126.918 Y121.033 E7.28575
G1 X126.96 Y121.083 E7.28797
G1 X130.643 Y125.635 E7.48661
G1 X130.687 Y125.691 E7.48903
G1 X133.856 Y129.987 E7.67014
G1 X133.895 Y130.043 E7.67245
G1 X135.309 Y132.142 E7.75831
G1 X135.344 Y132.196 E7.76049
G1 X136.745 Y134.469 E7.85108
G1 X136.809 Y134.584 E7.85554
G1 X138.009 Y136.943 E7.94533
G1 X138.097 Y137.149 E7.95293
G1 X138.495 Y138.31 E7.99457
G1 X138.565 Y138.606 E8.00489
G1 X138.624 Y139.026 E8.01928
G1 X138.628 Y139.446 E8.03353
G1 X138.575 Y139.873 E8.04812
G1 X138.492 Y140.22 E8.06023
G1 X138.275 Y140.626 E8.07584
G1 X137.96 Y141.053 E8.09385
G1 X137.717 Y141.315 E8.10597
G1 X137.422 Y141.516 E8.11808
G1 X136.996 Y141.67 E8.13345
G1 X136.449 Y141.783 E8.1524
G1 X136.093 Y141.816 E8.16452
G1 X135.829 Y141.788 E8.17353
G1 X135.297 Y141.688 E8.1919
G1 X134.953 Y141.583 E8.2041
G1 X133.667 Y141.022 E8.2517
G1 X133.459 Y140.912 E8.25968
G1 X130.895 Y139.309 E8.36226
G1 X130.791 Y139.238 E8.36654
G1 X128.556 Y137.584 E8.46086
G1 X128.489 Y137.532 E8.46374
G1 X124.382 Y134.139 E8.64447
G1 X124.324 Y134.088 E8.64709
G1 X120.293 Y130.417 E8.83205
G1 X120.246 Y130.372 E8.83426
G1 X116.259 Y126.435 E9.02435
G1 X116.216 Y126.391 E9.02644
G1 X112.559 Y122.49 E9.20784
G1 X112.506 Y122.431 E9.21053
G1 X108.994 Y118.288 E9.39479
G1 X108.956 Y118.242 E9.39681
G1 X104.882 Y113.06 E9.62044
G1 X104.859 Y113.03 E9.62172
G1 X102.32 Y109.639 E9.76544
G1 X102.304 Y109.617 E9.76636
G1 X90.836 Y93.732 E10.43103
G1 X89.139 Y91.509 E10.52591
G1 X86.687 Y88.51 E10.65733
G1 X86.494 Y88.21 E10.66943
G1 X86.371 Y87.874 E10.68157
G1 X86.326 Y87.52 E10.69367
G0 F3600 X86.743 Y87.698
G1 F1800 X86.731 Y87.389 E10.70416
G1 X86.798 Y87.088 E10.71463
G1 X86.94 Y86.813 E10.72512
G1 X87.095 Y86.632 E10.73321
G1 X87.171 Y86.559 E10.73678
G1 X87.419 Y86.375 E10.74726
G1 X87.707 Y86.261 E10.75777
G1 X88.014 Y86.224 E10.76826
G1 X88.32 Y86.267 E10.77874
G1 X88.605 Y86.387 E10.78923
G1 X88.834 Y86.559 E10.79895
G1 X90.256 Y87.927 E10.86589
G1 X94.667 Y91.87 E11.06661
G1 X107.406 Y102.538 E11.63031
G1 X107.428 Y102.556 E11.63127
G1 X114.543 Y108.8 E11.95242
G1 X114.578 Y108.833 E11.95405
G1 X119.6 Y113.611 E12.18921
G1 X119.642 Y113.652 E12.19121
G1 X122.928 Y117.1 E12.35279
G1 X122.96 Y117.136 E12.35443
G1 X126.617 Y121.297 E12.54236
G1 X126.649 Y121.334 E12.54402
G1 X130.332 Y125.886 E12.74267
G1 X130.365 Y125.929 E12.74451
G1 X133.534 Y130.225 E12.92561
G1 X133.563 Y130.267 E12.92734
G1 X134.977 Y132.366 E13.0132
G1 X135.004 Y132.406 E13.01484
G1 X136.405 Y134.679 E13.10542
G1 X136.453 Y134.765 E13.10876
G1 X137.653 Y137.124 E13.19855
G1 X137.718 Y137.279 E13.20426
G1 X138.116 Y138.44 E13.24589
G1 X138.169 Y138.662 E13.25364
G1 X138.228 Y139.082 E13.26802
G1 X138.231 Y139.397 E13.27871
G1 X138.178 Y139.824 E13.29331
G1 X138.101 Y140.123 E13.30378
G1 X137.953 Y140.388 E13.31408
G1 X137.638 Y140.815 E13.33208
G1 X137.424 Y141.038 E13.34257
G1 X137.16 Y141.199 E13.35306
G1 X136.915 Y141.278 E13.36179
G1 X136.368 Y141.391 E13.38074
G1 X136.059 Y141.414 E13.39125
G1 X135.903 Y141.395 E13.39658
G1 X135.371 Y141.295 E13.41495
G1 X135.113 Y141.216 E13.4241
G1 X133.827 Y140.655 E13.4717
G1 X133.671 Y140.573 E13.47768
G1 X131.107 Y138.97 E13.58026
G1 X131.029 Y138.917 E13.58346
G1 X128.794 Y137.263 E13.67779
G1 X128.744 Y137.223 E13.67996
G1 X124.637 Y133.83 E13.86069
G1 X124.593 Y133.792 E13.86267
G1 X120.562 Y130.121 E14.04763
G1 X120.527 Y130.088 E14.04926
G1 X116.54 Y126.151 E14.23935
G1 X116.508 Y126.118 E14.24091
G1 X112.851 Y122.217 E14.42231
G1 X112.811 Y122.172 E14.42436
G1 X109.299 Y118.029 E14.60861
G1 X109.271 Y117.995 E14.61011
G1 X105.197 Y112.813 E14.83373
G1 X105.179 Y112.79 E14.83473
G1 X102.64 Y109.399 E14.97844
G1 X102.628 Y109.382 E14.97915
G1 X91.154 Y93.489 E15.64415
G1 X89.454 Y91.262 E15.7392
G1 X86.997 Y88.257 E15.87089
G1 X86.834 Y87.994 E15.88138
G1 X86.743 Y87.698 E15.89189
G1 F1500 E15.09189
G0 F3600 X89.766 Y89.391
;TYPE:WALL-OUTER
G1 F1500 E15.93346
G1 F1200 X90.841 Y90.378 E15.98297
G1 X91.663 Y91.114 E16.0204
G1 X92.506 Y91.854 E16.05846
G1 X94.139 Y93.264 E16.13165
G1 X96.793 Y95.503 E16.24945
G1 X103.289 Y100.906 E16.5361
G1 X104.936 Y102.284 E16.60895
G1 X106.506 Y103.61 E16.67867
G1 X108.173 Y105.035 E16.75307
G1 X109.905 Y106.536 E16.83082
G1 X111.654 Y108.079 E16.90995
G1 X113.451 Y109.698 E16.992
G1 X114.606 Y110.758 E17.04519
G1 X115.876 Y111.949 E17.10426
G1 X116.8 Y112.83 E17.14757
G1 X118.401 Y114.39 E17.2234
G1 X119.193 Y115.185 E17.26147
G1 X119.986 Y115.999 E17.30003
G1 X120.801 Y116.858 E17.3402
G1 X121.984 Y118.142 E17.39943
G1 X122.983 Y119.247 E17.44996
G1 X123.897 Y120.282 E17.49681
G1 X124.917 Y121.459 E17.54965
G1 X125.708 Y122.388 E17.59104
G1 X126.823 Y123.729 E17.6502
G1 X127.632 Y124.724 E17.69371
G1 X128.532 Y125.856 E17.74277
G1 X129.421 Y126.994 E17.79176
G1 X130.498 Y128.414 E17.85223
G1 X131.193 Y129.354 E17.89189
G1 X131.875 Y130.298 E17.93139
G1 X132.661 Y131.418 E17.97781
G1 X133.316 Y132.382 E18.01735
G1 X134.048 Y133.502 E18.06274
G1 X134.691 Y134.527 E18.10379
G1 X135.078 Y135.176 E18.12943
G1 X135.41 Y135.757 E18.15213
G1 X135.72 Y136.327 E18.17414
G1 X136.082 Y137.037 E18.20118
G1 X136.38 Y137.679 E18.22519
G1 X136.525 Y138.029 E18.23804
G1 X136.638 Y138.329 E18.24892
G1 X136.736 Y138.63 E18.25966
G1 X136.809 Y138.917 E18.26971
G1 X136.84 Y139.113 E18.27644
G1 X136.85 Y139.247 E18.281
G1 X136.833 Y139.509 E18.2899
G1 X136.793 Y139.667 E18.29543
G1 X136.768 Y139.726 E18.29761
G1 X136.695 Y139.845 E18.30234
G1 X136.603 Y139.924 E18.30646
G1 X136.518 Y139.965 E18.30966
G1 X136.402 Y140.001 E18.31378
G1 X136.295 Y140.019 E18.31746
G1 X136.129 Y140.025 E18.3231
G1 X135.999 Y140.016 E18.32752
G1 X135.807 Y139.982 E18.33413
G1 X135.689 Y139.952 E18.33826
G1 X135.39 Y139.848 E18.349
G1 X135.105 Y139.733 E18.35943
G1 X134.531 Y139.455 E18.38106
G1 X134.024 Y139.177 E18.40068
G1 X133.447 Y138.837 E18.4234
G1 X132.711 Y138.37 E18.45297
G1 X132.188 Y138.019 E18.47434
G1 X131.621 Y137.623 E18.4978
G1 X130.942 Y137.134 E18.52619
G1 X129.978 Y136.411 E18.56707
G1 X128.905 Y135.573 E18.61326
G1 X127.829 Y134.701 E18.66024
G1 X126.967 Y133.986 E18.69824
G1 X125.751 Y132.946 E18.75252
G1 X124.806 Y132.115 E18.79521
G1 X123.826 Y131.239 E18.83981
G1 X122.743 Y130.246 E18.88965
G1 X121.745 Y129.314 E18.93598
G1 X120.532 Y128.156 E18.99287
G1 X119.702 Y127.347 E19.03219
G1 X118.502 Y126.152 E19.08965
G1 X117.692 Y125.329 E19.12882
G1 X116.563 Y124.16 E19.18396
G1 X115.642 Y123.19 E19.22934
G1 X114.776 Y122.258 E19.2725
G1 X113.987 Y121.389 E19.31232
G1 X113.315 Y120.628 E19.34676
G1 X112.554 Y119.749 E19.3862
G1 X111.811 Y118.872 E19.4252
G1 X110.517 Y117.309 E19.49404
G1 X109.612 Y116.195 E19.54273
G1 X108.77 Y115.14 E19.58852
G1 X107.632 Y113.685 E19.65119
G1 X106.409 Y112.094 E19.71927
G1 X105.187 Y110.478 E19.788
G1 X103.961 Y108.833 E19.8576
G1 X102.6 Y106.978 E19.93565
G1 X100.792 Y104.477 E20.04035
G1 X94.993 Y96.361 E20.37875
G1 X93.361 Y94.115 E20.47294
G1 X91.994 Y92.27 E20.55084
G1 X90.646 Y90.504 E20.62621
G1 X89.766 Y89.391 E20.67435
G0 F3600 X89.913 Y89.526
G1 F1500 E19.87435
G0 F3600 X95.62 Y96.87
G1 F1500 E20.71592
G1 F1200 X103.107 Y104.929 E21.0891
G1 X104.279 Y103.839 E21.1434
G1 X96.792 Y95.78 E21.51658
G1 X95.62 Y96.87 E21.57088
G0 F3600 X95.756 Y97.016
G0 X95.553 Y96.684
;TYPE:SKIN
G1 F1200 X95.177 Y96.309 E21.5889
G0 F3600 X95.846 Y96.411
G1 F1200 X93.675 Y94.241 E21.69303
G1 X93.605 Y94.171
G1 F1500 E20.89303
G0 F3600 X93.618 Y93.053
G1 F1500 E21.73461
G1 F1200 X96.432 Y95.866 E21.86959
G1 X96.502 Y95.936
G0 F3600 X96.139 Y96.139
G1 F1200 X92.064 Y92.064 E22.0651
G1 X91.994 Y91.994
G1 F1500 E21.2651
G0 F3600 X111.86 Y118.648
G1 F1500 E22.10668
G1 F1200 X126.924 Y133.713 E22.82944
G1 X126.994 Y133.783
G1 F1500 E22.02944
G0 F3600 X129.892 Y136.115
G1 F1500 E22.87101
G1 F1200 X109.331 Y115.553 E23.85751
G1 X109.261 Y115.483
G1 F1500 E23.05751
G0 F3600 X107.298 Y112.955
G1 F1500 E23.89908
G1 F1200 X132.033 Y137.69 E25.08581
G1 X132.103 Y137.76
G1 F1500 E24.28581
G0 F3600 X133.662 Y138.754
G1 F1500 E25.12738
G1 F1200 X105.496 Y110.587 E26.47875
G1 X105.426 Y110.517
G1 F1500 E25.67875
G0 F3600 X103.847 Y108.372
G1 F1500 E26.52032
G1 F1200 X134.915 Y139.44 E28.01089
G1 X134.985 Y139.51
G1 F1500 E27.21089
G0 F3600 X135.845 Y139.804
G1 F1500 E28.05247
G1 F1200 X102.309 Y106.268 E29.66145
G1 X102.239 Y106.198
G1 F1500 E28.86145
G0 F3600 X103.298 Y104.995
G1 F1500 E29.70302
G1 F1200 X136.328 Y138.025 E31.28773
G1 X136.398 Y138.095
G1 F1500 E30.48773
G0 F3600 X136.613 Y138.875
G1 F1500 E31.3293
G1 F1200 X98.006 Y100.269 E33.18155
G1 X97.936 Y100.199
G0 F3600 X98.029 Y99.726
G1 F1200 X96.59 Y98.287 E33.25059
G1 X96.52 Y98.217
G1 F1500 E32.45059
G0 F3600 X98.685 Y97.554
G1 F1500 E33.29217
G1 F1200 X132.181 Y131.05 E34.89923
G1 X132.251 Y131.12
G1 F1500 E34.09923
G0 F3600 X133.392 Y132.827
G1 F1500 E34.9408
G1 F1200 X104.47 Y103.905 E36.32841
G1 X104.4 Y103.835
G0 F3600 X104.178 Y104.178
G1 F1200 X134.4 Y134.4 E37.77839
G1 X134.47 Y134.47
G1 F1500 E36.97839
G0 F3600 X135.217 Y135.782
G1 F1500 E37.81997
G1 F1200 X103.884 Y104.45 E39.32323
G1 X103.814 Y104.38
G0 F3600 X103.591 Y104.723
G1 F1200 X135.855 Y136.986 E40.87116
G1 X135.925 Y137.056
G1 F1500 E40.07116
G0 F3600 X136.654 Y139.482
G1 F1500 E40.91273
G1 F1200 X99.422 Y102.25 E42.69904
G1 X99.352 Y102.18
G1 F1500 E41.89904
G0 F3600 X100.838 Y104.232
G1 F1500 E42.74061
G1 F1200 X136.414 Y139.808 E44.44746
G1 X136.484 Y139.878
G1 F1500 E43.64746
G0 F3600 X130.733 Y129.036
G1 F1500 E44.48904
G1 F1200 X100.608 Y98.911 E45.93437
G1 X100.538 Y98.841
G1 F1500 E45.13437
G0 F3600 X103.996 Y101.733
G1 F1500 E45.97594
G1 F1200 X128.96 Y126.697 E47.17366
G1 X129.03 Y126.767
G1 F1500 E46.37366
G0 F3600 X126.733 Y123.904
G1 F1500 E47.21523
G1 F1200 X107.674 Y104.846 E48.12961
G1 X107.604 Y104.776
G1 F1500 E47.32961
G0 F3600 X112.288 Y108.894
G1 F1500 E48.17119
G1 F1200 X123.513 Y120.119 E48.70974
G1 X123.583 Y120.189
G1 F1500 E47.90974
G0 F3600 X117.055 Y124.409
G1 F1500 E48.75131
G1 F1200 X120.997 Y128.351 E48.94044
G1 X121.067 Y128.421
G1 F1500 E48.14044
G0 F3600 X89.692 Y89.312
;TIME_ELAPSED:75.974762
;LAYER:1
M140 S60
M106 S255
G0 F5400 X89.692 Y89.312 Z0.4
;TYPE:WALL-OUTER
G1 F1500 E48.98202
G1 F1800 X90.86 Y90.383 E49.03578
G1 X92.607 Y91.926 E49.11485
G1 X94.259 Y93.349 E49.18882
G1 X95.924 Y94.758 E49.26282
G1 X104.557 Y101.949 E49.64399
G1 X106.301 Y103.421 E49.72142
G1 X107.995 Y104.869 E49.79702
G1 X109.564 Y106.226 E49.86739
G1 X111.482 Y107.918 E49.95416
G1 X113.193 Y109.454 E50.03217
G1 X114.334 Y110.504 E50.08477
G1 X115.431 Y111.526 E50.13564
G1 X116.546 Y112.587 E50.18785
G1 X117.377 Y113.39 E50.22706
G1 X118.197 Y114.196 E50.26606
G1 X119.01 Y115.011 E50.30512
G1 X119.812 Y115.833 E50.34408
G1 X120.602 Y116.667 E50.38305
G1 X121.391 Y117.517 E50.4224
G1 X122.175 Y118.377 E50.46188
G1 X123.712 Y120.103 E50.54028
G1 X124.472 Y120.976 E50.57955
G1 X125.466 Y122.143 E50.63156
G1 X126.626 Y123.536 E50.69305
G1 X127.402 Y124.49 E50.73477
G1 X128.163 Y125.443 E50.77615
G1 X129.367 Y126.988 E50.8426
G1 X130.092 Y127.941 E50.88322
G1 X130.965 Y129.115 E50.93285
G1 X131.626 Y130.029 E50.97112
G1 X132.341 Y131.044 E51.01324
G1 X132.999 Y132.006 E51.05278
G1 X133.501 Y132.764 E51.08363
G1 X134.2 Y133.857 E51.12764
G1 X134.569 Y134.459 E51.15159
G1 X135 Y135.189 E51.18035
G1 X135.338 Y135.789 E51.20372
G1 X135.684 Y136.445 E51.22888
G1 X135.969 Y137.023 E51.25074
G1 X136.204 Y137.544 E51.27013
G1 X136.354 Y137.916 E51.28374
G1 X136.471 Y138.24 E51.29542
G1 X136.566 Y138.565 E51.30691
G1 X136.606 Y138.751 E51.31337
G1 X136.63 Y138.929 E51.31946
G1 X136.635 Y139.119 E51.32591
G1 X136.621 Y139.268 E51.33099
G1 X136.588 Y139.412 E51.336
G1 X136.559 Y139.485 E51.33866
G1 X136.489 Y139.603 E51.34332
G1 X136.446 Y139.653 E51.34555
G1 X136.403 Y139.686 E51.34739
G1 X136.341 Y139.719 E51.34978
G1 X136.233 Y139.757 E51.35366
G1 X136.111 Y139.784 E51.3579
G1 X135.974 Y139.796 E51.36256
G1 X135.792 Y139.787 E51.36875
G1 X135.667 Y139.767 E51.37304
G1 X135.5 Y139.728 E51.37886
G1 X135.324 Y139.671 E51.38513
G1 X135 Y139.545 E51.39693
G1 X134.656 Y139.392 E51.4097
G1 X134.367 Y139.247 E51.42067
G1 X133.858 Y138.969 E51.44035
G1 X133.356 Y138.676 E51.46007
G1 X132.679 Y138.252 E51.48717
G1 X132.169 Y137.915 E51.5079
G1 X131.504 Y137.457 E51.5353
G1 X130.949 Y137.058 E51.55849
G1 X130.007 Y136.358 E51.5983
G1 X129.087 Y135.648 E51.63773
G1 X128.133 Y134.887 E51.67913
G1 X127.102 Y134.038 E51.72444
G1 X126.061 Y133.156 E51.77072
G1 X124.727 Y131.995 E51.83072
G1 X123.755 Y131.124 E51.875
G1 X122.902 Y130.347 E51.91414
G1 X121.199 Y128.756 E51.99321
G1 X119.536 Y127.15 E52.07164
G1 X117.89 Y125.503 E52.15063
G1 X117.087 Y124.679 E52.18967
