;FLAVOR:Marlin
;TIME:1611
;Filament used: 1.53884m
;Layer height: 0.2
;Generated with Cura_SteamEngine 3.1.0
M190 S60
M104 S215
M109 S215
M82 ; absolute extrusion mode
G28 ;Home
G1 Z15.0 F6000 ;Move the platform down 15mm
;Prime the extruder
G92 E0
G1 F200 E3
G92 E0
;LAYER_COUNT:61
;LAYER:0
M107
G0 F5400 X84.708 Y84.187 Z0.2
;TYPE:SKIRT
G1 F1800 X84.875 Y84.045 E0.00729
G1 X85.382 Y83.657 E0.02853
G1 X85.875 Y83.38 E0.04733
G1 X86.33 Y83.204 E0.06356
G1 X86.723 Y83.096 E0.07712
G1 X102.411 Y80.476 E0.60613
G1 X102.809 Y80.45 E0.61939
G1 X103.205 Y80.504 E0.63269
G1 X103.542 Y80.617 E0.64451
G1 X106.117 Y81.744 E0.738
G1 X106.311 Y81.842 E0.74523
G1 X110.306 Y84.136 E0.89845
G1 X115.237 Y86.765 E1.08431
G1 X120.271 Y89.093 E1.26878
G1 X122.798 Y90.137 E1.35971
G1 X122.801 Y90.138 E1.35982
G1 X128.637 Y92.262 E1.56638
G1 X128.997 Y92.435 E1.57967
G1 X129.279 Y92.644 E1.59134
G1 X129.593 Y92.922 E1.60529
G1 X129.864 Y93.215 E1.61856
G1 X130.046 Y93.506 E1.62998
G1 X130.182 Y93.771 E1.63989
G1 X130.328 Y94.143 E1.65318
G1 X130.387 Y94.429 E1.66289
G1 X130.436 Y94.81 E1.67567
G1 X130.442 Y95.269 E1.69093
G1 X130.102 Y98.582 E1.8017
G1 X129.783 Y104.131 E1.98657
G1 X129.779 Y109.667 E2.1707
G1 X130.089 Y115.219 E2.35565
G1 X130.442 Y118.744 E2.47347
G1 X130.442 Y119.143 E2.48674
G1 X130.399 Y119.4 E2.49541
G1 X130.271 Y119.945 E2.51403
G1 X130.141 Y120.323 E2.52733
G1 X129.886 Y120.737 E2.5435
G1 X129.69 Y120.982 E2.55393
G1 X129.41 Y121.268 E2.56725
G1 X129.136 Y121.46 E2.57837
G1 X128.778 Y121.669 E2.59216
G1 X128.442 Y121.826 E2.6045
G1 X123.525 Y123.581 E2.77814
G1 X118.414 Y125.725 E2.96249
G1 X113.435 Y128.154 E3.14674
G1 X110.973 Y129.487 E3.23986
G1 X106.309 Y132.159 E3.41864
G1 X106.121 Y132.254 E3.42565
G1 X103.564 Y133.38 E3.51857
G1 X103.184 Y133.504 E3.53187
G1 X102.787 Y133.55 E3.54516
G1 X102.428 Y133.523 E3.55714
G1 X86.621 Y130.876 E4.0902
G1 X86.235 Y130.771 E4.1035
G1 X85.991 Y130.657 E4.11246
G1 X85.295 Y130.276 E4.13885
G1 X84.965 Y130.05 E4.15215
G1 X84.717 Y129.801 E4.16384
G1 X84.262 Y129.254 E4.18751
G1 X84.039 Y128.923 E4.20078
G1 X83.918 Y128.652 E4.21065
G1 X83.696 Y128.035 E4.23246
G1 X83.599 Y127.648 E4.24573
G1 X83.578 Y127.381 E4.25464
G1 X83.56 Y125.785 E4.30773
G1 X83.589 Y125.421 E4.31987
G1 X84.132 Y122.284 E4.42576
G1 X84.843 Y116.764 E4.61087
G1 X85.239 Y111.244 E4.79494
G1 X85.321 Y105.69 E4.97969
G1 X85.091 Y100.159 E5.16381
G1 X84.549 Y94.661 E5.34756
G1 X83.581 Y88.531 E5.55397
G1 X83.557 Y88.21 E5.56468
G1 X83.564 Y86.72 E5.61424
G1 X83.652 Y86.142 E5.63368
G1 X83.839 Y85.533 E5.65487
G1 X83.994 Y85.165 E5.66815
G1 X84.11 Y84.977 E5.6755
G1 X84.449 Y84.49 E5.69523
G1 X84.708 Y84.187 E5.70849
G0 F5400 X85.118 Y84.362
G1 F1800 X85.625 Y83.974 E5.72973
G1 X86.02 Y83.753 E5.74478
G1 X86.475 Y83.577 E5.76101
G1 X86.788 Y83.491 E5.7718
G1 X102.476 Y80.871 E6.30081
G1 X102.833 Y80.852 E6.31271
G1 X103.185 Y80.912 E6.32458
G1 X103.382 Y80.983 E6.33155
G1 X105.957 Y82.11 E6.42503
G1 X106.112 Y82.188 E6.43081
G1 X110.135 Y84.497 E6.58508
G1 X115.059 Y87.124 E6.77071
G1 X120.11 Y89.46 E6.9558
G1 X122.651 Y90.509 E7.04723
G1 X122.664 Y90.513 E7.04769
G1 X128.5 Y92.637 E7.25425
G1 X128.82 Y92.796 E7.26613
G1 X129.014 Y92.943 E7.27423
G1 X129.328 Y93.221 E7.28818
G1 X129.567 Y93.486 E7.30005
G1 X129.69 Y93.688 E7.30791
G1 X129.826 Y93.953 E7.31782
G1 X129.953 Y94.287 E7.3297
G1 X129.99 Y94.48 E7.33624
G1 X130.039 Y94.861 E7.34902
G1 X130.044 Y95.228 E7.36122
G1 X129.702 Y98.563 E7.47273
G1 X129.383 Y104.107 E7.65743
G1 X129.379 Y109.671 E7.84249
G1 X129.691 Y115.257 E8.02857
G1 X130.044 Y118.783 E8.14643
G1 X130.01 Y119.309 E8.16396
G1 X129.882 Y119.854 E8.18258
G1 X129.762 Y120.19 E8.19445
G1 X129.573 Y120.488 E8.20618
G1 X129.377 Y120.733 E8.21662
G1 X129.124 Y120.985 E8.2285
G1 X128.935 Y121.115 E8.23613
G1 X128.577 Y121.324 E8.24991
G1 X128.308 Y121.449 E8.25978
G1 X123.378 Y123.209 E8.43389
G1 X118.262 Y125.355 E8.61841
G1 X113.239 Y127.805 E8.80429
G1 X110.783 Y129.135 E8.89718
G1 X106.11 Y131.812 E9.07631
G1 X105.96 Y131.888 E9.0819
G1 X103.403 Y133.014 E9.17483
G1 X103.062 Y133.121 E9.18671
G1 X102.706 Y133.149 E9.19859
G1 X102.494 Y133.128 E9.20568
G1 X86.687 Y130.481 E9.73874
G1 X86.183 Y130.306 E9.75648
G1 X85.487 Y129.925 E9.78287
G1 X85.194 Y129.72 E9.79477
G1 X85.025 Y129.545 E9.80286
G1 X84.57 Y128.998 E9.82652
G1 X84.374 Y128.7 E9.83839
G1 X84.294 Y128.517 E9.84503
G1 X84.072 Y127.9 E9.86684
G1 X83.978 Y127.376 E9.88455
G1 X83.96 Y125.78 E9.93763
G1 X83.983 Y125.489 E9.94734
G1 X84.529 Y122.334 E10.05384
G1 X85.241 Y116.807 E10.23919
G1 X85.639 Y111.261 E10.42412
G1 X85.721 Y105.697 E10.6092
G1 X85.489 Y100.122 E10.79479
G1 X84.944 Y94.594 E10.97954
G1 X83.977 Y88.469 E11.18578
G1 X83.957 Y88.211 E11.19439
G1 X83.964 Y86.721 E11.24395
G1 X84.034 Y86.259 E11.25949
G1 X84.221 Y85.65 E11.28068
G1 X84.438 Y85.206 E11.29711
G1 X84.777 Y84.719 E11.31685
G1 X85.118 Y84.362 E11.33327
G0 F5400 X85.361 Y84.68
G1 F1800 X85.868 Y84.292 E11.3545
G1 X86.164 Y84.126 E11.36579
G1 X86.619 Y83.95 E11.38202
G1 X86.854 Y83.885 E11.39013
G1 X102.542 Y81.265 E11.91914
G1 X102.851 Y81.254 E11.92942
G1 X103.221 Y81.35 E11.94214
G1 X105.796 Y82.477 E12.03562
G1 X105.912 Y82.535 E12.03994
G1 X109.925 Y84.839 E12.19384
G1 X114.882 Y87.483 E12.3807
G1 X119.959 Y89.831 E12.56675
G1 X122.518 Y90.888 E12.65884
G1 X122.527 Y90.889 E12.65914
G1 X128.363 Y93.013 E12.8657
G1 X128.748 Y93.243 E12.88061
G1 X129.062 Y93.521 E12.89456
G1 X129.335 Y93.871 E12.90933
G1 X129.471 Y94.136 E12.91923
G1 X129.593 Y94.531 E12.93298
G1 X129.642 Y94.912 E12.94576
G1 X129.646 Y95.187 E12.95491
G1 X129.304 Y98.521 E13.06638
G1 X128.983 Y104.102 E13.25231
G1 X128.979 Y109.692 E13.43823
G1 X129.29 Y115.274 E13.62418
G1 X129.646 Y118.823 E13.74281
G1 X129.62 Y119.217 E13.75595
G1 X129.492 Y119.762 E13.77457
G1 X129.383 Y120.052 E13.78487
G1 X129.261 Y120.238 E13.79227
G1 X129.065 Y120.483 E13.8027
G1 X128.733 Y120.769 E13.81728
G1 X128.375 Y120.978 E13.83107
G1 X128.173 Y121.072 E13.83848
G1 X123.252 Y122.828 E14.01226
G1 X118.074 Y125 E14.19902
G1 X113.06 Y127.447 E14.38458
G1 X110.618 Y128.769 E14.47694
G1 X105.912 Y131.465 E14.65733
G1 X105.799 Y131.522 E14.66154
G1 X103.242 Y132.648 E14.75447
G1 X102.945 Y132.735 E14.76476
G1 X102.56 Y132.734 E14.77757
G1 X86.753 Y130.087 E15.31063
G1 X86.375 Y129.956 E15.32394
G1 X85.679 Y129.575 E15.35033
G1 X85.332 Y129.289 E15.36528
G1 X84.877 Y128.742 E15.38895
G1 X84.671 Y128.381 E15.40277
G1 X84.449 Y127.764 E15.42458
G1 X84.378 Y127.372 E15.43783
G1 X84.36 Y125.776 E15.49092
G1 X84.378 Y125.557 E15.49823
G1 X84.924 Y122.403 E15.60469
G1 X85.639 Y116.854 E15.79077
G1 X86.038 Y111.277 E15.97674
G1 X86.122 Y105.686 E16.16272
G1 X85.889 Y100.101 E16.34864
G1 X85.341 Y94.542 E16.53443
G1 X84.372 Y88.406 E16.74104
G1 X84.357 Y88.213 E16.74748
G1 X84.364 Y86.723 E16.79704
G1 X84.417 Y86.377 E16.80868
G1 X84.604 Y85.768 E16.82987
G1 X84.766 Y85.434 E16.84222
G1 X85.105 Y84.947 E16.86195
G1 X85.361 Y84.68 E16.87425
G1 F1500 E16.17425
G0 F5400 X117.48 Y96.654
;TYPE:WALL-INNER
G1 F1500 E16.87425
G1 F1800 X117.981 Y96.889 E16.89266
G1 X118.496 Y97.1 E16.91117
G1 X119.027 Y97.28 E16.92982
G1 X119.56 Y97.425 E16.94819
G1 X120.1 Y97.545 E16.96659
G1 X120.667 Y97.635 E16.98568
G1 X120.392 Y97.782 E16.99605
G1 X119.926 Y98.064 E17.01417
G1 X119.489 Y98.355 E17.03163
G1 X118.299 Y99.188 E17.07995
G1 X118.212 Y98.828 E17.09226
G1 X117.915 Y97.987 E17.12193
G1 X117.615 Y97.207 E17.14973
G1 X117.351 Y96.584 E17.17223
G1 X117.48 Y96.654 E17.17711
G1 F1500 E16.47711
G0 F5400 X119.489 Y115.645
G1 F1500 E17.17711
G1 F1800 X119.926 Y115.936 E17.19457
G1 X120.392 Y116.218 E17.21269
G1 X120.667 Y116.365 E17.22306
G1 X120.1 Y116.455 E17.24216
G1 X119.56 Y116.575 E17.26055
G1 X119.027 Y116.72 E17.27893
G1 X118.496 Y116.9 E17.29757
G1 X117.981 Y117.111 E17.31609
G1 X117.48 Y117.346 E17.33449
G1 X117.352 Y117.416 E17.33934
G1 X117.617 Y116.787 E17.36204
G1 X117.917 Y116.007 E17.38984
G1 X118.212 Y115.17 E17.41936
G1 X118.299 Y114.812 E17.43161
G1 X119.489 Y115.645 E17.47992
G0 F5400 X119.715 Y115.315
G1 F1800 X120.14 Y115.598 E17.49691
G1 X120.59 Y115.87 E17.5144
G1 X121.051 Y116.117 E17.53179
G1 X121.521 Y116.345 E17.54917
G1 X122.004 Y116.551 E17.56663
G1 X122.4 Y116.7 E17.5807
G1 X122.297 Y116.693 E17.58414
G1 X121.767 Y116.687 E17.60177
G1 X121.232 Y116.71 E17.61958
G1 X120.701 Y116.764 E17.63733
G1 X120.175 Y116.848 E17.65504
G1 X119.656 Y116.963 E17.67273
G1 X119.144 Y117.103 E17.69038
G1 X118.636 Y117.275 E17.70822
G1 X118.142 Y117.477 E17.72597
G1 X117.661 Y117.703 E17.74365
G1 X117.194 Y117.958 E17.76134
G1 X116.741 Y118.238 E17.77906
G1 X116.417 Y118.465 E17.79221
G1 X116.578 Y118.144 E17.80416
G1 X116.926 Y117.396 E17.8316
G1 X117.246 Y116.637 E17.85899
G1 X117.542 Y115.869 E17.88637
G1 X117.828 Y115.056 E17.91503
G1 X117.909 Y114.725 E17.92637
G1 X117.939 Y114.342 E17.93914
G1 X117.917 Y114.056 E17.94869
G1 X119.715 Y115.315 E18.02169
G1 F1500 E17.32169
G0 F5400 X122.32 Y107
G1 F1500 E18.02169
G1 F1800 X121.908 Y107.145 E18.03622
G1 X121.908 Y106.855 E18.04586
G1 X122.32 Y107 E18.06039
G1 F1500 E17.36039
G0 F5400 X116.741 Y95.762
G1 F1500 E18.06039
G1 F1800 X117.194 Y96.042 E18.0781
G1 X117.661 Y96.297 E18.0958
G1 X118.142 Y96.523 E18.11348
G1 X118.636 Y96.725 E18.13123
G1 X119.144 Y96.897 E18.14906
G1 X119.656 Y97.037 E18.16672
G1 X120.175 Y97.152 E18.1844
G1 X120.701 Y97.236 E18.20212
G1 X121.232 Y97.29 E18.21987
G1 X121.767 Y97.313 E18.23768
G1 X122.4 Y97.3 E18.25874
G1 X122.004 Y97.449 E18.27281
G1 X121.521 Y97.655 E18.29027
G1 X121.051 Y97.883 E18.30765
G1 X120.59 Y98.13 E18.32504
G1 X120.14 Y98.402 E18.34253
G1 X119.715 Y98.685 E18.35952
G1 X117.917 Y99.944 E18.43252
G1 X117.939 Y99.657 E18.44209
G1 X117.909 Y99.274 E18.45487
G1 X117.828 Y98.942 E18.46624
G1 X117.54 Y98.125 E18.49505
G1 X117.244 Y97.357 E18.52243
G1 X116.923 Y96.598 E18.54984
G1 X116.575 Y95.85 E18.57727
G1 X116.417 Y95.535 E18.589
G1 X116.741 Y95.762 E18.60215
G1 F1500 E17.90215
G0 F5400 X114.735 Y93.34
G1 F1500 E18.60215
G1 F1800 X115.057 Y93.742 E18.61928
G1 X115.398 Y94.121 E18.63624
G1 X115.76 Y94.481 E18.65322
G1 X116.142 Y94.819 E18.67019
G1 X116.542 Y95.134 E18.68712
G1 X116.961 Y95.428 E18.70415
G1 X117.395 Y95.696 E18.72111
G1 X117.842 Y95.94 E18.73805
G1 X118.303 Y96.157 E18.755
G1 X118.776 Y96.35 E18.77199
G1 X119.261 Y96.514 E18.78901
G1 X119.752 Y96.649 E18.80595
G1 X120.25 Y96.759 E18.82291
G1 X120.753 Y96.839 E18.83985
G1 X121.261 Y96.891 E18.85684
G1 X121.773 Y96.913 E18.87388
G1 X122.281 Y96.907 E18.89078
G1 X122.79 Y96.871 E18.90775
G1 X123.296 Y96.807 E18.92472
G1 X123.798 Y96.715 E18.94169
G1 X124.295 Y96.595 E18.9587
G1 X124.784 Y96.445 E18.97571
G1 X125.261 Y96.269 E18.99262
G1 X125.729 Y96.066 E19.00959
G1 X126.186 Y95.837 E19.02659
G1 X126.629 Y95.582 E19.04359
G1 X127.052 Y95.305 E19.06041
G1 X127.422 Y95.037 E19.0756
G1 X127.075 Y95.345 E19.09103
G1 X126.703 Y95.646 E19.10695
G1 X126.304 Y95.94 E19.12343
G1 X125.865 Y96.233 E19.14099
G1 X125.424 Y96.499 E19.15812
G1 X124.978 Y96.739 E19.17496
G1 X124.551 Y96.946 E19.19075
G1 X124.067 Y97.153 E19.20825
G1 X123.591 Y97.33 E19.22514
G1 X122.627 Y97.642 E19.25884
G1 X122.153 Y97.82 E19.27569
G1 X121.687 Y98.019 E19.29254
G1 X121.233 Y98.239 E19.30932
G1 X120.788 Y98.478 E19.32612
G1 X120.354 Y98.74 E19.34298
G1 X119.941 Y99.015 E19.35948
G1 X116.073 Y101.723 E19.51653
G1 X116.715 Y101.273 E19.5426
G1 X116.93 Y101.095 E19.55189
G1 X117.143 Y100.854 E19.56259
G1 X117.313 Y100.579 E19.57334
G1 X117.437 Y100.287 E19.58389
G1 X117.513 Y99.977 E19.59451
G1 X117.538 Y99.657 E19.60518
G1 X117.513 Y99.338 E19.61582
G1 X117.444 Y99.056 E19.62548
G1 X117.165 Y98.263 E19.65344
G1 X116.873 Y97.507 E19.6804
G1 X116.557 Y96.76 E19.70737
G1 X116.215 Y96.024 E19.73437
G1 X115.852 Y95.3 E19.7613
G1 X115.464 Y94.587 E19.7883
G1 X115.055 Y93.888 E19.81524
G1 X114.624 Y93.203 E19.84216
G1 X114.262 Y92.666 E19.8637
G1 X114.735 Y93.34 E19.89108
G1 F1500 E19.19108
G0 F5400 X116.407 Y104.504
G1 F1500 E19.89108
G1 F1800 X113.544 Y103.498 E19.99201
G1 X114.632 Y102.733 E20.03625
G1 X114.802 Y103.942 E20.07686
G1 X116.407 Y104.504 E20.13342
G1 F1500 E19.43342
G0 F5400 X116.407 Y109.496
G1 F1500 E20.13342
G1 F1800 X114.802 Y110.058 E20.18998
G1 X114.632 Y111.267 E20.23059
G1 X113.544 Y110.502 E20.27482
G1 X116.407 Y109.496 E20.37575
G1 F1500 E19.67575
G0 F5400 X116.344 Y112.467
G1 F1500 E20.37575
G1 F1800 X119.941 Y114.985 E20.52179
G1 X120.354 Y115.26 E20.53829
G1 X120.788 Y115.522 E20.55515
G1 X121.233 Y115.761 E20.57196
G1 X121.687 Y115.981 E20.58873
G1 X122.153 Y116.18 E20.60559
G1 X122.627 Y116.358 E20.62243
G1 X123.589 Y116.669 E20.65606
G1 X124.067 Y116.847 E20.67302
G1 X124.551 Y117.054 E20.69053
G1 X124.976 Y117.26 E20.70624
G1 X125.424 Y117.501 E20.72316
G1 X125.865 Y117.767 E20.74029
G1 X126.304 Y118.06 E20.75784
G1 X126.703 Y118.354 E20.77432
G1 X127.075 Y118.655 E20.79024
G1 X127.422 Y118.963 E20.80567
G1 X127.052 Y118.695 E20.82087
G1 X126.629 Y118.418 E20.83769
G1 X126.186 Y118.163 E20.85469
G1 X125.729 Y117.934 E20.87169
G1 X125.261 Y117.731 E20.88865
G1 X124.784 Y117.555 E20.90557
G1 X124.295 Y117.405 E20.92258
G1 X123.798 Y117.285 E20.93958
G1 X123.296 Y117.193 E20.95656
G1 X122.79 Y117.129 E20.97352
G1 X122.281 Y117.093 E20.99049
G1 X121.773 Y117.087 E21.00739
G1 X121.261 Y117.109 E21.02443
G1 X120.753 Y117.161 E21.04142
G1 X120.25 Y117.241 E21.05836
G1 X119.752 Y117.351 E21.07532
G1 X119.261 Y117.486 E21.09226
G1 X118.776 Y117.65 E21.10929
G1 X118.303 Y117.843 E21.12628
G1 X117.842 Y118.06 E21.14323
G1 X117.395 Y118.304 E21.16016
G1 X116.961 Y118.572 E21.17713
G1 X116.542 Y118.866 E21.19415
G1 X116.142 Y119.181 E21.21109
G1 X115.76 Y119.519 E21.22805
G1 X115.398 Y119.879 E21.24503
G1 X115.057 Y120.258 E21.26199
G1 X114.735 Y120.66 E21.27912
G1 X114.264 Y121.332 E21.30641
G1 X114.627 Y120.792 E21.32806
G1 X115.058 Y120.105 E21.35503
G1 X115.467 Y119.407 E21.38194
G1 X115.855 Y118.694 E21.40894
G1 X116.218 Y117.97 E21.43587
G1 X116.56 Y117.234 E21.46287
G1 X116.875 Y116.487 E21.48983
G1 X117.167 Y115.731 E21.51679
G1 X117.444 Y114.942 E21.5446
G1 X117.513 Y114.661 E21.55422
G1 X117.538 Y114.342 E21.56486
G1 X117.513 Y114.02 E21.57561
G1 X117.434 Y113.709 E21.58628
G1 X117.312 Y113.419 E21.59674
G1 X117.142 Y113.145 E21.60747
G1 X116.929 Y112.902 E21.61822
G1 X116.714 Y112.726 E21.62746
G1 X116.344 Y112.467 E21.64248
G1 F1500 E20.94248
G0 F5400 X123.527 Y107
G1 F1500 E21.64248
G1 F1800 X121.508 Y107.709 E21.71365
G1 X121.508 Y106.291 E21.76081
G1 X123.527 Y107 E21.83199
G1 F1500 E21.13199
G0 F5400 X107.223 Y128.183
G1 F1500 E21.83199
G1 F1800 X107.915 Y127.717 E21.85973
G1 X107.26 Y128.16 E21.88603
G1 X106.578 Y128.588 E21.91281
G1 X107.223 Y128.183 E21.93815
G1 F1500 E21.23815
G0 F5400 X86.935 Y127.508
G1 F1500 E21.93815
G1 F1800 X102.614 Y130.118 E22.46681
G1 X103.501 Y129.743 E22.49884
G1 X104.226 Y129.41 E22.52537
G1 X104.939 Y129.053 E22.55189
G1 X105.641 Y128.674 E22.57843
G1 X106.33 Y128.272 E22.60496
G1 X107.005 Y127.848 E22.63147
G1 X107.668 Y127.402 E22.65805
G1 X108.314 Y126.937 E22.68452
G1 X108.947 Y126.451 E22.71107
G1 X109.563 Y125.943 E22.73762
G1 X110.163 Y125.417 E22.76416
G1 X110.745 Y124.871 E22.7907
G1 X111.309 Y124.308 E22.81721
G1 X111.855 Y123.727 E22.84373
G1 X112.382 Y123.129 E22.87024
G1 X112.89 Y122.513 E22.89679
G1 X113.378 Y121.883 E22.9233
G1 X113.846 Y121.236 E22.94986
G1 X114.292 Y120.574 E22.97641
G1 X114.716 Y119.898 E23.00295
G1 X115.119 Y119.21 E23.02947
G1 X115.5 Y118.509 E23.056
G1 X115.858 Y117.796 E23.08254
G1 X116.194 Y117.072 E23.10909
G1 X116.504 Y116.337 E23.13562
G1 X116.792 Y115.593 E23.16215
G1 X117.06 Y114.828 E23.18911
G1 X117.117 Y114.597 E23.19703
G1 X117.137 Y114.342 E23.20553
G1 X117.117 Y114.085 E23.21411
G1 X117.054 Y113.836 E23.22265
G1 X116.956 Y113.603 E23.23106
G1 X116.82 Y113.384 E23.23963
G1 X116.65 Y113.191 E23.24819
G1 X116.472 Y113.045 E23.25584
G1 X113.32 Y110.836 E23.38386
G1 X113.257 Y110.785 E23.38656
G1 X113.22 Y110.743 E23.38842
G1 X113.183 Y110.685 E23.39071
