;FLAVOR:Marlin
;TIME:1641
;Filament used: 1.52397m
;Layer height: 0.2
;Generated with Cura_SteamEngine 3.1.0
M190 S60
M104 S215
M109 S215
M82 ; absolute extrusion mode
G28 ;Home
G1 Z15.0 F6000 ;Move the platform down 15mm
;Prime the extruder
G92 E0
G1 F200 E3
G92 E0
;LAYER_COUNT:61
;LAYER:0
M107
G0 F5400 X84.708 Y84.187 Z0.2
;TYPE:SKIRT
G1 F1800 X84.901 Y84.025 E0.00838
G1 X85.465 Y83.608 E0.03171
G1 X85.808 Y83.404 E0.04498
G1 X86.056 Y83.308 E0.05383
G1 X86.675 Y83.114 E0.0754
G1 X86.945 Y83.049 E0.08464
G1 X102.399 Y80.477 E0.60571
G1 X102.797 Y80.451 E0.61898
G1 X103.193 Y80.505 E0.63227
G1 X103.506 Y80.608 E0.64323
G1 X106.156 Y81.729 E0.73893
G1 X106.363 Y81.831 E0.74661
G1 X111.636 Y84.818 E0.94817
G1 X116.566 Y87.369 E1.1328
G1 X121.642 Y89.642 E1.31778
G1 X124.232 Y90.674 E1.41051
G1 X128.521 Y92.213 E1.56207
G1 X129.014 Y92.472 E1.58059
G1 X129.407 Y92.755 E1.5967
G1 X129.706 Y93.02 E1.60999
G1 X129.947 Y93.339 E1.62328
G1 X130.109 Y93.67 E1.63554
G1 X130.325 Y94.241 E1.65584
G1 X130.428 Y94.627 E1.66913
G1 X130.446 Y95.132 E1.68594
G1 X129.978 Y100.221 E1.85591
G1 X129.754 Y105.739 E2.0396
G1 X129.841 Y111.296 E2.22444
G1 X130.305 Y117.35 E2.42639
G1 X130.307 Y117.375 E2.42723
G1 X130.419 Y119.12 E2.48538
G1 X130.405 Y119.519 E2.49866
G1 X130.253 Y120.056 E2.51723
G1 X130.125 Y120.346 E2.52777
G1 X129.928 Y120.693 E2.54104
G1 X129.605 Y121.049 E2.55703
G1 X129.213 Y121.389 E2.57429
G1 X128.887 Y121.619 E2.58756
G1 X128.587 Y121.757 E2.59854
G1 X123.436 Y123.631 E2.78085
G1 X118.323 Y125.803 E2.96562
G1 X113.349 Y128.257 E3.15009
G1 X107.05 Y131.819 E3.39077
G1 X106.944 Y131.874 E3.39475
G1 X105.5 Y132.581 E3.44822
G1 X105.372 Y132.639 E3.45289
G1 X103.484 Y133.404 E3.52065
G1 X103.101 Y133.516 E3.53392
G1 X102.703 Y133.55 E3.54721
G1 X102.402 Y133.522 E3.55726
G1 X86.62 Y130.874 E4.08951
G1 X86.06 Y130.693 E4.10908
G1 X85.483 Y130.406 E4.13052
G1 X85.145 Y130.193 E4.14381
G1 X84.958 Y130.028 E4.1521
G1 X84.505 Y129.574 E4.17343
G1 X84.253 Y129.264 E4.18672
G1 X84.092 Y128.971 E4.19784
G1 X83.761 Y128.224 E4.22501
G1 X83.637 Y127.845 E4.23828
G1 X83.591 Y127.478 E4.25058
G1 X83.547 Y126.097 E4.29654
G1 X83.569 Y125.732 E4.3087
G1 X84.585 Y119.062 E4.5331
G1 X85.111 Y113.547 E4.71736
G1 X85.325 Y107.997 E4.90209
G1 X85.225 Y102.444 E5.08682
G1 X84.813 Y96.942 E5.27033
G1 X84.084 Y91.42 E5.45558
G1 X83.586 Y88.542 E5.55273
G1 X83.557 Y88.157 E5.56557
G1 X83.593 Y86.529 E5.61973
G1 X83.642 Y86.132 E5.63304
G1 X83.705 Y85.914 E5.64058
G1 X83.863 Y85.461 E5.65654
G1 X84.11 Y84.977 E5.67461
G1 X84.449 Y84.49 E5.69435
G1 X84.708 Y84.187 E5.70761
G0 F5400 X85.139 Y84.346
G1 F1800 X85.703 Y83.929 E5.73094
G1 X86.175 Y83.689 E5.74855
G1 X86.794 Y83.495 E5.77012
G1 X87.01 Y83.444 E5.7775
G1 X102.464 Y80.872 E6.29858
G1 X102.821 Y80.853 E6.31047
G1 X103.173 Y80.913 E6.32234
G1 X103.35 Y80.976 E6.32859
G1 X106 Y82.097 E6.42429
G1 X106.166 Y82.179 E6.43045
G1 X111.444 Y85.169 E6.63221
G1 X116.397 Y87.732 E6.8177
G1 X121.47 Y90.004 E7.00257
G1 X124.101 Y91.052 E7.09677
G1 X128.385 Y92.589 E7.24815
G1 X128.78 Y92.797 E7.263
G1 X129.173 Y93.08 E7.2791
G1 X129.438 Y93.319 E7.29097
G1 X129.643 Y93.612 E7.30287
G1 X129.735 Y93.812 E7.31019
G1 X129.951 Y94.383 E7.33049
G1 X130.039 Y94.729 E7.34237
G1 X130.047 Y95.095 E7.35454
G1 X129.581 Y100.167 E7.52395
G1 X129.354 Y105.747 E7.70969
G1 X129.441 Y111.317 E7.89498
G1 X129.906 Y117.381 E8.09726
G1 X129.908 Y117.401 E8.09793
G1 X130.02 Y119.146 E8.15608
G1 X130.003 Y119.502 E8.16794
G1 X129.887 Y119.894 E8.18154
G1 X129.759 Y120.184 E8.19208
G1 X129.579 Y120.493 E8.20397
G1 X129.343 Y120.747 E8.2155
G1 X128.951 Y121.087 E8.23276
G1 X128.657 Y121.289 E8.24463
G1 X128.45 Y121.382 E8.25218
G1 X123.281 Y123.263 E8.43513
G1 X118.147 Y125.444 E8.62065
G1 X113.168 Y127.9 E8.80531
G1 X106.853 Y131.471 E9.0466
G1 X106.769 Y131.515 E9.04975
G1 X105.325 Y132.222 E9.10323
G1 X105.222 Y132.268 E9.10698
G1 X103.334 Y133.033 E9.17474
G1 X102.99 Y133.129 E9.18661
G1 X102.468 Y133.128 E9.20398
G1 X86.686 Y130.48 E9.73623
G1 X86.238 Y130.335 E9.75189
G1 X85.661 Y130.048 E9.77332
G1 X85.241 Y129.745 E9.79055
G1 X84.788 Y129.291 E9.81188
G1 X84.566 Y129.012 E9.82374
G1 X84.458 Y128.809 E9.83138
G1 X84.127 Y128.062 E9.85856
G1 X84.02 Y127.721 E9.87045
G1 X83.991 Y127.465 E9.87901
G1 X83.947 Y126.084 E9.92497
G1 X83.964 Y125.792 E9.9347
G1 X84.982 Y119.106 E10.15964
G1 X85.511 Y113.566 E10.34474
G1 X85.725 Y108.005 E10.52983
G1 X85.625 Y102.442 E10.71489
G1 X85.208 Y96.877 E10.9005
G1 X84.483 Y91.377 E11.08502
G1 X83.98 Y88.474 E11.18301
G1 X83.957 Y88.166 E11.19328
G1 X83.993 Y86.538 E11.24744
G1 X84.082 Y86.046 E11.26407
G1 X84.24 Y85.593 E11.28003
G1 X84.438 Y85.206 E11.29449
G1 X84.777 Y84.719 E11.31422
G1 X85.139 Y84.346 E11.33151
G0 F5400 X85.377 Y84.668
G1 F1800 X85.941 Y84.251 E11.35484
G1 X86.295 Y84.071 E11.36805
G1 X86.914 Y83.877 E11.38962
G1 X87.076 Y83.838 E11.39517
G1 X102.53 Y81.266 E11.91624
G1 X102.839 Y81.255 E11.92652
G1 X103.195 Y81.345 E11.93874
G1 X105.845 Y82.466 E12.03444
G1 X105.968 Y82.527 E12.039
G1 X111.229 Y85.507 E12.24011
G1 X116.229 Y88.095 E12.42736
G1 X121.328 Y90.378 E12.61318
G1 X123.962 Y91.427 E12.70748
G1 X128.25 Y92.966 E12.85901
G1 X128.546 Y93.121 E12.87012
G1 X128.939 Y93.404 E12.88623
G1 X129.165 Y93.616 E12.89653
G1 X129.36 Y93.953 E12.90948
G1 X129.576 Y94.524 E12.92979
G1 X129.648 Y94.825 E12.94008
G1 X129.649 Y95.059 E12.94786
G1 X129.181 Y100.154 E13.11804
G1 X128.953 Y105.737 E13.30388
G1 X129.042 Y111.337 E13.49016
G1 X129.507 Y117.411 E13.69278
G1 X129.509 Y117.426 E13.69328
G1 X129.621 Y119.171 E13.75144
G1 X129.6 Y119.48 E13.76174
G1 X129.521 Y119.733 E13.77056
G1 X129.393 Y120.023 E13.7811
G1 X129.233 Y120.287 E13.79137
G1 X129.081 Y120.445 E13.79866
G1 X128.689 Y120.785 E13.81592
G1 X128.313 Y121.006 E13.83042
G1 X123.119 Y122.896 E14.01426
G1 X117.992 Y125.074 E14.19953
G1 X112.987 Y127.543 E14.38515
G1 X106.656 Y131.123 E14.62706
G1 X106.593 Y131.156 E14.62942
G1 X105.149 Y131.863 E14.6829
G1 X105.072 Y131.897 E14.6857
G1 X103.184 Y132.662 E14.75345
G1 X102.885 Y132.74 E14.76373
G1 X102.534 Y132.733 E14.7754
G1 X86.752 Y130.085 E15.30765
G1 X86.417 Y129.976 E15.31937
G1 X85.84 Y129.689 E15.3408
G1 X85.525 Y129.463 E15.3537
G1 X85.072 Y129.009 E15.37503
G1 X84.824 Y128.647 E15.38962
G1 X84.493 Y127.9 E15.4168
G1 X84.391 Y127.452 E15.43208
G1 X84.347 Y126.071 E15.47804
G1 X84.36 Y125.852 E15.48533
G1 X85.378 Y119.168 E15.71021
G1 X85.911 Y113.583 E15.89681
G1 X86.125 Y108.013 E16.08221
G1 X86.025 Y102.424 E16.26813
G1 X85.607 Y96.847 E16.45414
G1 X84.872 Y91.274 E16.6411
G1 X84.375 Y88.406 E16.73791
G1 X84.357 Y88.174 E16.74565
G1 X84.393 Y86.546 E16.79981
G1 X84.46 Y86.178 E16.81226
G1 X84.618 Y85.725 E16.82821
G1 X84.766 Y85.434 E16.83907
G1 X85.105 Y84.947 E16.85881
G1 X85.377 Y84.668 E16.87177
G1 F1500 E16.17177
G0 F5400 X118.111 Y96.769
;TYPE:WALL-INNER
G1 F1500 E16.87177
G1 F1800 X118.614 Y96.971 E16.88979
G1 X119.128 Y97.153 E16.90793
G1 X119.657 Y97.301 E16.9262
G1 X120.119 Y97.405 E16.94195
G1 X119.947 Y97.487 E16.94829
G1 X119.446 Y97.753 E16.96716
G1 X118.952 Y98.046 E16.98626
G1 X118.294 Y98.492 E17.0127
G1 X118.278 Y98.382 E17.01639
G1 X118.184 Y98.039 E17.02822
G1 X117.853 Y97.195 E17.05838
G1 X117.557 Y96.503 E17.08341
G1 X118.111 Y96.769 E17.10385
G1 F1500 E16.40385
G0 F5400 X118.952 Y115.954
G1 F1500 E17.10385
G1 F1800 X119.446 Y116.247 E17.12295
G1 X119.947 Y116.513 E17.14182
G1 X120.119 Y116.595 E17.14816
G1 X119.657 Y116.699 E17.16391
G1 X119.128 Y116.847 E17.18218
G1 X118.614 Y117.029 E17.20031
G1 X118.111 Y117.231 E17.21834
G1 X117.558 Y117.497 E17.23875
G1 X117.855 Y116.797 E17.26404
G1 X118.184 Y115.961 E17.29392
G1 X118.278 Y115.617 E17.30579
G1 X118.294 Y115.508 E17.30945
G1 X118.952 Y115.954 E17.33589
G0 F5400 X118.716 Y115.315
G1 F1800 X119.165 Y115.615 E17.35385
G1 X119.642 Y115.898 E17.3723
G1 X120.127 Y116.156 E17.39057
G1 X120.63 Y116.395 E17.40909
G1 X121.142 Y116.605 E17.4275
G1 X121.712 Y116.808 E17.44762
G1 X121.303 Y116.83 E17.46124
G1 X120.784 Y116.888 E17.47861
G1 X120.266 Y116.972 E17.49607
G1 X119.755 Y117.087 E17.51349
G1 X119.249 Y117.229 E17.53097
G1 X118.755 Y117.403 E17.54839
G1 X118.271 Y117.598 E17.56574
G1 X117.797 Y117.822 E17.58318
G1 X117.334 Y118.075 E17.60073
G1 X116.892 Y118.351 E17.61806
G1 X116.618 Y118.542 E17.62917
G1 X116.809 Y118.165 E17.64323
G1 X117.16 Y117.41 E17.67092
G1 X117.485 Y116.646 E17.69853
G1 X117.804 Y115.834 E17.72755
G1 X117.886 Y115.536 E17.73783
G1 X117.934 Y115.197 E17.74922
G1 X117.933 Y114.842 E17.76102
G1 X117.919 Y114.757 E17.76389
G1 X118.716 Y115.315 E17.79625
G1 F1500 E17.09625
G0 F5400 X121.321 Y107
G1 F1500 E17.79625
G1 F1800 X120.909 Y107.145 E17.81078
G1 X120.909 Y106.855 E17.82042
G1 X121.321 Y107 E17.83495
G1 F1500 E17.13495
G0 F5400 X116.892 Y95.649
G1 F1500 E17.83495
G1 F1800 X117.334 Y95.925 E17.85228
G1 X117.797 Y96.178 E17.86983
G1 X118.271 Y96.402 E17.88727
G1 X118.755 Y96.597 E17.90462
G1 X119.249 Y96.771 E17.92204
G1 X119.755 Y96.913 E17.93952
G1 X120.266 Y97.028 E17.95694
G1 X120.784 Y97.112 E17.9744
G1 X121.303 Y97.17 E17.99176
G1 X121.712 Y97.192 E18.00539
G1 X121.142 Y97.395 E18.02551
G1 X120.63 Y97.605 E18.04392
G1 X120.127 Y97.844 E18.06244
G1 X119.642 Y98.102 E18.08071
G1 X119.165 Y98.385 E18.09916
G1 X118.716 Y98.685 E18.11712
G1 X117.919 Y99.243 E18.14948
G1 X117.933 Y99.157 E18.15238
G1 X117.934 Y98.802 E18.16419
G1 X117.886 Y98.463 E18.17557
G1 X117.804 Y98.165 E18.18585
G1 X117.483 Y97.347 E18.21508
G1 X117.157 Y96.584 E18.24268
G1 X116.806 Y95.829 E18.27037
G1 X116.618 Y95.458 E18.2842
G1 X116.892 Y95.649 E18.29531
G1 F1500 E17.59531
G0 F5400 X122.301 Y97.431
G1 F1500 E18.29531
G1 F1800 X121.789 Y97.587 E18.31311
G1 X121.286 Y97.768 E18.33089
G1 X120.792 Y97.971 E18.34866
G1 X120.307 Y98.201 E18.36651
G1 X119.838 Y98.451 E18.38419
G1 X119.378 Y98.724 E18.40198
G1 X118.942 Y99.015 E18.41941
G1 X116.713 Y100.575 E18.5099
G1 X116.913 Y100.413 E18.51846
G1 X117.109 Y100.197 E18.52816
G1 X117.271 Y99.958 E18.53777
G1 X117.4 Y99.692 E18.5476
G1 X117.486 Y99.413 E18.55731
G1 X117.533 Y99.124 E18.56705
G1 X117.534 Y98.829 E18.57686
G1 X117.494 Y98.545 E18.5864
G1 X117.424 Y98.292 E18.59513
G1 X117.113 Y97.499 E18.62346
G1 X116.792 Y96.747 E18.65066
G1 X116.446 Y96.004 E18.67792
G1 X116.076 Y95.274 E18.70514
G1 X115.68 Y94.557 E18.73238
G1 X115.264 Y93.852 E18.75961
G1 X114.824 Y93.161 E18.78685
G1 X114.449 Y92.612 E18.80897
G1 X114.916 Y93.27 E18.8358
G1 X115.234 Y93.663 E18.85262
G1 X115.572 Y94.034 E18.86931
G1 X115.929 Y94.386 E18.88599
G1 X116.306 Y94.717 E18.90267
G1 X116.701 Y95.029 E18.91941
G1 X117.112 Y95.315 E18.93607
G1 X117.536 Y95.58 E18.9527
G1 X117.978 Y95.821 E18.96944
G1 X118.432 Y96.035 E18.98613
G1 X118.896 Y96.223 E19.00279
G1 X119.369 Y96.389 E19.01946
G1 X119.853 Y96.525 E19.03618
G1 X120.342 Y96.635 E19.05285
G1 X120.838 Y96.716 E19.06957
G1 X121.336 Y96.771 E19.08623
G1 X121.836 Y96.798 E19.10289
G1 X122.338 Y96.797 E19.11958
G1 X122.84 Y96.768 E19.13631
G1 X123.338 Y96.71 E19.15298
G1 X123.831 Y96.625 E19.16962
G1 X124.32 Y96.513 E19.18631
G1 X124.803 Y96.374 E19.20302
G1 X125.276 Y96.209 E19.21968
G1 X125.739 Y96.016 E19.23637
G1 X126.193 Y95.798 E19.25312
G1 X126.63 Y95.556 E19.26973
G1 X127.054 Y95.291 E19.28636
G1 X127.428 Y95.029 E19.30155
G1 X127.098 Y95.295 E19.31565
G1 X126.715 Y95.576 E19.33145
G1 X126.327 Y95.836 E19.34698
G1 X125.902 Y96.094 E19.36352
G1 X125.498 Y96.317 E19.37887
G1 X125.069 Y96.529 E19.39478
G1 X124.614 Y96.73 E19.41133
G1 X124.209 Y96.89 E19.42581
G1 X123.738 Y97.051 E19.44237
G1 X123.26 Y97.192 E19.45894
G1 X122.301 Y97.431 E19.49181
G1 F1500 E18.79181
G0 F5400 X122.527 Y107
G1 F1500 E19.49181
G1 F1800 X120.509 Y107.709 E19.56296
G1 X120.509 Y106.291 E19.61012
G1 X122.527 Y107 E19.68126
G1 F1500 E18.98126
G0 F5400 X118.942 Y114.985
G1 F1500 E19.68126
G1 F1800 X119.378 Y115.276 E19.69869
G1 X119.838 Y115.549 E19.71648
G1 X120.307 Y115.799 E19.73416
G1 X120.792 Y116.029 E19.75201
G1 X121.286 Y116.232 E19.76978
G1 X121.789 Y116.413 E19.78756
G1 X122.301 Y116.569 E19.80536
G1 X123.26 Y116.808 E19.83823
G1 X123.738 Y116.949 E19.85481
G1 X124.209 Y117.11 E19.87136
G1 X124.625 Y117.274 E19.88624
G1 X125.07 Y117.471 E19.90242
G1 X125.503 Y117.685 E19.91849
G1 X125.89 Y117.899 E19.9332
G1 X126.327 Y118.165 E19.95021
G1 X126.708 Y118.419 E19.96544
G1 X127.098 Y118.705 E19.98153
G1 X127.43 Y118.972 E19.9957
G1 X127.054 Y118.709 E20.01096
G1 X126.63 Y118.444 E20.02759
G1 X126.193 Y118.202 E20.0442
G1 X125.739 Y117.984 E20.06095
G1 X125.276 Y117.791 E20.07764
G1 X124.803 Y117.626 E20.0943
G1 X124.32 Y117.487 E20.11102
G1 X123.831 Y117.375 E20.1277
G1 X123.338 Y117.29 E20.14434
G1 X122.84 Y117.232 E20.16102
G1 X122.338 Y117.203 E20.17774
G1 X121.836 Y117.202 E20.19444
G1 X121.336 Y117.229 E20.21109
G1 X120.838 Y117.284 E20.22776
G1 X120.342 Y117.365 E20.24447
G1 X119.853 Y117.475 E20.26114
G1 X119.369 Y117.611 E20.27786
G1 X118.896 Y117.777 E20.29454
G1 X118.432 Y117.965 E20.31119
G1 X117.978 Y118.179 E20.32788
G1 X117.536 Y118.42 E20.34463
G1 X117.112 Y118.685 E20.36126
G1 X116.701 Y118.971 E20.37791
G1 X116.306 Y119.283 E20.39465
G1 X115.929 Y119.614 E20.41134
G1 X115.572 Y119.966 E20.42801
G1 X115.234 Y120.337 E20.4447
G1 X114.916 Y120.73 E20.46152
G1 X114.432 Y121.411 E20.48931
G1 X114.828 Y120.831 E20.51267
G1 X115.267 Y120.141 E20.53987
G1 X115.683 Y119.437 E20.56706
G1 X116.079 Y118.72 E20.59431
G1 X116.449 Y117.99 E20.62153
G1 X116.795 Y117.247 E20.64879
G1 X117.115 Y116.495 E20.67597
G1 X117.424 Y115.707 E20.70412
G1 X117.494 Y115.454 E20.71285
G1 X117.534 Y115.17 E20.72239
G1 X117.533 Y114.875 E20.7322
G1 X117.485 Y114.582 E20.74208
G1 X117.398 Y114.305 E20.75174
G1 X117.272 Y114.043 E20.7614
G1 X117.108 Y113.802 E20.7711
G1 X116.912 Y113.586 E20.7808
G1 X116.719 Y113.429 E20.78908
G1 X118.942 Y114.985 E20.87933
G1 F1500 E20.17933
G0 F5400 X113.632 Y111.267
G1 F1500 E20.87933
G1 F1800 X112.545 Y110.502 E20.92354
G1 X113.802 Y110.058 E20.96788
G1 X113.632 Y111.267 E21.00848
G1 F1500 E20.30848
G0 F5400 X113.802 Y103.942
G1 F1500 E21.00848
G1 F1800 X112.545 Y103.498 E21.05282
G1 X113.632 Y102.733 E21.09703
G1 X113.802 Y103.942 E21.13764
G1 F1500 E20.43764
G0 F5400 X107.278 Y85.769
G1 F1500 E21.13764
G1 F1800 X106.606 Y85.359 E21.16382
G1 X107.321 Y85.795 E21.19167
G1 X107.755 Y86.081 E21.20896
G1 X107.278 Y85.769 E21.22792
G1 F1500 E20.52792
G0 F5400 X107.284 Y128.227
G1 F1500 E21.22792
G1 F1800 X107.967 Y127.78 E21.25507
G1 X108.372 Y127.496 E21.27152
G1 X107.994 Y127.762 E21.28689
G1 X107.343 Y128.191 E21.31283
G1 X106.639 Y128.622 E21.34028
G1 X107.284 Y128.227 E21.36544
G1 F1500 E20.66544
G0 F5400 X86.936 Y127.508
G1 F1500 E21.36544
G1 F1800 X102.611 Y130.118 E21.89397
G1 X103.505 Y129.755 E21.92606
G1 X104.242 Y129.429 E21.95286
G1 X104.967 Y129.08 E21.97962
G1 X105.682 Y128.706 E22.00646
G1 X106.383 Y128.309 E22.03326
G1 X107.07 Y127.889 E22.06004
G1 X107.743 Y127.449 E22.08678
G1 X108.403 Y126.986 E22.1136
G1 X109.048 Y126.501 E22.14044
G1 X109.675 Y125.996 E22.16721
G1 X110.286 Y125.47 E22.19403
G1 X110.879 Y124.925 E22.22082
G1 X111.455 Y124.36 E22.24765
G1 X112.011 Y123.779 E22.2744
G1 X112.547 Y123.179 E22.30116
G1 X113.065 Y122.561 E22.32798
G1 X113.563 Y121.928 E22.35477
G1 X114.039 Y121.277 E22.38159
G1 X114.494 Y120.611 E22.40842
G1 X114.926 Y119.932 E22.43519
G1 X115.336 Y119.239 E22.46197
G1 X115.725 Y118.533 E22.48878
G1 X116.089 Y117.815 E22.51555
G1 X116.43 Y117.084 E22.54238
G1 X116.745 Y116.344 E22.56913
G1 X117.044 Y115.58 E22.59642
G1 X117.102 Y115.372 E22.6036
G1 X117.134 Y115.143 E22.61129
G1 X117.133 Y114.908 E22.61911
G1 X117.095 Y114.675 E22.62696
G1 X117.025 Y114.453 E22.6347
G1 X116.924 Y114.243 E22.64245
G1 X116.793 Y114.05 E22.65021
G1 X116.636 Y113.877 E22.65798
G1 X116.472 Y113.744 E22.665
G1 X112.327 Y110.841 E22.83331
G1 X112.258 Y110.785 E22.83627
G1 X112.221 Y110.743 E22.83813
G1 X112.184 Y110.685 E22.84042
G1 X112.161 Y110.632 E22.84234
G1 X112.144 Y110.565 E22.84464
G1 X112.138 Y110.509 E22.84651
