;FLAVOR:Marlin
;TIME:1620
;Filament used: 1.50632m
;Layer height: 0.2
;Generated with Cura_SteamEngine 3.1.0
M190 S60
M104 S215
M109 S215
M82 ; absolute extrusion mode
G28 ;Home
G1 Z15.0 F6000 ;Move the platform down 15mm
;Prime the extruder
G92 E0
G1 F200 E3
G92 E0
;LAYER_COUNT:61
;LAYER:0
M107
G0 F5400 X84.708 Y84.187 Z0.2
;TYPE:SKIRT
G1 F1800 X84.901 Y84.025 E0.00838
G1 X85.465 Y83.608 E0.03171
G1 X85.808 Y83.404 E0.04498
G1 X86.057 Y83.307 E0.05387
G1 X86.677 Y83.113 E0.07548
G1 X86.946 Y83.049 E0.08468
G1 X102.321 Y80.49 E0.60308
G1 X102.719 Y80.464 E0.61635
G1 X103.287 Y80.567 E0.63555
G1 X105.19 Y81.207 E0.70233
G1 X105.332 Y81.261 E0.70738
G1 X106.804 Y81.884 E0.76054
G1 X106.993 Y81.976 E0.76754
G1 X114.557 Y86.166 E1.05514
G1 X119.51 Y88.604 E1.23875
G1 X124.637 Y90.775 E1.42393
G1 X124.649 Y90.779 E1.42435
G1 X128.856 Y92.407 E1.57439
G1 X129.212 Y92.587 E1.58766
G1 X129.525 Y92.835 E1.60094
G1 X129.868 Y93.276 E1.61952
G1 X130.165 Y93.793 E1.63935
G1 X130.329 Y94.157 E1.65263
G1 X130.416 Y94.547 E1.66592
G1 X130.426 Y94.937 E1.6789
G1 X129.821 Y103.112 E1.95154
G1 X129.757 Y108.647 E2.13565
G1 X130.004 Y114.18 E2.31986
G1 X130.445 Y118.753 E2.47266
G1 X130.431 Y119.244 E2.489
G1 X130.373 Y119.627 E2.50189
G1 X130.274 Y120.015 E2.5152
G1 X130.166 Y120.258 E2.52405
G1 X130.032 Y120.513 E2.53363
G1 X129.812 Y120.847 E2.54693
G1 X129.567 Y121.098 E2.5586
G1 X129.221 Y121.396 E2.57379
G1 X128.894 Y121.626 E2.58708
G1 X128.61 Y121.757 E2.59748
G1 X124.512 Y123.273 E2.74281
G1 X119.399 Y125.446 E2.92759
G1 X114.428 Y127.901 E3.11199
G1 X108.472 Y131.282 E3.33978
G1 X108.38 Y131.332 E3.34326
G1 X106.919 Y132.063 E3.3976
G1 X106.774 Y132.128 E3.40289
G1 X104.535 Y133.034 E3.48322
G1 X104.403 Y133.082 E3.48789
G1 X103.295 Y133.442 E3.52664
G1 X102.905 Y133.527 E3.53992
G1 X102.347 Y133.513 E3.55848
G1 X86.666 Y130.888 E4.08729
G1 X86.153 Y130.729 E4.10515
G1 X85.574 Y130.46 E4.12639
G1 X85.231 Y130.256 E4.13966
G1 X85.034 Y130.09 E4.14823
G1 X84.559 Y129.635 E4.17011
G1 X84.299 Y129.332 E4.18339
G1 X84.154 Y129.088 E4.19283
G1 X83.841 Y128.464 E4.21605
G1 X83.699 Y128.091 E4.22932
G1 X83.636 Y127.736 E4.24131
G1 X83.546 Y126.677 E4.27666
G1 X83.54 Y126.44 E4.28455
G1 X83.567 Y125.65 E4.31084
G1 X83.595 Y125.381 E4.31983
G1 X84.202 Y121.826 E4.43979
G1 X84.886 Y116.307 E4.62475
G1 X85.258 Y110.765 E4.80949
G1 X85.314 Y105.23 E4.9936
G1 X85.057 Y99.681 E5.17836
G1 X84.49 Y94.191 E5.36193
G1 X83.583 Y88.532 E5.55255
G1 X83.558 Y88.206 E5.56342
G1 X83.565 Y86.719 E5.61288
G1 X83.652 Y86.143 E5.63226
G1 X83.838 Y85.535 E5.6534
G1 X83.993 Y85.166 E5.66672
G1 X84.11 Y84.977 E5.67411
G1 X84.449 Y84.49 E5.69384
G1 X84.708 Y84.187 E5.7071
G0 F5400 X85.139 Y84.346
G1 F1800 X85.703 Y83.929 E5.73043
G1 X86.176 Y83.689 E5.74807
G1 X86.796 Y83.495 E5.76968
G1 X87.011 Y83.444 E5.77703
G1 X102.386 Y80.885 E6.29544
G1 X102.743 Y80.866 E6.30733
G1 X103.159 Y80.946 E6.32142
G1 X105.062 Y81.586 E6.3882
G1 X105.176 Y81.63 E6.39226
G1 X106.648 Y82.253 E6.44542
G1 X106.799 Y82.326 E6.451
G1 X114.357 Y86.513 E6.73838
G1 X119.364 Y88.977 E6.92399
G1 X124.486 Y91.147 E7.109
G1 X124.504 Y91.152 E7.10962
G1 X128.711 Y92.78 E7.25966
G1 X129.028 Y92.945 E7.27155
G1 X129.3 Y93.177 E7.28344
G1 X129.521 Y93.475 E7.29578
G1 X129.818 Y93.992 E7.31561
G1 X129.961 Y94.32 E7.32751
G1 X130.027 Y94.671 E7.33939
G1 X130.027 Y94.907 E7.34724
G1 X129.421 Y103.093 E7.62025
G1 X129.356 Y108.659 E7.80539
G1 X129.605 Y114.2 E7.98987
G1 X130.047 Y118.792 E8.1433
G1 X130.036 Y119.185 E8.15638
G1 X129.978 Y119.568 E8.16926
G1 X129.812 Y120.072 E8.18691
G1 X129.678 Y120.327 E8.19649
G1 X129.478 Y120.623 E8.20838
G1 X129.306 Y120.795 E8.21647
G1 X128.96 Y121.093 E8.23165
G1 X128.665 Y121.295 E8.24355
G1 X128.471 Y121.382 E8.25062
G1 X124.35 Y122.906 E8.39676
G1 X119.245 Y125.076 E8.58125
G1 X114.24 Y127.548 E8.76692
G1 X108.275 Y130.934 E8.99505
G1 X108.201 Y130.974 E8.99785
G1 X106.74 Y131.705 E9.05218
G1 X106.624 Y131.757 E9.05641
G1 X104.385 Y132.663 E9.13675
G1 X104.279 Y132.702 E9.1405
G1 X103.171 Y133.062 E9.17925
G1 X102.821 Y133.133 E9.19113
G1 X102.413 Y133.118 E9.20471
G1 X86.732 Y130.493 E9.73352
G1 X86.322 Y130.366 E9.74779
G1 X85.743 Y130.097 E9.76903
G1 X85.31 Y129.801 E9.78647
G1 X84.835 Y129.346 E9.80835
G1 X84.606 Y129.072 E9.82023
G1 X84.512 Y128.908 E9.82651
G1 X84.199 Y128.284 E9.84973
G1 X84.075 Y127.949 E9.86161
G1 X84.035 Y127.702 E9.86994
G1 X83.945 Y126.643 E9.90529
G1 X83.94 Y126.453 E9.91161
G1 X83.967 Y125.663 E9.9379
G1 X83.989 Y125.449 E9.94505
G1 X84.598 Y121.88 E10.06547
G1 X85.287 Y116.33 E10.25149
G1 X85.657 Y110.796 E10.43596
G1 X85.715 Y105.215 E10.62159
G1 X85.458 Y99.675 E10.80605
G1 X84.884 Y94.121 E10.99176
G1 X83.978 Y88.468 E11.18218
G1 X83.958 Y88.207 E11.19089
G1 X83.965 Y86.72 E11.24035
G1 X84.035 Y86.26 E11.25582
G1 X84.221 Y85.652 E11.27697
G1 X84.438 Y85.206 E11.29347
G1 X84.777 Y84.719 E11.3132
G1 X85.139 Y84.346 E11.33049
G0 F5400 X85.377 Y84.668
G1 F1800 X85.941 Y84.251 E11.35382
G1 X86.296 Y84.071 E11.36706
G1 X86.916 Y83.877 E11.38866
G1 X87.077 Y83.838 E11.39417
G1 X102.452 Y81.279 E11.91258
G1 X102.761 Y81.268 E11.92287
G1 X103.032 Y81.326 E11.93208
G1 X104.935 Y81.966 E11.99886
G1 X105.02 Y81.998 E12.00188
G1 X106.492 Y82.621 E12.05505
G1 X106.605 Y82.676 E12.05923
G1 X114.165 Y86.864 E12.34668
G1 X119.196 Y89.34 E12.53318
G1 X124.34 Y91.519 E12.71898
G1 X124.36 Y91.525 E12.71968
G1 X128.567 Y93.153 E12.86971
G1 X128.839 Y93.301 E12.88001
G1 X129.063 Y93.513 E12.89027
G1 X129.175 Y93.674 E12.8968
G1 X129.472 Y94.191 E12.91663
G1 X129.59 Y94.477 E12.92692
G1 X129.628 Y94.878 E12.94031
G1 X129.022 Y103.076 E13.21372
G1 X128.956 Y108.655 E13.3993
G1 X129.207 Y114.255 E13.58574
G1 X129.648 Y118.83 E13.73861
G1 X129.64 Y119.125 E13.74842
G1 X129.582 Y119.508 E13.76131
G1 X129.458 Y119.886 E13.77454
G1 X129.324 Y120.141 E13.78412
G1 X129.045 Y120.492 E13.79903
G1 X128.699 Y120.79 E13.81422
G1 X128.332 Y121.006 E13.82839
G1 X124.218 Y122.528 E13.97428
G1 X119.075 Y124.714 E14.16015
G1 X114.064 Y127.188 E14.34602
G1 X108.077 Y130.587 E14.575
G1 X108.022 Y130.616 E14.57707
G1 X106.561 Y131.347 E14.63141
G1 X106.474 Y131.386 E14.63458
G1 X104.235 Y132.292 E14.71491
G1 X104.156 Y132.321 E14.71771
G1 X103.048 Y132.681 E14.75646
G1 X102.744 Y132.738 E14.76675
G1 X102.479 Y132.724 E14.77558
G1 X86.798 Y130.099 E15.30438
G1 X86.49 Y130.003 E15.31511
G1 X85.911 Y129.734 E15.33635
G1 X85.587 Y129.513 E15.34939
G1 X85.112 Y129.058 E15.37127
G1 X84.869 Y128.729 E15.38487
G1 X84.556 Y128.105 E15.40809
G1 X84.433 Y127.669 E15.42316
G1 X84.343 Y126.61 E15.45851
G1 X84.34 Y126.467 E15.46327
G1 X84.367 Y125.677 E15.48956
G1 X84.383 Y125.516 E15.49494
G1 X84.995 Y121.931 E15.6159
G1 X85.685 Y116.369 E15.80231
G1 X86.057 Y110.81 E15.98762
G1 X86.115 Y105.219 E16.17359
G1 X85.856 Y99.633 E16.35958
G1 X85.281 Y94.071 E16.54556
G1 X84.373 Y88.405 E16.73641
G1 X84.358 Y88.209 E16.74295
G1 X84.365 Y86.722 E16.79241
G1 X84.417 Y86.377 E16.80401
G1 X84.603 Y85.769 E16.82516
G1 X84.766 Y85.434 E16.83755
G1 X85.105 Y84.947 E16.85729
G1 X85.377 Y84.668 E16.87025
G1 F1500 E16.17025
G0 F5400 X118.428 Y96.255
;TYPE:WALL-INNER
G1 F1500 E16.87025
G1 F1800 X118.717 Y96.383 E16.88076
G1 X118.318 Y96.541 E16.89503
G1 X118.311 Y96.445 E16.89824
G1 X118.246 Y96.162 E16.90789
G1 X118.428 Y96.255 E16.91469
G1 F1500 E16.21469
G0 F5400 X118.428 Y117.745
G1 F1500 E16.91469
G1 F1800 X118.246 Y117.838 E16.92149
G1 X118.311 Y117.55 E16.93131
G1 X118.317 Y117.459 E16.93434
G1 X118.717 Y117.617 E16.94865
G1 X118.428 Y117.745 E16.95916
G1 F1500 E16.25916
G0 F5400 X118.136 Y116.933
G1 F1500 E16.95916
G1 F1800 X118.545 Y117.123 E16.97416
G1 X118.966 Y117.284 E16.98915
G1 X119.403 Y117.415 E17.00432
G1 X119.845 Y117.514 E17.01939
G1 X120.078 Y117.551 E17.02724
G1 X119.578 Y117.709 E17.04468
G1 X119.084 Y117.892 E17.0622
G1 X118.6 Y118.106 E17.0798
G1 X118.131 Y118.346 E17.09732
G1 X117.674 Y118.611 E17.11489
G1 X117.37 Y118.814 E17.12705
G1 X117.705 Y118.176 E17.15102
G1 X117.831 Y117.86 E17.16233
G1 X117.914 Y117.492 E17.17488
G1 X117.94 Y117.12 E17.18728
G1 X117.913 Y116.81 E17.19763
G1 X118.136 Y116.933 E17.2061
G1 F1500 E16.5061
G0 F5400 X118.321 Y107
G1 F1500 E17.2061
G1 F1800 X117.909 Y107.145 E17.22063
G1 X117.909 Y106.855 E17.23028
G1 X118.321 Y107 E17.2448
G1 F1500 E16.5448
G0 F5400 X117.674 Y95.389
G1 F1500 E17.2448
G1 F1800 X118.131 Y95.654 E17.26237
G1 X118.6 Y95.894 E17.2799
G1 X119.084 Y96.108 E17.2975
G1 X119.578 Y96.291 E17.31502
G1 X120.078 Y96.449 E17.33246
G1 X119.845 Y96.486 E17.34031
G1 X119.403 Y96.585 E17.35537
G1 X118.966 Y96.716 E17.37055
G1 X118.545 Y96.877 E17.38554
G1 X118.136 Y97.067 E17.40054
G1 X117.914 Y97.189 E17.40896
G1 X117.94 Y96.878 E17.41934
G1 X117.914 Y96.504 E17.43181
G1 X117.83 Y96.136 E17.44437
G1 X117.704 Y95.821 E17.45565
G1 X117.37 Y95.186 E17.47951
G1 X117.674 Y95.389 E17.49167
G1 F1500 E16.79167
G0 F5400 X120.765 Y96.781
G1 F1500 E17.49167
G1 F1800 X120.338 Y96.814 E17.50592
G1 X119.919 Y96.879 E17.52002
G1 X119.504 Y96.972 E17.53416
G1 X119.095 Y97.095 E17.54837
G1 X118.701 Y97.246 E17.5624
G1 X118.317 Y97.424 E17.57648
G1 X117.946 Y97.629 E17.59058
G1 X117.603 Y97.85 E17.60415
G1 X116.719 Y98.469 E17.64004
G1 X116.93 Y98.298 E17.64908
G1 X117.14 Y98.057 E17.65971
G1 X117.309 Y97.79 E17.67022
G1 X117.433 Y97.5 E17.68071
G1 X117.512 Y97.195 E17.69119
G1 X117.539 Y96.875 E17.70187
G1 X117.517 Y96.563 E17.71227
G1 X117.447 Y96.256 E17.72274
G1 X117.34 Y95.989 E17.73231
G1 X116.946 Y95.238 E17.76052
G1 X116.545 Y94.527 E17.78767
G1 X116.12 Y93.83 E17.81482
G1 X115.673 Y93.148 E17.84194
G1 X115.217 Y92.5 E17.8683
G1 X115.626 Y93.047 E17.89101
G1 X115.956 Y93.434 E17.90793
G1 X116.304 Y93.799 E17.9247
G1 X116.673 Y94.145 E17.94153
G1 X117.061 Y94.468 E17.95832
G1 X117.466 Y94.769 E17.9751
G1 X117.886 Y95.049 E17.99189
G1 X118.323 Y95.303 E18.0087
G1 X118.772 Y95.533 E18.02548
G1 X119.235 Y95.737 E18.04231
G1 X119.708 Y95.913 E18.05909
G1 X120.189 Y96.065 E18.07587
G1 X120.679 Y96.189 E18.09268
G1 X121.174 Y96.285 E18.10945
G1 X121.675 Y96.353 E18.12627
G1 X122.179 Y96.394 E18.14309
G1 X122.683 Y96.404 E18.15985
G1 X123.187 Y96.387 E18.17663
G1 X123.691 Y96.342 E18.19346
G1 X124.191 Y96.269 E18.21026
G1 X124.685 Y96.169 E18.22703
G1 X125.172 Y96.04 E18.24378
G1 X125.654 Y95.885 E18.26062
G1 X126.125 Y95.702 E18.27743
G1 X126.584 Y95.494 E18.29419
G1 X127.033 Y95.259 E18.31105
G1 X127.433 Y95.02 E18.32654
G1 X127.036 Y95.266 E18.34208
G1 X126.602 Y95.508 E18.35861
G1 X126.125 Y95.743 E18.37629
G1 X125.659 Y95.95 E18.39325
G1 X125.172 Y96.138 E18.41061
G1 X124.718 Y96.289 E18.42653
G1 X124.2 Y96.435 E18.44443
G1 X123.724 Y96.547 E18.46069
G1 X123.212 Y96.641 E18.478
G1 X122.706 Y96.711 E18.49499
G1 X122.225 Y96.754 E18.51106
G1 X121.67 Y96.779 E18.52953
G1 X120.765 Y96.781 E18.55964
G1 F1500 E17.85964
G0 F5400 X119.528 Y107
G1 F1500 E18.55964
G1 F1800 X117.509 Y107.709 E18.63081
G1 X117.509 Y106.291 E18.67797
G1 X119.528 Y107 E18.74914
G1 F1500 E18.04914
G0 F5400 X110.802 Y103.942
G1 F1500 E18.74914
G1 F1800 X109.545 Y103.498 E18.79348
G1 X110.632 Y102.733 E18.83769
G1 X110.802 Y103.942 E18.8783
G1 F1500 E18.1783
G0 F5400 X110.632 Y111.267
G1 F1500 E18.8783
G1 F1800 X109.545 Y110.502 E18.92251
G1 X110.802 Y110.058 E18.96685
G1 X110.632 Y111.267 E19.00746
G1 F1500 E18.30746
G0 F5400 X117.603 Y116.15
G1 F1500 E19.00746
G1 F1800 X117.946 Y116.371 E19.02103
G1 X118.317 Y116.576 E19.03512
G1 X118.701 Y116.754 E19.0492
G1 X119.095 Y116.905 E19.06324
G1 X119.504 Y117.028 E19.07744
G1 X119.919 Y117.121 E19.09159
G1 X120.338 Y117.186 E19.10569
G1 X120.765 Y117.219 E19.11993
G1 X121.67 Y117.221 E19.15003
G1 X122.225 Y117.246 E19.16851
G1 X122.706 Y117.289 E19.18457
G1 X123.212 Y117.359 E19.20156
G1 X123.699 Y117.449 E19.21804
G1 X124.222 Y117.57 E19.23589
G1 X124.718 Y117.711 E19.25304
G1 X125.172 Y117.862 E19.26895
G1 X125.658 Y118.05 E19.28629
G1 X126.134 Y118.26 E19.30359
G1 X126.577 Y118.479 E19.32003
G1 X127.053 Y118.744 E19.33815
G1 X127.301 Y118.897 E19.34784
G1 X127.03 Y118.74 E19.35826
G1 X126.584 Y118.506 E19.37501
G1 X126.125 Y118.298 E19.39177
G1 X125.654 Y118.115 E19.40857
G1 X125.172 Y117.96 E19.42541
G1 X124.685 Y117.831 E19.44217
G1 X124.191 Y117.731 E19.45893
G1 X123.691 Y117.658 E19.47574
G1 X123.187 Y117.613 E19.49257
G1 X122.683 Y117.596 E19.50934
G1 X122.179 Y117.606 E19.52611
G1 X121.675 Y117.647 E19.54293
G1 X121.174 Y117.715 E19.55974
G1 X120.679 Y117.811 E19.57651
G1 X120.189 Y117.935 E19.59333
G1 X119.708 Y118.087 E19.6101
G1 X119.235 Y118.263 E19.62689
G1 X118.772 Y118.467 E19.64372
G1 X118.323 Y118.697 E19.6605
G1 X117.886 Y118.951 E19.67731
G1 X117.466 Y119.231 E19.6941
G1 X117.061 Y119.532 E19.71088
G1 X116.673 Y119.855 E19.72767
G1 X116.304 Y120.201 E19.7445
G1 X115.956 Y120.566 E19.76127
G1 X115.626 Y120.953 E19.77819
G1 X115.225 Y121.49 E19.80048
G1 X115.678 Y120.845 E19.82669
G1 X116.123 Y120.162 E19.8538
G1 X116.548 Y119.467 E19.8809
G1 X116.949 Y118.757 E19.90802
G1 X117.341 Y118.009 E19.93611
G1 X117.448 Y117.741 E19.94571
G1 X117.517 Y117.434 E19.95617
G1 X117.539 Y117.124 E19.96651
G1 X117.51 Y116.803 E19.97723
G1 X117.432 Y116.496 E19.98776
G1 X117.308 Y116.208 E19.99819
G1 X117.138 Y115.942 E20.00869
G1 X116.93 Y115.703 E20.01923
G1 X116.732 Y115.54 E20.02776
G1 X117.603 Y116.15 E20.06313
G1 F1500 E19.36313
G0 F5400 X112.832 Y89.691
G1 F1500 E20.06313
G1 F1800 X113.039 Y89.908 E20.0731
G1 X112.641 Y89.504 E20.09196
G1 X112.832 Y89.691 E20.10086
G1 F1500 E19.40086
G0 F5400 X86.936 Y127.508
G1 F1500 E20.10086
G1 F1800 X102.593 Y130.115 E20.62878
G1 X103.486 Y129.811 E20.66015
G1 X104.238 Y129.527 E20.68689
G1 X104.979 Y129.218 E20.71359
G1 X105.709 Y128.886 E20.74027
G1 X106.429 Y128.529 E20.76699
G1 X107.135 Y128.149 E20.79366
G1 X107.829 Y127.745 E20.82037
G1 X108.509 Y127.319 E20.84706
G1 X109.174 Y126.87 E20.87375
G1 X109.826 Y126.4 E20.90048
G1 X110.46 Y125.908 E20.92717
G1 X111.079 Y125.397 E20.95387
G1 X111.678 Y124.863 E20.98056
G1 X112.262 Y124.311 E21.00729
G1 X112.825 Y123.739 E21.03398
G1 X113.37 Y123.15 E21.06067
G1 X113.895 Y122.543 E21.08736
G1 X114.4 Y121.919 E21.11406
G1 X114.884 Y121.279 E21.14075
G1 X115.347 Y120.621 E21.16751
G1 X115.785 Y119.949 E21.19419
G1 X116.203 Y119.264 E21.22088
G1 X116.598 Y118.566 E21.24755
G1 X116.977 Y117.842 E21.27474
G1 X117.065 Y117.622 E21.28262
G1 X117.12 Y117.376 E21.291
G1 X117.138 Y117.127 E21.2993
G1 X117.115 Y116.871 E21.30785
G1 X117.052 Y116.626 E21.31627
G1 X116.953 Y116.396 E21.32459
G1 X116.817 Y116.182 E21.33303
G1 X116.65 Y115.991 E21.34147
G1 X116.473 Y115.845 E21.3491
G1 X109.327 Y110.841 E21.63925
G1 X109.258 Y110.785 E21.64221
G1 X109.221 Y110.743 E21.64407
G1 X109.184 Y110.685 E21.64636
G1 X109.161 Y110.632 E21.64828
G1 X109.144 Y110.565 E21.65058
G1 X109.138 Y110.509 E21.65245
G1 X109.156 Y110.379 E21.65682
G1 X109.206 Y110.277 E21.6606
G1 X109.25 Y110.223 E21.66291
G1 X109.347 Y110.15 E21.66695
G1 X109.419 Y110.118 E21.66957
G1 X117.109 Y107.426 E21.94056
G1 X117.109 Y106.574 E21.9689
G1 X109.419 Y103.882 E22.23989
G1 X109.347 Y103.85 E22.24251
G1 X109.25 Y103.777 E22.24655
G1 X109.206 Y103.723 E22.24886
G1 X109.156 Y103.621 E22.25264
G1 X109.142 Y103.555 E22.25489
G1 X109.138 Y103.489 E22.25708
G1 X109.161 Y103.368 E22.26118
G1 X109.184 Y103.315 E22.2631
G1 X109.221 Y103.257 E22.26539
G1 X109.258 Y103.215 E22.26725
G1 X109.327 Y103.159 E22.27021
G1 X116.472 Y98.154 E22.56036
G1 X116.651 Y98.009 E22.56802
G1 X116.818 Y97.817 E22.57648
G1 X116.954 Y97.603 E22.58492
G1 X117.053 Y97.371 E22.5933
G1 X117.116 Y97.127 E22.60169
G1 X117.138 Y96.872 E22.6102
G1 X117.12 Y96.622 E22.61854
G1 X117.064 Y96.376 E22.62693
G1 X116.976 Y96.157 E22.63478
G1 X116.595 Y95.429 E22.66211
G1 X116.2 Y94.73 E22.68881
G1 X115.782 Y94.044 E22.71553
G1 X115.342 Y93.373 E22.74222
G1 X114.88 Y92.716 E22.76893
G1 X114.396 Y92.076 E22.79562
G1 X113.891 Y91.452 E22.82232
G1 X113.366 Y90.845 E22.84901
G1 X112.821 Y90.256 E22.8757
G1 X112.257 Y89.684 E22.90242
G1 X111.673 Y89.133 E22.92912
G1 X111.074 Y88.599 E22.95581
