;FLAVOR:Marlin
;TIME:1650
;Filament used: 1.55505m
;Layer height: 0.2
;Generated with Cura_SteamEngine 3.1.0
M190 S60
M104 S215
M109 S215
M82 ; absolute extrusion mode
G28 ;Home
G1 Z15.0 F6000 ;Move the platform down 15mm
;Prime the extruder
G92 E0
G1 F200 E3
G92 E0
;LAYER_COUNT:61
;LAYER:0
M107
G0 F5400 X84.721 Y84.187 Z0.2
;TYPE:SKIRT
G1 F1800 X85.01 Y83.912 E0.01327
G1 X85.198 Y83.782 E0.02087
G1 X85.753 Y83.445 E0.04247
G1 X86.113 Y83.273 E0.05574
G1 X86.456 Y83.183 E0.06753
G1 X102.428 Y80.473 E0.60635
G1 X102.827 Y80.446 E0.61966
G1 X103.223 Y80.499 E0.63294
G1 X103.593 Y80.625 E0.64594
G1 X106.192 Y81.811 E0.74096
G1 X106.362 Y81.899 E0.74733
G1 X110.479 Y84.276 E0.90545
G1 X115.404 Y86.88 E1.09074
G1 X120.44 Y89.186 E1.27496
G1 X125.608 Y91.21 E1.45956
G1 X128.679 Y92.29 E1.56784
G1 X129.041 Y92.46 E1.58114
G1 X129.471 Y92.804 E1.59945
G1 X129.772 Y93.123 E1.61404
G1 X130.015 Y93.44 E1.62733
G1 X130.246 Y93.967 E1.64646
G1 X130.383 Y94.467 E1.66371
G1 X130.449 Y94.861 E1.67699
G1 X130.446 Y95.171 E1.68731
G1 X129.908 Y101.281 E1.89131
G1 X129.742 Y106.828 E2.07589
G1 X129.889 Y112.37 E2.26028
G1 X130.429 Y119.031 E2.48255
G1 X130.422 Y119.431 E2.49586
G1 X130.284 Y119.958 E2.51398
G1 X130.14 Y120.306 E2.5265
G1 X129.951 Y120.658 E2.53979
G1 X129.6 Y121.054 E2.55739
G1 X129.186 Y121.412 E2.5756
G1 X128.859 Y121.642 E2.58889
G1 X128.565 Y121.777 E2.59965
G1 X121.938 Y124.201 E2.83435
G1 X116.864 Y126.422 E3.01857
G1 X111.919 Y128.928 E3.20296
G1 X106.354 Y132.107 E3.41612
G1 X106.193 Y132.189 E3.42213
G1 X103.613 Y133.368 E3.51648
G1 X103.235 Y133.497 E3.52976
G1 X102.839 Y133.548 E3.54304
G1 X102.452 Y133.522 E3.55594
G1 X86.621 Y130.876 E4.08979
G1 X86.236 Y130.771 E4.10306
G1 X85.991 Y130.657 E4.11205
G1 X85.295 Y130.276 E4.13844
G1 X84.965 Y130.05 E4.15174
G1 X84.732 Y129.818 E4.16268
G1 X84.299 Y129.309 E4.1849
G1 X84.071 Y128.98 E4.19822
G1 X83.958 Y128.738 E4.2071
G1 X83.725 Y128.139 E4.22848
G1 X83.618 Y127.754 E4.24177
G1 X83.59 Y127.469 E4.25129
G1 X83.549 Y125.972 E4.3011
G1 X83.576 Y125.584 E4.31404
G1 X84.13 Y122.298 E4.42487
G1 X84.843 Y116.763 E4.61049
G1 X85.239 Y111.243 E4.79456
G1 X85.321 Y105.689 E4.9793
G1 X85.091 Y100.159 E5.16339
G1 X84.549 Y94.661 E5.34714
G1 X83.588 Y88.571 E5.5522
G1 X83.564 Y88.228 E5.56364
G1 X83.59 Y86.551 E5.61942
G1 X83.636 Y86.154 E5.63272
G1 X83.74 Y85.822 E5.64429
G1 X84.007 Y85.172 E5.66766
G1 X84.195 Y84.82 E5.68093
G1 X84.342 Y84.627 E5.689
G1 X84.721 Y84.187 E5.70832
G0 F5400 X85.024 Y84.448
G1 F1800 X85.406 Y84.124 E5.72498
G1 X85.961 Y83.787 E5.74657
G1 X86.285 Y83.637 E5.75845
G1 X86.523 Y83.578 E5.7666
G1 X102.495 Y80.868 E6.30543
G1 X102.852 Y80.847 E6.31732
G1 X103.204 Y80.907 E6.3292
G1 X103.427 Y80.989 E6.3371
G1 X106.026 Y82.175 E6.43212
G1 X106.162 Y82.245 E6.4372
G1 X110.303 Y84.635 E6.59623
G1 X115.214 Y87.232 E6.781
G1 X120.284 Y89.555 E6.96649
G1 X125.489 Y91.593 E7.1524
G1 X128.547 Y92.668 E7.26022
G1 X128.868 Y92.823 E7.27207
G1 X129.18 Y93.079 E7.28549
G1 X129.481 Y93.398 E7.30008
G1 X129.695 Y93.683 E7.31194
G1 X129.86 Y94.073 E7.32602
G1 X129.997 Y94.573 E7.34326
G1 X130.052 Y94.926 E7.35515
G1 X130.048 Y95.136 E7.36213
G1 X129.508 Y101.268 E7.56687
G1 X129.341 Y106.821 E7.75165
G1 X129.489 Y112.377 E7.93651
G1 X130.031 Y119.064 E8.15965
G1 X130.02 Y119.421 E8.17153
G1 X129.914 Y119.805 E8.18478
G1 X129.77 Y120.153 E8.1973
G1 X129.598 Y120.466 E8.20918
G1 X129.339 Y120.751 E8.22199
G1 X128.925 Y121.109 E8.2402
G1 X128.63 Y121.311 E8.25209
G1 X128.428 Y121.402 E8.25946
G1 X121.786 Y123.831 E8.49468
G1 X116.681 Y126.066 E8.68003
G1 X111.727 Y128.577 E8.86476
G1 X106.156 Y131.759 E9.07815
G1 X106.027 Y131.825 E9.08297
G1 X103.447 Y133.004 E9.17731
G1 X103.108 Y133.116 E9.18919
G1 X102.752 Y133.149 E9.20108
G1 X102.518 Y133.127 E9.20889
G1 X86.687 Y130.481 E9.74274
G1 X86.183 Y130.306 E9.76049
G1 X85.487 Y129.925 E9.78688
G1 X85.194 Y129.72 E9.79877
G1 X85.036 Y129.559 E9.80627
G1 X84.603 Y129.05 E9.8285
G1 X84.331 Y128.593 E9.84619
G1 X84.098 Y127.994 E9.86756
G1 X84.006 Y127.649 E9.87944
G1 X83.99 Y127.458 E9.88581
G1 X83.949 Y125.961 E9.93562
G1 X83.97 Y125.651 E9.94596
G1 X84.529 Y122.338 E10.05771
G1 X85.241 Y116.809 E10.24312
G1 X85.639 Y111.26 E10.42815
G1 X85.721 Y105.696 E10.61323
G1 X85.489 Y100.122 E10.79879
G1 X84.944 Y94.592 E10.98361
G1 X83.984 Y88.508 E11.18846
G1 X83.964 Y88.234 E11.1976
G1 X83.99 Y86.557 E11.25339
G1 X84.036 Y86.203 E11.26526
G1 X84.11 Y85.974 E11.27326
G1 X84.377 Y85.324 E11.29664
G1 X84.645 Y84.888 E11.31366
G1 X85.024 Y84.448 E11.33297
G0 F5400 X85.327 Y84.709
G1 F1800 X85.613 Y84.466 E11.34545
G1 X86.168 Y84.129 E11.36705
G1 X86.59 Y83.972 E11.38203
G1 X102.562 Y81.262 E11.92085
G1 X102.871 Y81.25 E11.93113
G1 X103.261 Y81.353 E11.94455
G1 X105.86 Y82.539 E12.03957
G1 X105.962 Y82.592 E12.04339
G1 X110.085 Y84.972 E12.20173
G1 X115.047 Y87.596 E12.38842
G1 X120.13 Y89.924 E12.57437
G1 X125.339 Y91.964 E12.76044
G1 X128.414 Y93.045 E12.86885
G1 X128.69 Y93.184 E12.87913
G1 X128.889 Y93.353 E12.88781
G1 X129.19 Y93.672 E12.9024
G1 X129.371 Y93.923 E12.91269
G1 X129.474 Y94.179 E12.92187
G1 X129.611 Y94.679 E12.93911
G1 X129.649 Y95.101 E12.9532
G1 X129.109 Y101.239 E13.15814
G1 X128.941 Y106.807 E13.34342
G1 X129.09 Y112.42 E13.53017
G1 X129.632 Y119.096 E13.75295
G1 X129.617 Y119.405 E13.76324
G1 X129.545 Y119.652 E13.7718
G1 X129.401 Y120 E13.78432
G1 X129.247 Y120.268 E13.7946
G1 X129.077 Y120.449 E13.80286
G1 X128.663 Y120.807 E13.82107
G1 X128.29 Y121.026 E13.83545
G1 X121.634 Y123.461 E14.07118
G1 X116.525 Y125.697 E14.25667
G1 X111.533 Y128.227 E14.44281
G1 X105.957 Y131.412 E14.65639
G1 X105.861 Y131.461 E14.65997
G1 X103.281 Y132.64 E14.75432
G1 X102.985 Y132.732 E14.76463
G1 X102.584 Y132.733 E14.77797
G1 X86.753 Y130.087 E15.31181
G1 X86.375 Y129.956 E15.32512
G1 X85.679 Y129.575 E15.35151
G1 X85.341 Y129.3 E15.366
G1 X84.908 Y128.791 E15.38823
G1 X84.704 Y128.448 E15.4015
G1 X84.471 Y127.849 E15.42288
G1 X84.389 Y127.447 E15.43653
G1 X84.348 Y125.95 E15.48633
G1 X84.365 Y125.717 E15.4941
G1 X84.924 Y122.403 E15.60589
G1 X85.639 Y116.853 E15.792
G1 X86.038 Y111.276 E15.97797
G1 X86.122 Y105.685 E16.16395
G1 X85.889 Y100.101 E16.34984
G1 X85.341 Y94.542 E16.53562
G1 X84.379 Y88.446 E16.74089
G1 X84.364 Y88.24 E16.74776
G1 X84.39 Y86.563 E16.80354
G1 X84.48 Y86.126 E16.81838
G1 X84.747 Y85.476 E16.84175
G1 X84.948 Y85.149 E16.85452
G1 X85.327 Y84.709 E16.87383
G1 F1500 E16.17383
G0 F5400 X117.704 Y96.928
;TYPE:WALL-INNER
G1 F1500 E16.87383
G1 F1800 X118.205 Y97.138 E16.8919
G1 X118.713 Y97.325 E16.90991
G1 X119.239 Y97.48 E16.92815
G1 X119.766 Y97.607 E16.94618
G1 X120.306 Y97.708 E16.96445
G1 X120.848 Y97.772 E16.9826
G1 X121.353 Y97.808 E16.99944
G1 X120.964 Y98.039 E17.01449
G1 X120.493 Y98.351 E17.03328
G1 X118.296 Y99.89 E17.12249
G1 X118.241 Y99.621 E17.13163
G1 X117.964 Y98.743 E17.16225
G1 X117.678 Y97.932 E17.19085
G1 X117.37 Y97.13 E17.21942
G1 X117.169 Y96.662 E17.23636
G1 X117.704 Y96.928 E17.25624
G1 F1500 E16.55624
G0 F5400 X120.493 Y115.649
G1 F1500 E17.25624
G1 F1800 X120.964 Y115.961 E17.27503
G1 X121.353 Y116.192 E17.29007
G1 X120.848 Y116.228 E17.30691
G1 X120.306 Y116.292 E17.32507
G1 X119.766 Y116.393 E17.34334
G1 X119.239 Y116.52 E17.36137
G1 X118.713 Y116.675 E17.37961
G1 X118.205 Y116.862 E17.39761
G1 X117.704 Y117.072 E17.41568
G1 X117.169 Y117.338 E17.43555
G1 X117.372 Y116.861 E17.45279
G1 X117.68 Y116.064 E17.48121
G1 X117.967 Y115.25 E17.50992
G1 X118.241 Y114.378 E17.54032
G1 X118.295 Y114.11 E17.54941
G1 X120.493 Y115.649 E17.63866
G0 F5400 X120.718 Y115.318
G1 F1800 X121.177 Y115.622 E17.65697
G1 X121.665 Y115.912 E17.67585
G1 X122.169 Y116.177 E17.69479
G1 X122.684 Y116.418 E17.7137
G1 X123.452 Y116.731 E17.74128
G1 X122.972 Y116.657 E17.75744
G1 X122.451 Y116.605 E17.77485
G1 X121.929 Y116.583 E17.79223
G1 X121.407 Y116.589 E17.80959
G1 X120.886 Y116.626 E17.82696
G1 X120.366 Y116.688 E17.84438
G1 X119.849 Y116.784 E17.86187
G1 X119.343 Y116.906 E17.87918
G1 X118.839 Y117.055 E17.89666
G1 X118.351 Y117.234 E17.91395
G1 X117.87 Y117.436 E17.9313
G1 X117.399 Y117.668 E17.94877
G1 X116.944 Y117.925 E17.96615
G1 X116.503 Y118.206 E17.98354
G1 X116.244 Y118.394 E17.99418
G1 X116.669 Y117.492 E18.02735
G1 X117.001 Y116.711 E18.05557
G1 X117.305 Y115.925 E18.0836
G1 X117.587 Y115.124 E18.11185
G1 X117.853 Y114.278 E18.14134
G1 X117.92 Y113.949 E18.15251
G1 X117.938 Y113.582 E18.16473
G1 X117.916 Y113.356 E18.17228
G1 X120.718 Y115.318 E18.28605
G1 F1500 E17.58605
G0 F5400 X123.319 Y107
G1 F1500 E18.28605
G1 F1800 X122.909 Y107.145 E18.30052
G1 X122.909 Y106.856 E18.31013
G1 X123.319 Y107 E18.32458
G1 F1500 E17.62458
G0 F5400 X116.503 Y95.794
G1 F1500 E18.32458
G1 F1800 X116.944 Y96.075 E18.34198
G1 X117.399 Y96.332 E18.35936
G1 X117.87 Y96.564 E18.37682
G1 X118.351 Y96.766 E18.39417
G1 X118.839 Y96.945 E18.41146
G1 X119.343 Y97.094 E18.42894
G1 X119.849 Y97.216 E18.44625
G1 X120.366 Y97.312 E18.46374
G1 X120.886 Y97.374 E18.48116
G1 X121.407 Y97.411 E18.49853
G1 X121.929 Y97.417 E18.51589
G1 X122.451 Y97.395 E18.53327
G1 X122.972 Y97.343 E18.55069
G1 X123.458 Y97.268 E18.56704
G1 X122.685 Y97.582 E18.59479
G1 X122.169 Y97.823 E18.61373
G1 X121.665 Y98.088 E18.63267
G1 X121.177 Y98.378 E18.65155
G1 X120.718 Y98.682 E18.66987
G1 X117.916 Y100.644 E18.78364
G1 X117.938 Y100.414 E18.79132
G1 X117.92 Y100.05 E18.80344
G1 X117.853 Y99.721 E18.81461
G1 X117.585 Y98.87 E18.84428
G1 X117.303 Y98.07 E18.8725
G1 X116.999 Y97.281 E18.90062
G1 X116.665 Y96.502 E18.92881
G1 X116.244 Y95.606 E18.96174
G1 X116.503 Y95.794 E18.97238
G1 F1500 E18.27238
G0 F5400 X114.566 Y93.391
G1 F1500 E18.97238
G1 F1800 X114.878 Y93.787 E18.98915
G1 X115.211 Y94.162 E19.00583
G1 X115.561 Y94.518 E19.02243
G1 X115.933 Y94.855 E19.03913
G1 X116.322 Y95.169 E19.05576
G1 X116.728 Y95.463 E19.07243
G1 X117.15 Y95.732 E19.08907
G1 X117.586 Y95.978 E19.10572
G1 X118.036 Y96.2 E19.12241
G1 X118.497 Y96.394 E19.13905
G1 X118.965 Y96.565 E19.15562
G1 X119.447 Y96.708 E19.17234
G1 X119.932 Y96.825 E19.18894
G1 X120.426 Y96.916 E19.20564
G1 X120.924 Y96.976 E19.22233
G1 X121.423 Y97.011 E19.23896
G1 X121.923 Y97.017 E19.2556
G1 X122.423 Y96.996 E19.27224
G1 X122.922 Y96.946 E19.28892
G1 X123.415 Y96.87 E19.30551
G1 X123.905 Y96.765 E19.32218
G1 X124.39 Y96.633 E19.3389
G1 X124.863 Y96.475 E19.35548
G1 X125.329 Y96.292 E19.37214
G1 X125.785 Y96.08 E19.38886
G1 X126.226 Y95.846 E19.40547
G1 X126.655 Y95.587 E19.42213
G1 X127.067 Y95.306 E19.43872
G1 X127.447 Y95.018 E19.45458
G1 X127.13 Y95.34 E19.46961
G1 X126.736 Y95.705 E19.48747
G1 X126.386 Y96.001 E19.50272
G1 X125.981 Y96.312 E19.5197
G1 X125.548 Y96.615 E19.53728
G1 X125.163 Y96.861 E19.55247
G1 X124.701 Y97.125 E19.57017
G1 X124.272 Y97.345 E19.58621
G1 X123.819 Y97.554 E19.6028
G1 X122.845 Y97.949 E19.63776
G1 X122.347 Y98.181 E19.65603
G1 X121.861 Y98.437 E19.6743
G1 X121.39 Y98.717 E19.69253
G1 X120.943 Y99.013 E19.71036
G1 X116.719 Y101.971 E19.88187
G1 X116.925 Y101.801 E19.89075
G1 X117.133 Y101.567 E19.90117
G1 X117.302 Y101.305 E19.91154
G1 X117.427 Y101.02 E19.92189
G1 X117.508 Y100.714 E19.93242
G1 X117.537 Y100.405 E19.94274
G1 X117.522 Y100.1 E19.9529
G1 X117.465 Y99.821 E19.96237
G1 X117.205 Y98.996 E19.99114
G1 X116.928 Y98.208 E20.01892
G1 X116.628 Y97.432 E20.04659
G1 X116.3 Y96.665 E20.07433
G1 X115.949 Y95.91 E20.10203
G1 X115.573 Y95.167 E20.12972
G1 X115.174 Y94.435 E20.15745
G1 X114.748 Y93.717 E20.18522
G1 X114.301 Y93.016 E20.21287
G1 X113.934 Y92.478 E20.23453
G1 X114.566 Y93.391 E20.27146
G1 F1500 E19.57146
G0 F5400 X116.877 Y104.319
G1 F1500 E20.27146
G1 F1800 X114.551 Y103.503 E20.35345
G1 X114.548 Y103.494 E20.35377
G1 X115.632 Y102.733 E20.39782
G1 X115.802 Y103.942 E20.43842
G1 X116.877 Y104.319 E20.47631
G1 F1500 E19.77631
G0 F5400 X116.877 Y109.681
G1 F1500 E20.47631
G1 F1800 X115.802 Y110.058 E20.5142
G1 X115.632 Y111.267 E20.55481
G1 X114.544 Y110.502 E20.59905
G1 X116.877 Y109.681 E20.68131
G1 F1500 E19.98131
G0 F5400 X120.943 Y114.987
G1 F1500 E20.68131
G1 F1800 X121.39 Y115.283 E20.69914
G1 X121.861 Y115.563 E20.71736
G1 X122.347 Y115.819 E20.73563
G1 X122.844 Y116.051 E20.75388
G1 X123.818 Y116.447 E20.78885
G1 X124.271 Y116.655 E20.80543
G1 X124.701 Y116.875 E20.82149
G1 X125.163 Y117.139 E20.83919
G1 X125.545 Y117.383 E20.85426
G1 X125.976 Y117.685 E20.87177
G1 X126.372 Y117.988 E20.88835
G1 X126.745 Y118.303 E20.90459
G1 X127.117 Y118.648 E20.92147
G1 X127.445 Y118.98 E20.93699
G1 X127.067 Y118.694 E20.95275
G1 X126.655 Y118.413 E20.96934
G1 X126.226 Y118.154 E20.98601
G1 X125.785 Y117.92 E21.00261
G1 X125.329 Y117.708 E21.01934
G1 X124.863 Y117.525 E21.03599
G1 X124.39 Y117.367 E21.05258
G1 X123.905 Y117.235 E21.06929
G1 X123.415 Y117.13 E21.08596
G1 X122.922 Y117.054 E21.10255
G1 X122.423 Y117.004 E21.11923
G1 X121.923 Y116.983 E21.13588
G1 X121.423 Y116.989 E21.15251
G1 X120.924 Y117.024 E21.16915
G1 X120.426 Y117.084 E21.18583
G1 X119.932 Y117.175 E21.20254
G1 X119.447 Y117.292 E21.21913
G1 X118.965 Y117.435 E21.23585
G1 X118.497 Y117.606 E21.25242
G1 X118.036 Y117.8 E21.26906
G1 X117.586 Y118.022 E21.28575
G1 X117.15 Y118.268 E21.3024
G1 X116.728 Y118.537 E21.31904
G1 X116.322 Y118.831 E21.33572
G1 X115.933 Y119.145 E21.35234
G1 X115.561 Y119.482 E21.36904
G1 X115.211 Y119.838 E21.38564
G1 X114.878 Y120.213 E21.40232
G1 X114.566 Y120.609 E21.41909
G1 X113.851 Y121.644 E21.46093
G1 X114.305 Y120.978 E21.48774
G1 X114.751 Y120.276 E21.5154
G1 X115.177 Y119.559 E21.54314
G1 X115.576 Y118.827 E21.57087
G1 X115.952 Y118.084 E21.59857
G1 X116.304 Y117.329 E21.62627
G1 X116.63 Y116.561 E21.65402
G1 X116.93 Y115.786 E21.68166
G1 X117.207 Y114.998 E21.70944
G1 X117.465 Y114.178 E21.73804
G1 X117.522 Y113.899 E21.74751
G1 X117.537 Y113.592 E21.75773
G1 X117.507 Y113.282 E21.76809
G1 X117.424 Y112.978 E21.77857
G1 X117.301 Y112.694 E21.78886
G1 X117.131 Y112.431 E21.79928
G1 X116.924 Y112.198 E21.80965
G1 X116.719 Y112.029 E21.81848
G1 X120.943 Y114.987 E21.99
G1 F1500 E21.29
G0 F5400 X124.523 Y107.001
G1 F1500 E21.99
G1 F1800 X122.509 Y107.709 E22.061
G1 X122.509 Y106.291 E22.10816
G1 X124.523 Y107.001 E22.17919
G1 F1500 E21.47919
G0 F5400 X86.936 Y127.508
G1 F1500 E22.17919
G1 F1800 X102.62 Y130.118 E22.70802
G1 X103.525 Y129.721 E22.74088
G1 X104.265 Y129.367 E22.76817
G1 X104.992 Y128.989 E22.79542
G1 X105.708 Y128.587 E22.82273
G1 X106.41 Y128.16 E22.85006
G1 X107.095 Y127.713 E22.87727
G1 X107.767 Y127.243 E22.90454
G1 X108.424 Y126.751 E22.93184
G1 X109.064 Y126.238 E22.95912
G1 X109.687 Y125.703 E22.98644
G1 X110.291 Y125.148 E23.01372
G1 X110.876 Y124.575 E23.04095
G1 X111.444 Y123.983 E23.06824
G1 X111.99 Y123.372 E23.09549
G1 X112.518 Y122.744 E23.12278
G1 X113.024 Y122.098 E23.15008
G1 X113.509 Y121.435 E23.1774
G1 X113.971 Y120.758 E23.20466
G1 X114.41 Y120.067 E23.23189
G1 X114.829 Y119.361 E23.25919
G1 X115.222 Y118.641 E23.28647
G1 X115.592 Y117.909 E23.31375
G1 X115.938 Y117.166 E23.34102
G1 X116.259 Y116.41 E23.36833
G1 X116.555 Y115.647 E23.39555
G1 X116.827 Y114.872 E23.42287
G1 X117.077 Y114.077 E23.45059
G1 X117.124 Y113.849 E23.45833
G1 X117.136 Y113.602 E23.46656
G1 X117.112 Y113.354 E23.47484
G1 X117.046 Y113.111 E23.48322
G1 X116.947 Y112.883 E23.49149
G1 X116.812 Y112.674 E23.49976
G1 X116.646 Y112.487 E23.50808
G1 X116.472 Y112.344 E23.51557
G1 X114.326 Y110.841 E23.60271
G1 X114.259 Y110.786 E23.60559
G1 X114.214 Y110.735 E23.60786
G1 X114.185 Y110.69 E23.60964
G1 X114.159 Y110.629 E23.61184
G1 X114.144 Y110.572 E23.6138
G1 X114.138 Y110.508 E23.61594
G1 X114.141 Y110.446 E23.618
G1 X114.176 Y110.328 E23.6221
G1 X114.249 Y110.224 E23.62632
G1 X114.347 Y110.149 E23.63043
G1 X114.418 Y110.118 E23.63301
G1 X122.109 Y107.426 E23.90403
G1 X122.109 Y106.574 E23.93236
G1 X114.418 Y103.882 E24.20339
G1 X114.347 Y103.851 E24.20596
G1 X114.249 Y103.776 E24.21007
G1 X114.176 Y103.672 E24.21429
G1 X114.155 Y103.618 E24.21622
G1 X114.141 Y103.554 E24.2184
G1 X114.144 Y103.428 E24.22259
G1 X114.185 Y103.31 E24.22675
G1 X114.259 Y103.214 E24.23078
G1 X114.326 Y103.159 E24.23366
