;FLAVOR:Marlin
;TIME:1561
;Filament used: 1.52069m
;Layer height: 0.2
;Generated with Cura_SteamEngine 3.1.0
M190 S60
M104 S215
M109 S215
M82 ; absolute extrusion mode
G28 ;Home
G1 Z15.0 F6000 ;Move the platform down 15mm
;Prime the extruder
G92 E0
G1 F200 E3
G92 E0
;LAYER_COUNT:61
;LAYER:0
M107
G0 F5400 X84.725 Y84.183 Z0.2
;TYPE:SKIRT
G1 F1800 X85.131 Y83.825 E0.018
G1 X85.547 Y83.549 E0.03461
G1 X85.966 Y83.338 E0.05021
G1 X86.365 Y83.192 E0.06434
G1 X86.722 Y83.097 E0.07663
G1 X102.379 Y80.48 E0.60461
G1 X102.778 Y80.454 E0.61791
G1 X103.174 Y80.508 E0.6312
G1 X103.428 Y80.587 E0.64005
G1 X105.363 Y81.333 E0.70902
G1 X105.499 Y81.391 E0.71394
G1 X107.002 Y82.102 E0.76924
G1 X107.135 Y82.171 E0.77422
G1 X112.803 Y85.39 E0.99102
G1 X117.762 Y87.894 E1.1758
G1 X122.844 Y90.11 E1.36019
G1 X125.451 Y91.119 E1.45317
G1 X128.784 Y92.357 E1.57143
G1 X129.143 Y92.533 E1.58473
G1 X129.578 Y92.898 E1.60361
G1 X129.784 Y93.128 E1.61388
G1 X130.019 Y93.45 E1.62714
G1 X130.127 Y93.663 E1.63508
G1 X130.256 Y93.959 E1.64582
G1 X130.379 Y94.339 E1.65911
G1 X130.421 Y94.667 E1.67011
G1 X130.44 Y95.084 E1.68399
G1 X130.431 Y95.388 E1.6941
G1 X130.178 Y97.744 E1.77292
G1 X129.811 Y103.296 E1.95798
G1 X129.759 Y108.832 E2.14212
G1 X130.019 Y114.377 E2.32675
G1 X130.443 Y118.78 E2.47387
G1 X130.425 Y119.302 E2.49124
G1 X130.36 Y119.69 E2.50432
G1 X130.254 Y120.076 E2.51764
G1 X130.066 Y120.447 E2.53147
G1 X129.857 Y120.77 E2.54427
G1 X129.608 Y121.082 E2.55754
G1 X129.321 Y121.324 E2.57003
G1 X128.998 Y121.549 E2.58312
G1 X128.515 Y121.796 E2.60117
G1 X126.462 Y122.514 E2.6735
G1 X121.283 Y124.534 E2.8584
G1 X116.236 Y126.838 E3.04293
G1 X111.342 Y129.417 E3.22692
G1 X107.857 Y131.444 E3.36101
G1 X107.761 Y131.496 E3.36464
G1 X106.265 Y132.26 E3.42051
G1 X106.105 Y132.333 E3.42636
G1 X103.469 Y133.4 E3.52095
G1 X103.086 Y133.512 E3.53422
G1 X102.688 Y133.546 E3.5475
G1 X102.388 Y133.518 E3.55753
G1 X86.62 Y130.875 E4.08929
G1 X86.235 Y130.77 E4.10256
G1 X85.991 Y130.657 E4.1115
G1 X85.295 Y130.276 E4.13789
G1 X84.965 Y130.05 E4.1512
G1 X84.732 Y129.818 E4.16213
G1 X84.299 Y129.309 E4.18436
G1 X84.071 Y128.98 E4.19767
G1 X83.958 Y128.738 E4.20656
G1 X83.725 Y128.139 E4.22793
G1 X83.618 Y127.754 E4.24122
G1 X83.589 Y127.455 E4.25122
G1 X83.556 Y125.847 E4.30471
G1 X83.581 Y125.493 E4.31651
G1 X84.527 Y119.527 E4.51742
G1 X85.081 Y114.007 E4.70194
G1 X85.319 Y108.476 E4.88607
G1 X85.245 Y102.923 E5.07078
G1 X84.858 Y97.399 E5.25496
G1 X84.158 Y91.892 E5.4396
G1 X83.572 Y88.324 E5.55986
G1 X83.548 Y87.918 E5.57339
G1 X83.609 Y86.429 E5.62295
G1 X83.665 Y86.034 E5.63622
G1 X83.77 Y85.721 E5.6472
G1 X84.019 Y85.142 E5.66817
G1 X84.212 Y84.792 E5.68146
G1 X84.344 Y84.623 E5.68859
G1 X84.725 Y84.183 E5.70795
G0 F5400 X85.027 Y84.445
G1 F1800 X85.352 Y84.159 E5.72235
G1 X85.768 Y83.883 E5.73895
G1 X86.103 Y83.713 E5.75145
G1 X86.502 Y83.567 E5.76558
G1 X86.788 Y83.492 E5.77541
G1 X102.445 Y80.875 E6.30339
G1 X102.802 Y80.856 E6.31528
G1 X103.285 Y80.96 E6.33172
G1 X105.22 Y81.706 E6.40069
G1 X105.328 Y81.753 E6.40461
G1 X106.831 Y82.464 E6.45991
G1 X106.937 Y82.519 E6.46388
G1 X112.612 Y85.742 E6.68095
G1 X117.573 Y88.247 E6.8658
G1 X122.717 Y90.49 E7.05244
G1 X125.312 Y91.494 E7.14499
G1 X128.645 Y92.732 E7.26324
G1 X128.964 Y92.893 E7.27513
G1 X129.28 Y93.165 E7.289
G1 X129.486 Y93.395 E7.29927
G1 X129.761 Y93.823 E7.31619
G1 X129.89 Y94.119 E7.32693
G1 X129.995 Y94.46 E7.33879
G1 X130.021 Y94.685 E7.34633
G1 X130.04 Y95.102 E7.36021
G1 X130.033 Y95.346 E7.36833
G1 X129.78 Y97.702 E7.44714
G1 X129.412 Y103.283 E7.63317
G1 X129.358 Y108.847 E7.81824
G1 X129.619 Y114.394 E8.00293
G1 X130.045 Y118.819 E8.15079
G1 X130.03 Y119.236 E8.16467
G1 X129.965 Y119.624 E8.17775
G1 X129.867 Y119.968 E8.18965
G1 X129.73 Y120.229 E8.19945
G1 X129.521 Y120.552 E8.21225
G1 X129.295 Y120.829 E8.22414
G1 X129.093 Y120.996 E8.23286
G1 X128.77 Y121.221 E8.24595
G1 X128.383 Y121.418 E8.26039
G1 X126.344 Y122.131 E8.33224
G1 X121.12 Y124.168 E8.51873
G1 X116.076 Y126.471 E8.70315
G1 X111.124 Y129.08 E8.88932
G1 X107.656 Y131.098 E9.02277
G1 X107.579 Y131.14 E9.02569
G1 X106.083 Y131.904 E9.08156
G1 X105.955 Y131.962 E9.08623
G1 X103.319 Y133.029 E9.18082
G1 X102.975 Y133.125 E9.1927
G1 X102.455 Y133.124 E9.20999
G1 X86.687 Y130.481 E9.74175
G1 X86.183 Y130.306 E9.7595
G1 X85.487 Y129.925 E9.78589
G1 X85.194 Y129.72 E9.79778
G1 X85.036 Y129.559 E9.80529
G1 X84.603 Y129.05 E9.82751
G1 X84.331 Y128.593 E9.8452
G1 X84.098 Y127.994 E9.86658
G1 X84.006 Y127.649 E9.87845
G1 X83.989 Y127.447 E9.8852
G1 X83.956 Y125.839 E9.93869
G1 X83.976 Y125.555 E9.94816
G1 X84.924 Y119.577 E10.14947
G1 X85.479 Y114.045 E10.33439
G1 X85.719 Y108.47 E10.51999
G1 X85.645 Y102.908 E10.705
G1 X85.256 Y97.357 E10.89008
G1 X84.554 Y91.83 E11.07538
G1 X83.967 Y88.259 E11.19575
G1 X83.947 Y87.935 E11.20655
G1 X84.008 Y86.446 E11.25611
G1 X84.063 Y86.092 E11.26803
G1 X84.137 Y85.879 E11.27553
G1 X84.386 Y85.3 E11.29649
G1 X84.646 Y84.885 E11.31278
G1 X85.027 Y84.445 E11.33214
G0 F5400 X85.33 Y84.706
G1 F1800 X85.574 Y84.492 E11.34293
G1 X85.99 Y84.216 E11.35954
G1 X86.241 Y84.089 E11.36889
G1 X86.64 Y83.943 E11.38302
G1 X86.854 Y83.886 E11.39039
G1 X102.511 Y81.269 E11.91837
G1 X102.82 Y81.258 E11.92865
G1 X103.141 Y81.333 E11.93961
G1 X105.076 Y82.079 E12.00859
G1 X105.157 Y82.114 E12.01152
G1 X106.66 Y82.825 E12.06683
G1 X106.74 Y82.867 E12.06983
G1 X112.421 Y86.093 E12.28712
G1 X117.411 Y88.613 E12.47305
G1 X122.553 Y90.856 E12.65964
G1 X125.173 Y91.869 E12.75307
G1 X128.506 Y93.107 E12.87132
G1 X128.779 Y93.251 E12.88159
G1 X128.982 Y93.431 E12.89061
G1 X129.188 Y93.661 E12.90088
G1 X129.394 Y93.983 E12.9136
G1 X129.523 Y94.279 E12.92434
G1 X129.622 Y94.703 E12.93882
G1 X129.641 Y95.12 E12.9527
G1 X129.635 Y95.303 E12.95879
G1 X129.38 Y97.68 E13.0383
G1 X129.012 Y103.253 E13.22407
G1 X128.958 Y108.844 E13.41003
G1 X129.221 Y114.45 E13.59669
G1 X129.646 Y118.857 E13.74395
G1 X129.636 Y119.17 E13.75437
G1 X129.571 Y119.558 E13.76745
G1 X129.481 Y119.854 E13.77774
G1 X129.394 Y120.012 E13.78374
G1 X129.185 Y120.335 E13.79654
G1 X128.985 Y120.571 E13.80683
G1 X128.864 Y120.668 E13.81198
G1 X128.541 Y120.893 E13.82508
G1 X128.251 Y121.041 E13.83591
G1 X126.185 Y121.764 E13.90871
G1 X120.975 Y123.795 E14.09469
G1 X115.887 Y126.118 E14.28073
G1 X110.924 Y128.733 E14.46731
G1 X107.454 Y130.752 E14.60083
G1 X107.397 Y130.784 E14.60301
G1 X105.901 Y131.548 E14.65888
G1 X105.805 Y131.591 E14.66238
G1 X103.169 Y132.658 E14.75696
G1 X102.87 Y132.736 E14.76724
G1 X102.521 Y132.729 E14.77885
G1 X86.753 Y130.086 E15.31061
G1 X86.375 Y129.956 E15.32391
G1 X85.679 Y129.575 E15.3503
G1 X85.341 Y129.3 E15.36479
G1 X84.908 Y128.791 E15.38702
G1 X84.704 Y128.448 E15.40029
G1 X84.471 Y127.849 E15.42167
G1 X84.389 Y127.439 E15.43557
G1 X84.356 Y125.831 E15.48907
G1 X84.371 Y125.618 E15.49617
G1 X85.321 Y119.628 E15.69789
G1 X85.878 Y114.067 E15.88377
G1 X86.12 Y108.482 E16.0697
G1 X86.044 Y102.892 E16.25565
G1 X85.654 Y97.313 E16.44166
G1 X84.952 Y91.786 E16.62696
G1 X84.362 Y88.195 E16.748
G1 X84.347 Y87.951 E16.75613
G1 X84.408 Y86.462 E16.8057
G1 X84.505 Y86.037 E16.8202
G1 X84.754 Y85.458 E16.84116
G1 X84.949 Y85.146 E16.8534
G1 X85.33 Y84.706 E16.87276
G1 F1500 E16.17276
G0 F5400 X117.919 Y96.477
;TYPE:WALL-INNER
G1 F1500 E16.87276
G1 F1800 X118.424 Y96.709 E16.89124
G1 X118.941 Y96.909 E16.90968
G1 X119.465 Y97.081 E16.92802
G1 X119.701 Y97.143 E16.93614
G1 X119.527 Y97.213 E16.94237
G1 X118.993 Y97.464 E16.962
G1 X118.471 Y97.739 E16.98162
G1 X118.301 Y97.84 E16.9882
G1 X118.262 Y97.589 E16.99665
G1 X118.143 Y97.234 E17.0091
G1 X117.786 Y96.407 E17.03906
G1 X117.919 Y96.477 E17.04406
G1 F1500 E16.34406
G0 F5400 X118.471 Y116.261
G1 F1500 E17.04406
G1 F1800 X118.993 Y116.536 E17.06368
G1 X119.527 Y116.787 E17.08331
G1 X119.701 Y116.857 E17.08955
G1 X119.465 Y116.919 E17.09766
G1 X118.941 Y117.091 E17.116
G1 X118.424 Y117.291 E17.13444
G1 X117.919 Y117.523 E17.15293
G1 X117.786 Y117.592 E17.15791
G1 X118.143 Y116.764 E17.1879
G1 X118.262 Y116.411 E17.20029
G1 X118.301 Y116.16 E17.20874
G1 X118.471 Y116.261 E17.21532
G0 F5400 X118.177 Y115.622
G1 F1800 X118.666 Y115.912 E17.23422
G1 X119.171 Y116.178 E17.25321
G1 X119.687 Y116.42 E17.27216
G1 X120.215 Y116.633 E17.2911
G1 X120.752 Y116.822 E17.31004
G1 X121.27 Y116.975 E17.328
G1 X121.143 Y116.986 E17.33224
G1 X120.621 Y117.062 E17.34978
G1 X120.097 Y117.166 E17.36755
G1 X119.579 Y117.303 E17.38537
G1 X119.076 Y117.468 E17.40298
G1 X118.58 Y117.66 E17.42067
G1 X118.095 Y117.882 E17.43841
G1 X117.624 Y118.129 E17.4561
G1 X117.166 Y118.403 E17.47385
G1 X116.841 Y118.626 E17.48696
G1 X117.096 Y118.124 E17.50569
G1 X117.438 Y117.393 E17.53253
G1 X117.769 Y116.621 E17.56047
G1 X117.872 Y116.316 E17.57118
G1 X117.928 Y115.956 E17.58329
G1 X117.934 Y115.602 E17.59507
G1 X117.914 Y115.447 E17.60027
G1 X118.177 Y115.622 E17.61077
G1 F1500 E16.91077
G0 F5400 X120.319 Y107
G1 F1500 E17.61077
G1 F1800 X119.908 Y107.145 E17.62527
G1 X119.908 Y106.856 E17.63488
G1 X120.319 Y107 E17.64937
G1 F1500 E16.94937
G0 F5400 X117.166 Y95.597
G1 F1500 E17.64937
G1 F1800 X117.624 Y95.871 E17.66712
G1 X118.095 Y96.118 E17.68481
G1 X118.58 Y96.34 E17.70255
G1 X119.076 Y96.532 E17.72024
G1 X119.579 Y96.697 E17.73784
G1 X120.097 Y96.834 E17.75567
G1 X120.621 Y96.938 E17.77343
G1 X121.143 Y97.014 E17.79098
G1 X121.27 Y97.025 E17.79522
G1 X120.752 Y97.178 E17.81318
G1 X120.215 Y97.367 E17.83212
G1 X119.687 Y97.58 E17.85105
G1 X119.171 Y97.822 E17.87001
G1 X118.666 Y98.088 E17.88899
G1 X118.177 Y98.378 E17.9079
G1 X117.914 Y98.552 E17.91839
G1 X117.934 Y98.395 E17.92366
G1 X117.928 Y98.043 E17.93536
G1 X117.872 Y97.684 E17.94745
G1 X117.769 Y97.377 E17.95822
G1 X117.435 Y96.601 E17.98632
G1 X117.093 Y95.87 E18.01316
G1 X116.841 Y95.374 E18.03167
G1 X117.166 Y95.597 E18.04477
G1 F1500 E17.34477
G0 F5400 X121.936 Y97.276
G1 F1500 E18.04477
G1 F1800 X121.404 Y97.403 E18.06297
G1 X120.875 Y97.559 E18.08131
G1 X120.356 Y97.741 E18.0996
G1 X119.847 Y97.947 E18.11787
G1 X119.349 Y98.18 E18.13615
G1 X118.862 Y98.437 E18.15447
G1 X118.39 Y98.717 E18.17272
G1 X117.943 Y99.013 E18.19055
G1 X116.724 Y99.867 E18.24006
G1 X116.915 Y99.709 E18.2483
G1 X117.119 Y99.486 E18.25835
G1 X117.283 Y99.236 E18.2683
G1 X117.41 Y98.965 E18.27825
G1 X117.496 Y98.672 E18.28841
G1 X117.534 Y98.373 E18.29843
G1 X117.529 Y98.078 E18.30825
G1 X117.482 Y97.779 E18.31831
G1 X117.395 Y97.52 E18.3274
G1 X117.07 Y96.765 E18.35474
G1 X116.733 Y96.045 E18.38118
G1 X116.372 Y95.334 E18.4077
G1 X115.989 Y94.637 E18.43415
G1 X115.583 Y93.951 E18.46067
G1 X115.155 Y93.279 E18.48717
G1 X114.706 Y92.622 E18.51363
G1 X114.349 Y92.129 E18.53388
G1 X115.13 Y93.206 E18.57813
G1 X115.456 Y93.602 E18.59519
G1 X115.803 Y93.977 E18.61218
G1 X116.169 Y94.331 E18.62911
G1 X116.557 Y94.664 E18.64612
G1 X116.962 Y94.972 E18.66304
G1 X117.382 Y95.26 E18.67998
G1 X117.82 Y95.522 E18.69696
G1 X118.271 Y95.759 E18.7139
G1 X118.735 Y95.971 E18.73087
G1 X119.211 Y96.155 E18.74784
G1 X119.693 Y96.313 E18.76471
G1 X120.187 Y96.444 E18.78171
G1 X120.689 Y96.544 E18.79874
G1 X121.19 Y96.617 E18.81558
G1 X121.698 Y96.662 E18.83254
G1 X122.209 Y96.678 E18.84954
G1 X122.718 Y96.666 E18.86648
G1 X123.226 Y96.624 E18.88343
G1 X123.731 Y96.553 E18.90039
G1 X124.231 Y96.453 E18.91735
G1 X124.725 Y96.327 E18.93431
G1 X125.21 Y96.172 E18.95124
G1 X125.687 Y95.988 E18.96825
G1 X126.151 Y95.779 E18.98517
G1 X126.603 Y95.545 E19.0021
G1 X127.04 Y95.285 E19.01902
G1 X127.402 Y95.046 E19.03344
G1 X127.067 Y95.294 E19.04731
G1 X126.646 Y95.579 E19.06422
G1 X126.234 Y95.83 E19.08026
G1 X125.775 Y96.082 E19.09768
G1 X125.348 Y96.291 E19.11349
G1 X124.882 Y96.494 E19.1304
G1 X124.403 Y96.677 E19.14745
G1 X123.921 Y96.837 E19.16434
G1 X123.468 Y96.964 E19.17999
G1 X122.954 Y97.084 E19.19754
G1 X121.936 Y97.276 E19.232
G1 F1500 E18.532
G0 F5400 X121.523 Y107.001
G1 F1500 E19.232
G1 F1800 X119.508 Y107.709 E19.30304
G1 X119.508 Y106.291 E19.3502
G1 X121.523 Y107.001 E19.42126
G1 F1500 E18.72126
G0 F5400 X114.407 Y109.496
G1 F1500 E19.42126
G1 F1800 X112.802 Y110.058 E19.47782
G1 X112.632 Y111.267 E19.51842
G1 X111.544 Y110.502 E19.56266
G1 X114.407 Y109.496 E19.66359
G1 F1500 E18.96359
G0 F5400 X114.407 Y104.504
G1 F1500 E19.66359
G1 F1800 X111.544 Y103.498 E19.76452
G1 X112.632 Y102.733 E19.80876
G1 X112.802 Y103.942 E19.84937
G1 X114.407 Y104.504 E19.90593
G1 F1500 E19.20593
G0 F5400 X114.363 Y121.853
G1 F1500 E19.90593
G1 F1800 X114.711 Y121.373 E19.92565
G1 X115.158 Y120.716 E19.95208
G1 X115.586 Y120.044 E19.97858
G1 X115.992 Y119.357 E20.00512
G1 X116.375 Y118.66 E20.03157
G1 X116.736 Y117.949 E20.05809
G1 X117.073 Y117.229 E20.08453
G1 X117.395 Y116.478 E20.11171
G1 X117.482 Y116.22 E20.12077
G1 X117.529 Y115.921 E20.13083
G1 X117.534 Y115.625 E20.14068
G1 X117.494 Y115.323 E20.15081
G1 X117.408 Y115.031 E20.16094
G1 X117.282 Y114.765 E20.17073
G1 X117.118 Y114.514 E20.1807
G1 X116.914 Y114.289 E20.1908
G1 X116.726 Y114.135 E20.19888
G1 X117.943 Y114.987 E20.24829
G1 X118.39 Y115.283 E20.26612
G1 X118.862 Y115.563 E20.28438
G1 X119.349 Y115.82 E20.30269
G1 X119.847 Y116.053 E20.32098
G1 X120.356 Y116.259 E20.33924
G1 X120.875 Y116.441 E20.35754
G1 X121.404 Y116.597 E20.37588
G1 X121.936 Y116.724 E20.39407
G1 X122.954 Y116.916 E20.42853
G1 X123.468 Y117.036 E20.44608
G1 X123.923 Y117.163 E20.46179
G1 X124.401 Y117.322 E20.47855
G1 X124.882 Y117.506 E20.49568
G1 X125.348 Y117.709 E20.51258
G1 X125.773 Y117.917 E20.52832
G1 X126.235 Y118.17 E20.54584
G1 X126.63 Y118.411 E20.56123
G1 X127.076 Y118.711 E20.57911
G1 X127.412 Y118.96 E20.59302
G1 X127.04 Y118.715 E20.60783
G1 X126.603 Y118.455 E20.62475
G1 X126.151 Y118.221 E20.64167
G1 X125.687 Y118.012 E20.6586
G1 X125.21 Y117.828 E20.6756
G1 X124.725 Y117.673 E20.69254
G1 X124.231 Y117.547 E20.7095
G1 X123.731 Y117.447 E20.72646
G1 X123.226 Y117.376 E20.74342
G1 X122.718 Y117.334 E20.76037
G1 X122.209 Y117.322 E20.7773
G1 X121.698 Y117.338 E20.79431
G1 X121.19 Y117.383 E20.81127
G1 X120.689 Y117.456 E20.82811
G1 X120.187 Y117.556 E20.84514
G1 X119.693 Y117.687 E20.86213
G1 X119.211 Y117.845 E20.879
G1 X118.735 Y118.029 E20.89598
G1 X118.271 Y118.241 E20.91294
G1 X117.82 Y118.478 E20.92989
G1 X117.382 Y118.74 E20.94687
G1 X116.962 Y119.028 E20.9638
G1 X116.557 Y119.336 E20.98073
G1 X116.169 Y119.669 E20.99773
G1 X115.803 Y120.023 E21.01467
G1 X115.456 Y120.398 E21.03166
G1 X115.13 Y120.794 E21.04872
G1 X114.363 Y121.853 E21.09221
G1 F1500 E20.39221
G0 F5400 X86.936 Y127.508
G1 F1500 E21.09221
G1 F1800 X102.605 Y130.116 E21.62053
G1 X103.479 Y129.781 E21.65167
G1 X104.202 Y129.476 E21.67777
G1 X104.913 Y129.149 E21.70379
G1 X105.614 Y128.8 E21.72984
G1 X106.305 Y128.428 E21.75594
G1 X106.981 Y128.035 E21.78195
G1 X107.646 Y127.619 E21.80804
G1 X108.297 Y127.183 E21.8341
G1 X108.933 Y126.727 E21.86013
G1 X109.555 Y126.251 E21.88618
G1 X110.162 Y125.755 E21.91225
G1 X110.753 Y125.239 E21.93834
G1 X111.327 Y124.705 E21.96442
G1 X111.881 Y124.152 E21.99045
G1 X112.42 Y123.583 E22.01652
G1 X112.939 Y122.997 E22.04256
G1 X113.44 Y122.396 E22.06858
G1 X113.923 Y121.777 E22.0947
G1 X114.384 Y121.143 E22.12077
G1 X114.824 Y120.496 E22.14679
G1 X115.245 Y119.835 E22.17286
G1 X115.644 Y119.159 E22.19896
G1 X116.021 Y118.473 E22.225
G1 X116.376 Y117.774 E22.25108
G1 X116.708 Y117.065 E22.27711
G1 X117.021 Y116.335 E22.30353
G1 X117.092 Y116.124 E22.31094
G1 X117.13 Y115.886 E22.31895
G1 X117.134 Y115.648 E22.32687
G1 X117.102 Y115.407 E22.33496
G1 X117.033 Y115.174 E22.34304
G1 X116.932 Y114.96 E22.35091
G1 X116.801 Y114.759 E22.35889
G1 X116.638 Y114.58 E22.36694
G1 X116.472 Y114.444 E22.37408
G1 X111.326 Y110.841 E22.58302
G1 X111.257 Y110.785 E22.58597
G1 X111.22 Y110.743 E22.58783
G1 X111.183 Y110.685 E22.59012
G1 X111.16 Y110.632 E22.59204
G1 X111.143 Y110.565 E22.59434
G1 X111.138 Y110.511 E22.59615
G1 X111.141 Y110.444 E22.59838
G1 X111.175 Y110.328 E22.6024
G1 X111.205 Y110.277 E22.60437
G1 X111.249 Y110.223 E22.60668
G1 X111.346 Y110.15 E22.61072
G1 X111.418 Y110.118 E22.61334
