;FLAVOR:Marlin
;TIME:1628
;Filament used: 1.52249m
;Layer height: 0.2
;Generated with Cura_SteamEngine 3.1.0
M190 S60
M104 S215
M109 S215
M82 ; absolute extrusion mode
G28 ;Home
G1 Z15.0 F6000 ;Move the platform down 15mm
;Prime the extruder
G92 E0
G1 F200 E3
G92 E0
;LAYER_COUNT:61
;LAYER:0
M107
G0 F5400 X84.848 Y84.055 Z0.2
;TYPE:SKIRT
G1 F1800 X85.041 Y83.911 E0.00801
G1 X85.693 Y83.483 E0.03395
G1 X86.048 Y83.298 E0.04726
G1 X86.456 Y83.183 E0.06136
G1 X102.341 Y80.487 E0.59726
G1 X102.74 Y80.46 E0.61056
G1 X103.136 Y80.513 E0.62385
G1 X103.383 Y80.588 E0.63243
G1 X105.978 Y81.568 E0.72469
G1 X106.17 Y81.652 E0.73166
G1 X108.341 Y82.744 E0.81249
G1 X108.447 Y82.802 E0.81651
G1 X111.75 Y84.723 E0.94359
G1 X116.681 Y87.318 E1.12892
G1 X121.739 Y89.625 E1.31383
G1 X124.285 Y90.661 E1.40525
G1 X128.614 Y92.254 E1.55867
G1 X129.09 Y92.507 E1.5766
G1 X129.349 Y92.693 E1.58721
G1 X129.648 Y92.957 E1.60047
G1 X129.922 Y93.331 E1.61589
G1 X130.156 Y93.744 E1.63168
G1 X130.317 Y94.11 E1.64498
G1 X130.402 Y94.494 E1.65806
G1 X130.439 Y94.806 E1.66851
G1 X130.442 Y95.254 E1.68341
G1 X130.208 Y97.445 E1.7567
G1 X129.825 Y102.975 E1.94107
G1 X129.755 Y108.527 E2.12574
G1 X129.998 Y114.059 E2.30992
G1 X130.442 Y118.9 E2.4716
G1 X130.438 Y119.3 E2.48491
G1 X130.337 Y119.747 E2.50015
G1 X130.18 Y120.193 E2.51588
G1 X130.01 Y120.555 E2.52918
G1 X129.788 Y120.857 E2.54165
G1 X129.557 Y121.117 E2.55321
G1 X129.263 Y121.388 E2.56651
G1 X128.783 Y121.654 E2.58476
G1 X121.734 Y124.379 E2.83612
G1 X116.674 Y126.687 E3.0211
G1 X111.754 Y129.275 E3.206
G1 X107.688 Y131.61 E3.36195
G1 X107.506 Y131.703 E3.36875
G1 X104.641 Y132.98 E3.47307
G1 X104.481 Y133.043 E3.47879
G1 X103.368 Y133.428 E3.51796
G1 X102.979 Y133.52 E3.53126
G1 X102.384 Y133.511 E3.55105
G1 X86.621 Y130.876 E4.0826
G1 X86.236 Y130.771 E4.09588
G1 X85.991 Y130.657 E4.10487
G1 X85.295 Y130.276 E4.13126
G1 X84.965 Y130.05 E4.14456
G1 X84.809 Y129.904 E4.15167
G1 X84.509 Y129.59 E4.16611
G1 X84.263 Y129.275 E4.1794
G1 X84.142 Y129.053 E4.18781
G1 X83.779 Y128.274 E4.2164
G1 X83.647 Y127.897 E4.22968
G1 X83.592 Y127.465 E4.24417
G1 X83.562 Y125.778 E4.30029
G1 X83.587 Y125.427 E4.31199
G1 X84.528 Y119.521 E4.5109
G1 X85.081 Y114.007 E4.69522
G1 X85.319 Y108.476 E4.87935
G1 X85.245 Y102.922 E5.06409
G1 X84.858 Y97.394 E5.2484
G1 X84.156 Y91.877 E5.43338
G1 X83.585 Y88.538 E5.54605
G1 X83.556 Y88.159 E5.55869
G1 X83.59 Y86.541 E5.61252
G1 X83.639 Y86.144 E5.62582
G1 X83.732 Y85.842 E5.63633
G1 X83.978 Y85.225 E5.65842
G1 X84.267 Y84.725 E5.67763
G1 X84.57 Y84.342 E5.69388
G1 X84.848 Y84.055 E5.70717
G0 F5400 X85.261 Y84.245
G1 F1800 X85.913 Y83.817 E5.73311
G1 X86.232 Y83.656 E5.74499
G1 X86.523 Y83.578 E5.75501
G1 X102.408 Y80.882 E6.2909
G1 X102.765 Y80.861 E6.3028
G1 X103.241 Y80.962 E6.31898
G1 X105.836 Y81.942 E6.41124
G1 X105.99 Y82.01 E6.41684
G1 X108.161 Y83.102 E6.49767
G1 X108.246 Y83.148 E6.50088
G1 X111.561 Y85.075 E6.62842
G1 X116.5 Y87.675 E6.81406
G1 X121.583 Y89.994 E6.99988
G1 X124.151 Y91.038 E7.09208
G1 X128.476 Y92.63 E7.24537
G1 X128.856 Y92.831 E7.25967
G1 X129.115 Y93.017 E7.27027
G1 X129.38 Y93.257 E7.28216
G1 X129.574 Y93.528 E7.29325
G1 X129.808 Y93.941 E7.30904
G1 X129.948 Y94.27 E7.32093
G1 X130.005 Y94.542 E7.33017
G1 X130.042 Y94.854 E7.34062
G1 X130.044 Y95.212 E7.35253
G1 X129.811 Y97.402 E7.42578
G1 X129.426 Y102.956 E7.61095
G1 X129.354 Y108.541 E7.79672
G1 X129.598 Y114.093 E7.98156
G1 X130.043 Y118.937 E8.14335
G1 X130.036 Y119.294 E8.15523
G1 X129.959 Y119.614 E8.16618
G1 X129.802 Y120.06 E8.1819
G1 X129.647 Y120.382 E8.19379
G1 X129.489 Y120.592 E8.20253
G1 X129.258 Y120.852 E8.2141
G1 X128.993 Y121.091 E8.22597
G1 X128.639 Y121.281 E8.23933
G1 X121.575 Y124.012 E8.49123
G1 X116.5 Y126.326 E8.67674
G1 X111.556 Y128.928 E8.86256
G1 X107.489 Y131.263 E9.01854
G1 X107.343 Y131.337 E9.02398
G1 X104.478 Y132.614 E9.12831
G1 X104.35 Y132.665 E9.13289
G1 X103.237 Y133.05 E9.17206
G1 X102.889 Y133.128 E9.18393
G1 X102.45 Y133.116 E9.19853
G1 X86.687 Y130.481 E9.73009
G1 X86.183 Y130.306 E9.74783
G1 X85.487 Y129.925 E9.77422
G1 X85.098 Y129.627 E9.79052
G1 X84.798 Y129.313 E9.80496
G1 X84.505 Y128.884 E9.82224
G1 X84.142 Y128.105 E9.85083
G1 X84.028 Y127.766 E9.86272
G1 X83.992 Y127.457 E9.87307
G1 X83.962 Y125.77 E9.92919
G1 X83.982 Y125.49 E9.93853
G1 X84.925 Y119.574 E10.13778
G1 X85.479 Y114.045 E10.32259
G1 X85.719 Y108.47 E10.50819
G1 X85.644 Y102.9 E10.69347
G1 X85.256 Y97.356 E10.87831
G1 X84.554 Y91.829 E11.06362
G1 X83.979 Y88.471 E11.17693
G1 X83.956 Y88.167 E11.18707
G1 X83.99 Y86.549 E11.2409
G1 X84.038 Y86.195 E11.25278
G1 X84.104 Y85.99 E11.25994
G1 X84.35 Y85.373 E11.28203
G1 X84.581 Y84.973 E11.2974
G1 X84.884 Y84.59 E11.31364
G1 X85.261 Y84.245 E11.33064
G0 F5400 X85.48 Y84.58
G1 F1800 X86.132 Y84.152 E11.35658
G1 X86.411 Y84.017 E11.36689
G1 X86.59 Y83.972 E11.37302
G1 X102.475 Y81.276 E11.90892
G1 X102.784 Y81.264 E11.9192
G1 X103.1 Y81.336 E11.92998
G1 X105.695 Y82.316 E12.02224
G1 X105.81 Y82.367 E12.02643
G1 X107.981 Y83.459 E12.10725
G1 X108.045 Y83.494 E12.10968
G1 X111.362 Y85.423 E12.2373
G1 X116.326 Y88.036 E12.42388
G1 X121.415 Y90.357 E12.60992
G1 X124.005 Y91.41 E12.70291
G1 X128.338 Y93.005 E12.85648
G1 X128.623 Y93.156 E12.86721
G1 X128.882 Y93.342 E12.87781
G1 X129.108 Y93.554 E12.88812
G1 X129.226 Y93.725 E12.89503
G1 X129.46 Y94.138 E12.91082
G1 X129.577 Y94.425 E12.92112
G1 X129.608 Y94.589 E12.92668
G1 X129.645 Y94.901 E12.93713
G1 X129.646 Y95.169 E12.94604
G1 X129.413 Y97.352 E13.01906
G1 X129.026 Y102.945 E13.20553
G1 X128.954 Y108.535 E13.39147
G1 X129.2 Y114.125 E13.57757
G1 X129.645 Y118.973 E13.73949
G1 X129.633 Y119.282 E13.74978
G1 X129.582 Y119.481 E13.75661
G1 X129.425 Y119.927 E13.77234
G1 X129.286 Y120.203 E13.78262
G1 X129.19 Y120.326 E13.78781
G1 X128.959 Y120.586 E13.79937
G1 X128.726 Y120.789 E13.80965
G1 X128.495 Y120.908 E13.81829
G1 X121.416 Y123.644 E14.07072
G1 X116.327 Y125.965 E14.25675
G1 X111.381 Y128.568 E14.44265
G1 X107.29 Y130.917 E14.59955
G1 X107.181 Y130.972 E14.60361
G1 X104.316 Y132.249 E14.70794
G1 X104.219 Y132.287 E14.7114
G1 X103.106 Y132.672 E14.75057
G1 X102.803 Y132.735 E14.76087
G1 X102.516 Y132.722 E14.77042
G1 X86.753 Y130.087 E15.30197
G1 X86.375 Y129.956 E15.31528
G1 X85.679 Y129.575 E15.34167
G1 X85.387 Y129.351 E15.35391
G1 X85.087 Y129.037 E15.36836
G1 X84.867 Y128.715 E15.38133
G1 X84.504 Y127.936 E15.40991
G1 X84.411 Y127.641 E15.4202
G1 X84.392 Y127.45 E15.42658
G1 X84.362 Y125.763 E15.4827
G1 X84.377 Y125.553 E15.4897
G1 X85.321 Y119.625 E15.68935
G1 X85.878 Y114.067 E15.87514
G1 X86.12 Y108.482 E16.06107
G1 X86.044 Y102.891 E16.24705
G1 X85.654 Y97.312 E16.43306
G1 X84.951 Y91.78 E16.61853
G1 X84.373 Y88.403 E16.73249
G1 X84.356 Y88.176 E16.74006
G1 X84.39 Y86.558 E16.79388
G1 X84.475 Y86.139 E16.8081
G1 X84.721 Y85.522 E16.8302
G1 X84.895 Y85.221 E16.84176
G1 X85.198 Y84.838 E16.858
G1 X85.48 Y84.58 E16.87072
G1 F1500 E16.17072
G0 F5400 X118.578 Y96.56
;TYPE:WALL-INNER
G1 F1500 E16.87072
G1 F1800 X119.082 Y96.759 E16.88874
G1 X119.421 Y96.871 E16.90061
G1 X119.106 Y96.979 E16.91169
G1 X118.552 Y97.203 E16.93156
G1 X118.323 Y97.309 E16.93996
G1 X118.319 Y97.221 E16.94289
G1 X118.239 Y96.808 E16.95688
G1 X118.111 Y96.45 E16.96952
G1 X118.045 Y96.313 E16.97458
G1 X118.578 Y96.56 E16.99412
G1 F1500 E16.29412
G0 F5400 X118.552 Y116.797
G1 F1500 E16.99412
G1 F1800 X119.106 Y117.021 E17.014
G1 X119.421 Y117.129 E17.02507
G1 X119.082 Y117.241 E17.03695
G1 X118.578 Y117.44 E17.05497
G1 X118.045 Y117.687 E17.07451
G1 X118.111 Y117.548 E17.07962
G1 X118.239 Y117.192 E17.09221
G1 X118.319 Y116.778 E17.10623
G1 X118.323 Y116.691 E17.10913
G1 X118.552 Y116.797 E17.11752
G0 F5400 X118.189 Y116.188
G1 F1800 X118.711 Y116.43 E17.13666
G1 X119.246 Y116.646 E17.15585
G1 X119.79 Y116.833 E17.17498
G1 X120.342 Y116.994 E17.1941
G1 X120.904 Y117.128 E17.21332
G1 X121.059 Y117.156 E17.21856
G1 X120.724 Y117.207 E17.22983
G1 X120.216 Y117.317 E17.24712
G1 X119.714 Y117.453 E17.26442
G1 X119.218 Y117.617 E17.28179
G1 X118.735 Y117.808 E17.29907
G1 X118.262 Y118.025 E17.31638
G1 X117.803 Y118.267 E17.33363
G1 X117.353 Y118.537 E17.35109
G1 X117.091 Y118.717 E17.36166
G1 X117.372 Y118.17 E17.38211
G1 X117.741 Y117.394 E17.41069
G1 X117.852 Y117.086 E17.42158
G1 X117.921 Y116.73 E17.43364
G1 X117.939 Y116.361 E17.44593
G1 X117.903 Y116.037 E17.45677
G1 X118.189 Y116.188 E17.46753
G1 F1500 E16.76753
G0 F5400 X119.32 Y107
G1 F1500 E17.46753
G1 F1800 X118.908 Y107.145 E17.48206
G1 X118.908 Y106.855 E17.4917
G1 X119.32 Y107 E17.50623
G1 F1500 E16.80623
G0 F5400 X117.353 Y95.463
G1 F1500 E17.50623
G1 F1800 X117.803 Y95.733 E17.52368
G1 X118.262 Y95.975 E17.54094
G1 X118.735 Y96.192 E17.55825
G1 X119.218 Y96.383 E17.57553
G1 X119.714 Y96.547 E17.5929
G1 X120.216 Y96.683 E17.6102
G1 X120.724 Y96.793 E17.62749
G1 X121.059 Y96.844 E17.63876
G1 X120.904 Y96.872 E17.644
G1 X120.342 Y97.006 E17.66321
G1 X119.79 Y97.167 E17.68234
G1 X119.246 Y97.354 E17.70147
G1 X118.711 Y97.57 E17.72066
G1 X118.189 Y97.812 E17.7398
G1 X117.903 Y97.963 E17.75055
G1 X117.939 Y97.639 E17.7614
G1 X117.921 Y97.269 E17.77372
G1 X117.852 Y96.914 E17.78575
G1 X117.741 Y96.604 E17.7967
G1 X117.367 Y95.822 E17.82553
G1 X117.09 Y95.283 E17.84569
G1 X117.353 Y95.463 E17.85628
G1 F1500 E17.15628
G0 F5400 X115.358 Y93.123
G1 F1500 E17.85628
G1 F1800 X115.68 Y93.509 E17.873
G1 X116.023 Y93.875 E17.88969
G1 X116.383 Y94.218 E17.90623
G1 X116.76 Y94.542 E17.92276
G1 X117.157 Y94.844 E17.93935
G1 X117.569 Y95.126 E17.95596
G1 X117.999 Y95.384 E17.97263
G1 X118.439 Y95.616 E17.98918
G1 X118.892 Y95.824 E18.00576
G1 X119.355 Y96.007 E18.02232
G1 X119.829 Y96.164 E18.03892
G1 X120.31 Y96.294 E18.0555
G1 X120.797 Y96.399 E18.07207
G1 X121.292 Y96.475 E18.08872
G1 X121.789 Y96.523 E18.10533
G1 X122.287 Y96.544 E18.12191
G1 X122.785 Y96.539 E18.13847
G1 X123.282 Y96.504 E18.15504
G1 X123.777 Y96.444 E18.17163
G1 X124.27 Y96.355 E18.18829
G1 X124.755 Y96.237 E18.20489
G1 X125.233 Y96.095 E18.22148
G1 X125.702 Y95.927 E18.23805
G1 X126.161 Y95.732 E18.25463
G1 X126.609 Y95.512 E18.27123
G1 X127.043 Y95.269 E18.28778
G1 X127.405 Y95.043 E18.30197
G1 X127.071 Y95.278 E18.31555
G1 X126.667 Y95.538 E18.33153
G1 X126.228 Y95.792 E18.3484
G1 X125.817 Y96.007 E18.36383
G1 X125.373 Y96.215 E18.38014
G1 X124.926 Y96.401 E18.39624
G1 X124.461 Y96.57 E18.4127
G1 X123.988 Y96.72 E18.4292
G1 X123.523 Y96.842 E18.44519
G1 X123.034 Y96.95 E18.46185
G1 X122.576 Y97.029 E18.4773
G1 X121.533 Y97.165 E18.51229
G1 X120.986 Y97.264 E18.53078
G1 X120.444 Y97.393 E18.54931
G1 X119.911 Y97.548 E18.56777
G1 X119.386 Y97.729 E18.58624
G1 X118.87 Y97.937 E18.60474
G1 X118.366 Y98.171 E18.62323
G1 X117.874 Y98.43 E18.64172
G1 X117.395 Y98.714 E18.66024
G1 X116.943 Y99.013 E18.67826
G1 X116.718 Y99.171 E18.68741
G1 X116.923 Y99.001 E18.69627
G1 X117.127 Y98.774 E18.70642
G1 X117.294 Y98.515 E18.71667
G1 X117.42 Y98.234 E18.72691
G1 X117.503 Y97.936 E18.7372
G1 X117.538 Y97.626 E18.74758
G1 X117.523 Y97.317 E18.75786
G1 X117.465 Y97.02 E18.76793
G1 X117.371 Y96.758 E18.77719
G1 X117.009 Y96 E18.80513
G1 X116.642 Y95.286 E18.83183
G1 X116.249 Y94.583 E18.85862
G1 X115.836 Y93.891 E18.88542
G1 X115.399 Y93.216 E18.91216
G1 X114.954 Y92.572 E18.9382
G1 X115.358 Y93.123 E18.96092
G1 F1500 E18.26092
G0 F5400 X107.938 Y85.978
G1 F1500 E18.96092
G1 F1800 X107.348 Y85.622 E18.98384
G1 X107.918 Y85.965 E19.00597
G1 X108.591 Y86.402 E19.03266
G1 X107.938 Y85.978 E19.05855
G1 F1500 E18.35855
G0 F5400 X113.407 Y104.504
G1 F1500 E19.05855
G1 F1800 X110.544 Y103.498 E19.15948
G1 X111.632 Y102.733 E19.20372
G1 X111.802 Y103.942 E19.24433
G1 X113.407 Y104.504 E19.30089
G1 F1500 E18.60089
G0 F5400 X113.407 Y109.496
G1 F1500 E19.30089
G1 F1800 X111.802 Y110.058 E19.35745
G1 X111.632 Y111.267 E19.39806
G1 X110.544 Y110.502 E19.44229
G1 X113.407 Y109.496 E19.54322
G1 F1500 E18.84322
G0 F5400 X116.943 Y114.987
G1 F1500 E19.54322
G1 F1800 X117.395 Y115.286 E19.56125
G1 X117.874 Y115.57 E19.57977
G1 X118.366 Y115.829 E19.59826
G1 X118.87 Y116.063 E19.61675
G1 X119.386 Y116.271 E19.63525
G1 X119.911 Y116.452 E19.65372
G1 X120.444 Y116.607 E19.67218
G1 X120.986 Y116.736 E19.69071
G1 X121.533 Y116.835 E19.7092
G1 X122.577 Y116.971 E19.74422
G1 X123.033 Y117.05 E19.75961
G1 X123.534 Y117.16 E19.77667
G1 X123.971 Y117.277 E19.79172
G1 X124.478 Y117.436 E19.80939
G1 X124.926 Y117.599 E19.82525
G1 X125.373 Y117.785 E19.84135
G1 X125.817 Y117.993 E19.85766
G1 X126.225 Y118.206 E19.87297
G1 X126.667 Y118.462 E19.88995
G1 X127.071 Y118.722 E19.90593
G1 X127.402 Y118.955 E19.9194
G1 X127.043 Y118.731 E19.93347
G1 X126.609 Y118.488 E19.95001
G1 X126.161 Y118.268 E19.96661
G1 X125.702 Y118.073 E19.9832
G1 X125.233 Y117.905 E19.99977
G1 X124.755 Y117.763 E20.01636
G1 X124.27 Y117.645 E20.03296
G1 X123.777 Y117.556 E20.04962
G1 X123.282 Y117.496 E20.0662
G1 X122.785 Y117.461 E20.08278
G1 X122.287 Y117.456 E20.09934
G1 X121.789 Y117.477 E20.11592
G1 X121.292 Y117.525 E20.13253
G1 X120.797 Y117.601 E20.14918
G1 X120.31 Y117.706 E20.16575
G1 X119.829 Y117.836 E20.18232
G1 X119.355 Y117.993 E20.19893
G1 X118.892 Y118.176 E20.21549
G1 X118.439 Y118.384 E20.23207
G1 X117.999 Y118.616 E20.24861
G1 X117.569 Y118.874 E20.26529
G1 X117.157 Y119.156 E20.2819
G1 X116.76 Y119.458 E20.29849
G1 X116.383 Y119.782 E20.31502
G1 X116.023 Y120.125 E20.33156
G1 X115.68 Y120.491 E20.34824
G1 X115.358 Y120.877 E20.36496
G1 X114.959 Y121.421 E20.3874
G1 X115.402 Y120.779 E20.41335
G1 X115.839 Y120.102 E20.44015
G1 X116.252 Y119.411 E20.46692
G1 X116.645 Y118.708 E20.49371
G1 X117.013 Y117.993 E20.52045
G1 X117.371 Y117.24 E20.54819
G1 X117.465 Y116.979 E20.55741
G1 X117.523 Y116.682 E20.56748
G1 X117.538 Y116.373 E20.57777
G1 X117.503 Y116.058 E20.58831
G1 X117.418 Y115.763 E20.59852
G1 X117.295 Y115.485 E20.60863
G1 X117.125 Y115.225 E20.61896
G1 X116.922 Y114.998 E20.62909
G1 X116.719 Y114.83 E20.63785
G1 X116.943 Y114.987 E20.64695
G1 F1500 E19.94695
G0 F5400 X120.527 Y107
G1 F1500 E20.64695
G1 F1800 X118.508 Y107.709 E20.71812
G1 X118.508 Y106.291 E20.76529
G1 X120.527 Y107 E20.83646
G1 F1500 E20.13646
G0 F5400 X107.945 Y128.017
G1 F1500 E20.83646
G1 F1800 X108.599 Y127.592 E20.8624
G1 X107.923 Y128.032 E20.88923
G1 X107.603 Y128.224 E20.90164
G1 X107.945 Y128.017 E20.91494
G1 F1500 E20.21494
G0 F5400 X86.935 Y127.508
G1 F1500 E20.91494
G1 F1800 X102.598 Y130.116 E21.44306
G1 X103.482 Y129.795 E21.47434
G1 X104.218 Y129.499 E21.50073
G1 X104.943 Y129.182 E21.52705
G1 X105.658 Y128.84 E21.55341
G1 X106.363 Y128.476 E21.5798
G1 X107.055 Y128.089 E21.60617
G1 X107.732 Y127.678 E21.63251
G1 X108.396 Y127.247 E21.65884
G1 X109.047 Y126.795 E21.6852
G1 X109.682 Y126.321 E21.71155
G1 X110.301 Y125.828 E21.73787
G1 X110.905 Y125.315 E21.76423
G1 X111.492 Y124.781 E21.79062
G1 X112.06 Y124.228 E21.81699
G1 X112.609 Y123.659 E21.84329
G1 X113.141 Y123.072 E21.86964
G1 X113.654 Y122.467 E21.89602
G1 X114.146 Y121.847 E21.92235
G1 X114.619 Y121.209 E21.94876
G1 X115.069 Y120.557 E21.97511
G1 X115.499 Y119.891 E22.00148
G1 X115.906 Y119.211 E22.02784
G1 X116.292 Y118.519 E22.05419
G1 X116.654 Y117.816 E22.08049
G1 X117.001 Y117.086 E22.10737
G1 X117.078 Y116.872 E22.11494
G1 X117.125 Y116.633 E22.12304
G1 X117.137 Y116.386 E22.13126
G1 X117.109 Y116.136 E22.13963
G1 X117.041 Y115.9 E22.1478
G1 X116.942 Y115.676 E22.15595
G1 X116.807 Y115.469 E22.16417
G1 X116.644 Y115.287 E22.17229
G1 X116.472 Y115.145 E22.17971
G1 X110.326 Y110.841 E22.42927
G1 X110.257 Y110.785 E22.43222
G1 X110.22 Y110.743 E22.43408
G1 X110.183 Y110.685 E22.43637
G1 X110.16 Y110.632 E22.43829
G1 X110.143 Y110.565 E22.44059
G1 X110.138 Y110.511 E22.4424
G1 X110.141 Y110.444 E22.44463
G1 X110.175 Y110.328 E22.44865
G1 X110.205 Y110.277 E22.45062
G1 X110.249 Y110.223 E22.45293
G1 X110.346 Y110.15 E22.45697
G1 X110.418 Y110.118 E22.45959
G1 X118.108 Y107.426 E22.73058
G1 X118.108 Y106.574 E22.75892
G1 X110.418 Y103.882 E23.02991
G1 X110.346 Y103.85 E23.03253
G1 X110.249 Y103.777 E23.03657
G1 X110.205 Y103.723 E23.03888
