;FLAVOR:Marlin
;TIME:705
;Filament used: 0.349795m
;Layer height: 0.2
;Generated with Cura_SteamEngine 3.1.0
M190 S60
M104 S215
M109 S215
M82 ; absolute extrusion mode
G28 ;Home
G1 Z15.0 F6000 ;Move the platform down 15mm
;Prime the extruder
G92 E0
G1 F200 E3
G92 E0
;LAYER_COUNT:46
;LAYER:0
M107
G0 F7200 X80.936 Y98.629 Z0.2
;TYPE:SKIRT
G1 F1800 X81.45 Y98.26 E0.02104
G1 X82.006 Y97.96 E0.04206
G1 X82.595 Y97.732 E0.06306
G1 X83.209 Y97.58 E0.0841
G1 X84.1 Y97.5 E0.11386
G1 X84.9 Y97.5 E0.14046
G1 X85.531 Y97.54 E0.16149
G1 X86.152 Y97.659 E0.18252
G1 X86.752 Y97.856 E0.20353
G1 X86.99 Y97.969 E0.21229
G1 X87.006 Y97.96 E0.2129
G1 X87.595 Y97.732 E0.23391
G1 X88.209 Y97.58 E0.25495
G1 X89.1 Y97.5 E0.2847
G1 X89.9 Y97.5 E0.31131
G1 X90.531 Y97.54 E0.33234
G1 X91.152 Y97.659 E0.35337
G1 X91.752 Y97.856 E0.37437
G1 X91.99 Y97.969 E0.38314
G1 X92.006 Y97.96 E0.38375
G1 X92.595 Y97.732 E0.40475
G1 X93.209 Y97.58 E0.42579
G1 X94.1 Y97.5 E0.45555
G1 X94.9 Y97.5 E0.48215
G1 X95.531 Y97.54 E0.50318
G1 X96.152 Y97.659 E0.52421
G1 X96.752 Y97.856 E0.54522
G1 X96.99 Y97.969 E0.55398
G1 X97.006 Y97.96 E0.55459
G1 X97.595 Y97.732 E0.5756
G1 X98.209 Y97.58 E0.59664
G1 X99.1 Y97.5 E0.62639
G1 X99.9 Y97.5 E0.653
G1 X100.531 Y97.54 E0.67403
G1 X101.152 Y97.659 E0.69506
G1 X101.752 Y97.856 E0.71606
G1 X101.99 Y97.969 E0.72482
G1 X102.006 Y97.96 E0.72543
G1 X102.595 Y97.732 E0.74644
G1 X103.209 Y97.58 E0.76748
G1 X104.1 Y97.5 E0.79723
G1 X104.9 Y97.5 E0.82384
G1 X105.531 Y97.54 E0.84487
G1 X106.152 Y97.659 E0.8659
G1 X106.752 Y97.856 E0.88691
G1 X106.99 Y97.969 E0.89567
G1 X107.006 Y97.96 E0.89628
G1 X107.595 Y97.732 E0.91729
G1 X108.209 Y97.58 E0.93832
G1 X109.1 Y97.5 E0.96808
G1 X109.9 Y97.5 E0.99469
G1 X110.531 Y97.54 E1.01572
G1 X111.152 Y97.659 E1.03675
G1 X111.752 Y97.856 E1.05775
G1 X111.99 Y97.969 E1.06651
G1 X112.006 Y97.96 E1.06712
G1 X112.595 Y97.732 E1.08813
G1 X113.209 Y97.58 E1.10917
G1 X114.1 Y97.5 E1.13892
G1 X114.9 Y97.5 E1.16553
G1 X115.531 Y97.54 E1.18656
G1 X116.152 Y97.659 E1.20759
G1 X116.752 Y97.856 E1.22859
G1 X116.99 Y97.969 E1.23736
G1 X117.006 Y97.96 E1.23797
G1 X117.595 Y97.732 E1.25897
G1 X118.209 Y97.58 E1.28001
G1 X119.1 Y97.5 E1.30977
G1 X119.9 Y97.5 E1.33637
G1 X120.531 Y97.54 E1.3574
G1 X121.152 Y97.659 E1.37843
G1 X121.752 Y97.856 E1.39944
G1 X121.99 Y97.969 E1.4082
G1 X122.006 Y97.96 E1.40881
G1 X122.595 Y97.732 E1.42982
G1 X123.209 Y97.58 E1.45086
G1 X124.1 Y97.5 E1.48061
G1 X124.9 Y97.5 E1.50722
G1 X125.531 Y97.54 E1.52825
G1 X126.152 Y97.659 E1.54928
G1 X126.752 Y97.856 E1.57028
G1 X126.99 Y97.969 E1.57905
G1 X127.006 Y97.96 E1.57966
G1 X127.595 Y97.732 E1.60066
G1 X128.209 Y97.58 E1.6217
G1 X129.1 Y97.5 E1.65146
G1 X129.9 Y97.5 E1.67806
G1 X130.531 Y97.54 E1.69909
G1 X131.152 Y97.659 E1.72012
G1 X131.752 Y97.856 E1.74113
G1 X132.324 Y98.127 E1.76218
G1 X132.856 Y98.467 E1.78318
G1 X133.341 Y98.873 E1.80422
G1 X133.771 Y99.336 E1.82523
G1 X134.14 Y99.85 E1.84628
G1 X134.44 Y100.406 E1.86729
G1 X134.668 Y100.995 E1.8883
G1 X134.82 Y101.609 E1.90933
G1 X134.9 Y102.5 E1.93909
G1 X134.9 Y111.5 E2.23843
G1 X134.86 Y112.131 E2.25946
G1 X134.741 Y112.752 E2.28049
G1 X134.544 Y113.352 E2.30149
G1 X134.273 Y113.924 E2.32255
G1 X133.933 Y114.456 E2.34354
G1 X133.527 Y114.941 E2.36458
G1 X133.064 Y115.371 E2.3856
G1 X132.55 Y115.74 E2.40664
G1 X131.994 Y116.04 E2.42766
G1 X131.405 Y116.268 E2.44866
G1 X130.791 Y116.42 E2.4697
G1 X129.9 Y116.5 E2.49946
G1 X129.1 Y116.5 E2.52606
G1 X128.469 Y116.46 E2.54709
G1 X127.848 Y116.341 E2.56812
G1 X127.248 Y116.144 E2.58913
G1 X127.01 Y116.031 E2.59789
G1 X126.994 Y116.04 E2.5985
G1 X126.405 Y116.268 E2.61951
G1 X125.791 Y116.42 E2.64055
G1 X124.9 Y116.5 E2.6703
G1 X124.1 Y116.5 E2.69691
G1 X123.469 Y116.46 E2.71794
G1 X122.848 Y116.341 E2.73897
G1 X122.248 Y116.144 E2.75997
G1 X122.01 Y116.031 E2.76873
G1 X121.994 Y116.04 E2.76934
G1 X121.405 Y116.268 E2.79035
G1 X120.791 Y116.42 E2.81139
G1 X119.9 Y116.5 E2.84114
G1 X119.1 Y116.5 E2.86775
G1 X118.469 Y116.46 E2.88878
G1 X117.848 Y116.341 E2.90981
G1 X117.248 Y116.144 E2.93082
G1 X117.01 Y116.031 E2.93958
G1 X116.994 Y116.04 E2.94019
G1 X116.405 Y116.268 E2.9612
G1 X115.791 Y116.42 E2.98223
G1 X114.9 Y116.5 E3.01199
G1 X114.1 Y116.5 E3.0386
G1 X113.469 Y116.46 E3.05963
G1 X112.848 Y116.341 E3.08066
G1 X112.248 Y116.144 E3.10166
G1 X112.01 Y116.031 E3.11042
G1 X111.994 Y116.04 E3.11103
G1 X111.405 Y116.268 E3.13204
G1 X110.791 Y116.42 E3.15308
G1 X109.9 Y116.5 E3.18283
G1 X109.1 Y116.5 E3.20944
G1 X108.469 Y116.46 E3.23047
G1 X107.848 Y116.341 E3.2515
G1 X107.248 Y116.144 E3.2725
G1 X107.01 Y116.031 E3.28127
G1 X106.994 Y116.04 E3.28188
G1 X106.405 Y116.268 E3.30288
G1 X105.791 Y116.42 E3.32392
G1 X104.9 Y116.5 E3.35368
G1 X104.1 Y116.5 E3.38028
G1 X103.469 Y116.46 E3.40131
G1 X102.848 Y116.341 E3.42234
G1 X102.248 Y116.144 E3.44335
G1 X102.01 Y116.031 E3.45211
G1 X101.994 Y116.04 E3.45272
G1 X101.405 Y116.268 E3.47373
G1 X100.791 Y116.42 E3.49477
G1 X99.9 Y116.5 E3.52452
G1 X99.1 Y116.5 E3.55113
G1 X98.469 Y116.46 E3.57216
G1 X97.848 Y116.341 E3.59319
G1 X97.248 Y116.144 E3.61419
G1 X97.01 Y116.031 E3.62296
G1 X96.994 Y116.04 E3.62357
G1 X96.405 Y116.268 E3.64457
G1 X95.791 Y116.42 E3.66561
G1 X94.9 Y116.5 E3.69537
G1 X94.1 Y116.5 E3.72197
G1 X93.469 Y116.46 E3.743
G1 X92.848 Y116.341 E3.76403
G1 X92.248 Y116.144 E3.78504
G1 X92.01 Y116.031 E3.7938
G1 X91.994 Y116.04 E3.79441
G1 X91.405 Y116.268 E3.81542
G1 X90.791 Y116.42 E3.83646
G1 X89.9 Y116.5 E3.86621
G1 X89.1 Y116.5 E3.89282
G1 X88.469 Y116.46 E3.91385
G1 X87.848 Y116.341 E3.93488
G1 X87.248 Y116.144 E3.95588
G1 X87.01 Y116.031 E3.96464
G1 X86.994 Y116.04 E3.96525
G1 X86.405 Y116.268 E3.98626
G1 X85.791 Y116.42 E4.0073
G1 X84.9 Y116.5 E4.03705
G1 X84.1 Y116.5 E4.06366
G1 X83.469 Y116.46 E4.08469
G1 X82.848 Y116.341 E4.10572
G1 X82.248 Y116.144 E4.12673
G1 X81.676 Y115.873 E4.14778
G1 X81.144 Y115.533 E4.16878
G1 X80.659 Y115.127 E4.18981
G1 X80.229 Y114.664 E4.21083
G1 X79.86 Y114.15 E4.23188
G1 X79.56 Y113.594 E4.25289
G1 X79.332 Y113.005 E4.27389
G1 X79.18 Y112.391 E4.29493
G1 X79.1 Y111.5 E4.32469
G1 X79.1 Y102.5 E4.62403
G1 X79.14 Y101.869 E4.64506
G1 X79.259 Y101.248 E4.66609
G1 X79.456 Y100.648 E4.68709
G1 X79.727 Y100.076 E4.70814
G1 X80.067 Y99.544 E4.72914
G1 X80.473 Y99.059 E4.75018
G1 X80.936 Y98.629 E4.7712
G0 F7200 X81.325 Y98.831
G1 F1800 X81.832 Y98.498 E4.79137
G1 X82.378 Y98.234 E4.81154
G1 X82.954 Y98.045 E4.83171
G1 X83.55 Y97.933 E4.85188
G1 X84.1 Y97.9 E4.8702
G1 X84.9 Y97.9 E4.89681
G1 X85.505 Y97.94 E4.91698
G1 X86.099 Y98.059 E4.93713
G1 X86.673 Y98.255 E4.9573
G1 X86.999 Y98.417 E4.96941
G1 X87.378 Y98.234 E4.98341
G1 X87.954 Y98.045 E5.00357
G1 X88.55 Y97.933 E5.02374
G1 X89.1 Y97.9 E5.04206
G1 X89.9 Y97.9 E5.06867
G1 X90.505 Y97.94 E5.08884
G1 X91.099 Y98.059 E5.10899
G1 X91.673 Y98.255 E5.12916
G1 X91.999 Y98.417 E5.14127
G1 X92.378 Y98.234 E5.15527
G1 X92.954 Y98.045 E5.17543
G1 X93.55 Y97.933 E5.1956
G1 X94.1 Y97.9 E5.21393
G1 X94.9 Y97.9 E5.24053
G1 X95.505 Y97.94 E5.2607
G1 X96.099 Y98.059 E5.28085
G1 X96.673 Y98.255 E5.30102
G1 X96.999 Y98.417 E5.31313
G1 X97.378 Y98.234 E5.32713
G1 X97.954 Y98.045 E5.34729
G1 X98.55 Y97.933 E5.36746
G1 X99.1 Y97.9 E5.38579
G1 X99.9 Y97.9 E5.4124
G1 X100.505 Y97.94 E5.43256
G1 X101.099 Y98.059 E5.45271
G1 X101.673 Y98.255 E5.47288
G1 X101.999 Y98.417 E5.48499
G1 X102.378 Y98.234 E5.49899
G1 X102.954 Y98.045 E5.51915
G1 X103.55 Y97.933 E5.53932
G1 X104.1 Y97.9 E5.55765
G1 X104.9 Y97.9 E5.58426
G1 X105.505 Y97.94 E5.60442
G1 X106.099 Y98.059 E5.62457
G1 X106.673 Y98.255 E5.64475
G1 X106.999 Y98.417 E5.65685
G1 X107.378 Y98.234 E5.67085
G1 X107.954 Y98.045 E5.69102
G1 X108.55 Y97.933 E5.71119
G1 X109.1 Y97.9 E5.72951
G1 X109.9 Y97.9 E5.75612
G1 X110.505 Y97.94 E5.77629
G1 X111.099 Y98.059 E5.79643
G1 X111.673 Y98.255 E5.81661
G1 X111.999 Y98.417 E5.82872
G1 X112.378 Y98.234 E5.84271
G1 X112.954 Y98.045 E5.86288
G1 X113.55 Y97.933 E5.88305
G1 X114.1 Y97.9 E5.90137
G1 X114.9 Y97.9 E5.92798
G1 X115.505 Y97.94 E5.94815
G1 X116.099 Y98.059 E5.9683
G1 X116.673 Y98.255 E5.98847
G1 X116.999 Y98.417 E6.00058
G1 X117.378 Y98.234 E6.01458
G1 X117.954 Y98.045 E6.03474
G1 X118.55 Y97.933 E6.05491
G1 X119.1 Y97.9 E6.07324
G1 X119.9 Y97.9 E6.09984
G1 X120.505 Y97.94 E6.12001
G1 X121.099 Y98.059 E6.14016
G1 X121.673 Y98.255 E6.16033
G1 X121.999 Y98.417 E6.17244
G1 X122.378 Y98.234 E6.18644
G1 X122.954 Y98.045 E6.2066
G1 X123.55 Y97.933 E6.22677
G1 X124.1 Y97.9 E6.2451
G1 X124.9 Y97.9 E6.2717
G1 X125.505 Y97.94 E6.29187
G1 X126.099 Y98.059 E6.31202
G1 X126.673 Y98.255 E6.33219
G1 X126.999 Y98.417 E6.3443
G1 X127.378 Y98.234 E6.3583
G1 X127.954 Y98.045 E6.37846
G1 X128.55 Y97.933 E6.39863
G1 X129.1 Y97.9 E6.41696
G1 X129.9 Y97.9 E6.44357
G1 X130.505 Y97.94 E6.46373
G1 X131.099 Y98.059 E6.48388
G1 X131.673 Y98.255 E6.50406
G1 X132.216 Y98.526 E6.52424
G1 X132.719 Y98.865 E6.54442
G1 X133.172 Y99.267 E6.56456
G1 X133.569 Y99.725 E6.58472
G1 X133.902 Y100.232 E6.60489
G1 X134.166 Y100.778 E6.62506
G1 X134.355 Y101.354 E6.64523
G1 X134.467 Y101.95 E6.6654
G1 X134.5 Y102.5 E6.68372
G1 X134.5 Y111.5 E6.98306
G1 X134.46 Y112.105 E7.00323
G1 X134.341 Y112.699 E7.02338
G1 X134.145 Y113.273 E7.04355
G1 X133.874 Y113.816 E7.06374
G1 X133.535 Y114.319 E7.08391
G1 X133.133 Y114.772 E7.10406
G1 X132.675 Y115.169 E7.12422
G1 X132.168 Y115.502 E7.14439
G1 X131.622 Y115.766 E7.16456
G1 X131.046 Y115.955 E7.18473
G1 X130.45 Y116.067 E7.2049
G1 X129.9 Y116.1 E7.22322
G1 X129.1 Y116.1 E7.24983
G1 X128.495 Y116.06 E7.27
G1 X127.901 Y115.941 E7.29015
G1 X127.327 Y115.745 E7.31032
G1 X127.001 Y115.583 E7.32243
G1 X126.622 Y115.766 E7.33642
G1 X126.046 Y115.955 E7.35659
G1 X125.45 Y116.067 E7.37676
G1 X124.9 Y116.1 E7.39508
G1 X124.1 Y116.1 E7.42169
G1 X123.495 Y116.06 E7.44186
G1 X122.901 Y115.941 E7.46201
G1 X122.327 Y115.745 E7.48218
G1 X122.001 Y115.583 E7.49429
G1 X121.622 Y115.766 E7.50829
G1 X121.046 Y115.955 E7.52845
G1 X120.45 Y116.067 E7.54862
G1 X119.9 Y116.1 E7.56695
G1 X119.1 Y116.1 E7.59355
G1 X118.495 Y116.06 E7.61372
G1 X117.901 Y115.941 E7.63387
G1 X117.327 Y115.745 E7.65404
G1 X117.001 Y115.583 E7.66615
G1 X116.622 Y115.766 E7.68015
G1 X116.046 Y115.955 E7.70031
G1 X115.45 Y116.067 E7.72048
G1 X114.9 Y116.1 E7.73881
G1 X114.1 Y116.1 E7.76542
G1 X113.495 Y116.06 E7.78558
G1 X112.901 Y115.941 E7.80573
G1 X112.327 Y115.745 E7.8259
G1 X112.001 Y115.583 E7.83801
G1 X111.622 Y115.766 E7.85201
G1 X111.046 Y115.955 E7.87217
G1 X110.45 Y116.067 E7.89234
G1 X109.9 Y116.1 E7.91067
G1 X109.1 Y116.1 E7.93728
G1 X108.495 Y116.06 E7.95744
G1 X107.901 Y115.941 E7.97759
G1 X107.327 Y115.745 E7.99777
G1 X107.001 Y115.583 E8.00987
G1 X106.622 Y115.766 E8.02387
G1 X106.046 Y115.955 E8.04403
G1 X105.45 Y116.067 E8.0642
G1 X104.9 Y116.1 E8.08253
G1 X104.1 Y116.1 E8.10914
G1 X103.495 Y116.06 E8.12931
G1 X102.901 Y115.941 E8.14945
G1 X102.327 Y115.745 E8.16963
G1 X102.001 Y115.583 E8.18174
G1 X101.622 Y115.766 E8.19573
G1 X101.046 Y115.955 E8.2159
G1 X100.45 Y116.067 E8.23607
G1 X99.9 Y116.1 E8.25439
G1 X99.1 Y116.1 E8.281
G1 X98.495 Y116.06 E8.30117
G1 X97.901 Y115.941 E8.32132
G1 X97.327 Y115.745 E8.34149
G1 X97.001 Y115.583 E8.3536
G1 X96.622 Y115.766 E8.3676
G1 X96.046 Y115.955 E8.38776
G1 X95.45 Y116.067 E8.40793
G1 X94.9 Y116.1 E8.42625
G1 X94.1 Y116.1 E8.45286
G1 X93.495 Y116.06 E8.47303
G1 X92.901 Y115.941 E8.49318
G1 X92.327 Y115.745 E8.51335
G1 X92.001 Y115.583 E8.52546
G1 X91.622 Y115.766 E8.53946
G1 X91.046 Y115.955 E8.55962
G1 X90.45 Y116.067 E8.57979
G1 X89.9 Y116.1 E8.59812
G1 X89.1 Y116.1 E8.62472
G1 X88.495 Y116.06 E8.64489
G1 X87.901 Y115.941 E8.66504
G1 X87.327 Y115.745 E8.68521
G1 X87.001 Y115.583 E8.69732
G1 X86.622 Y115.766 E8.71132
G1 X86.046 Y115.955 E8.73148
G1 X85.45 Y116.067 E8.75165
G1 X84.9 Y116.1 E8.76998
G1 X84.1 Y116.1 E8.79659
G1 X83.495 Y116.06 E8.81675
G1 X82.901 Y115.941 E8.8369
G1 X82.327 Y115.745 E8.85708
G1 X81.784 Y115.474 E8.87726
G1 X81.281 Y115.135 E8.89743
G1 X80.828 Y114.733 E8.91758
G1 X80.431 Y114.275 E8.93774
G1 X80.098 Y113.768 E8.95791
G1 X79.834 Y113.222 E8.97808
G1 X79.645 Y112.646 E8.99825
G1 X79.533 Y112.05 E9.01842
G1 X79.5 Y111.5 E9.03674
G1 X79.5 Y102.5 E9.33608
G1 X79.54 Y101.895 E9.35625
G1 X79.659 Y101.301 E9.3764
G1 X79.855 Y100.727 E9.39657
G1 X80.126 Y100.184 E9.41676
G1 X80.465 Y99.681 E9.43693
G1 X80.867 Y99.228 E9.45708
G1 X81.325 Y98.831 E9.47724
G0 F7200 X81.26 Y99.406
G1 F1800 X81.713 Y99.044 E9.49652
G1 X82.211 Y98.749 E9.51577
G1 X82.745 Y98.524 E9.53505
G1 X83.305 Y98.376 E9.55431
G1 X84.1 Y98.3 E9.58087
G1 X84.9 Y98.3 E9.60748
G1 X85.478 Y98.34 E9.62675
G1 X86.045 Y98.459 E9.64602
G1 X86.59 Y98.655 E9.66529
G1 X87.004 Y98.872 E9.68083
G1 X87.211 Y98.749 E9.68884
G1 X87.745 Y98.524 E9.70811
G1 X88.305 Y98.376 E9.72738
G1 X89.1 Y98.3 E9.75394
G1 X89.9 Y98.3 E9.78055
G1 X90.478 Y98.34 E9.79982
G1 X91.045 Y98.459 E9.81909
G1 X91.59 Y98.655 E9.83835
G1 X92.004 Y98.872 E9.8539
G1 X92.211 Y98.749 E9.86191
G1 X92.745 Y98.524 E9.88118
G1 X93.305 Y98.376 E9.90045
G1 X94.1 Y98.3 E9.92701
G1 X94.9 Y98.3 E9.95362
G1 X95.478 Y98.34 E9.97289
G1 X96.045 Y98.459 E9.99216
G1 X96.59 Y98.655 E10.01142
G1 X97.004 Y98.872 E10.02697
G1 X97.211 Y98.749 E10.03498
G1 X97.745 Y98.524 E10.05425
G1 X98.305 Y98.376 E10.07351
G1 X99.1 Y98.3 E10.10008
G1 X99.9 Y98.3 E10.12668
G1 X100.478 Y98.34 E10.14595
G1 X101.045 Y98.459 E10.16522
G1 X101.59 Y98.655 E10.18449
G1 X102.004 Y98.872 E10.20003
G1 X102.211 Y98.749 E10.20804
G1 X102.745 Y98.524 E10.22732
G1 X103.305 Y98.376 E10.24658
G1 X104.1 Y98.3 E10.27314
G1 X104.9 Y98.3 E10.29975
G1 X105.478 Y98.34 E10.31902
G1 X106.045 Y98.459 E10.33829
G1 X106.59 Y98.655 E10.35755
G1 X107.004 Y98.872 E10.3731
G1 X107.211 Y98.749 E10.38111
G1 X107.745 Y98.524 E10.40038
G1 X108.305 Y98.376 E10.41965
G1 X109.1 Y98.3 E10.44621
G1 X109.9 Y98.3 E10.47282
G1 X110.478 Y98.34 E10.49209
G1 X111.045 Y98.459 E10.51136
G1 X111.59 Y98.655 E10.53062
G1 X112.004 Y98.872 E10.54617
G1 X112.211 Y98.749 E10.55418
G1 X112.745 Y98.524 E10.57345
G1 X113.305 Y98.376 E10.59271
G1 X114.1 Y98.3 E10.61928
G1 X114.9 Y98.3 E10.64588
G1 X115.478 Y98.34 E10.66516
G1 X116.045 Y98.459 E10.68442
G1 X116.59 Y98.655 E10.70369
G1 X117.004 Y98.872 E10.71923
G1 X117.211 Y98.749 E10.72724
G1 X117.745 Y98.524 E10.74652
G1 X118.305 Y98.376 E10.76578
G1 X119.1 Y98.3 E10.79234
G1 X119.9 Y98.3 E10.81895
G1 X120.478 Y98.34 E10.83822
G1 X121.045 Y98.459 E10.85749
G1 X121.59 Y98.655 E10.87676
G1 X122.004 Y98.872 E10.8923
G1 X122.211 Y98.749 E10.90031
G1 X122.745 Y98.524 E10.91958
G1 X123.305 Y98.376 E10.93885
G1 X124.1 Y98.3 E10.96541
G1 X124.9 Y98.3 E10.99202
G1 X125.478 Y98.34 E11.01129
G1 X126.045 Y98.459 E11.03056
G1 X126.59 Y98.655 E11.04982
G1 X127.004 Y98.872 E11.06537
G1 X127.211 Y98.749 E11.07338
G1 X127.745 Y98.524 E11.09265
G1 X128.305 Y98.376 E11.11192
G1 X129.1 Y98.3 E11.13848
G1 X129.9 Y98.3 E11.16509
G1 X130.478 Y98.34 E11.18436
G1 X131.045 Y98.459 E11.20363
G1 X131.59 Y98.655 E11.22289
G1 X132.103 Y98.924 E11.24215
G1 X132.574 Y99.261 E11.26142
G1 X132.994 Y99.66 E11.28069
G1 X133.356 Y100.113 E11.29997
G1 X133.651 Y100.611 E11.31922
G1 X133.876 Y101.145 E11.3385
G1 X134.024 Y101.705 E11.35776
G1 X134.1 Y102.5 E11.38432
G1 X134.1 Y111.5 E11.68367
G1 X134.06 Y112.078 E11.70294
G1 X133.941 Y112.645 E11.72221
G1 X133.745 Y113.19 E11.74147
G1 X133.476 Y113.703 E11.76073
G1 X133.139 Y114.174 E11.78
G1 X132.74 Y114.594 E11.79926
G1 X132.287 Y114.956 E11.81855
G1 X131.789 Y115.251 E11.8378
G1 X131.255 Y115.476 E11.85708
G1 X130.695 Y115.624 E11.87634
G1 X129.9 Y115.7 E11.9029
G1 X129.1 Y115.7 E11.92951
G1 X128.522 Y115.66 E11.94878
G1 X127.955 Y115.541 E11.96805
G1 X127.41 Y115.345 E11.98731
G1 X126.996 Y115.128 E12.00286
G1 X126.789 Y115.251 E12.01087
G1 X126.255 Y115.476 E12.03014
G1 X125.695 Y115.624 E12.04941
G1 X124.9 Y115.7 E12.07597
G1 X124.1 Y115.7 E12.10258
G1 X123.522 Y115.66 E12.12185
G1 X122.955 Y115.541 E12.14112
G1 X122.41 Y115.345 E12.16038
G1 X121.996 Y115.128 E12.17593
G1 X121.789 Y115.251 E12.18394
G1 X121.255 Y115.476 E12.20321
G1 X120.695 Y115.624 E12.22248
