;FLAVOR:Marlin
;TIME:700
;Filament used: 0.225787m
;Layer height: 0.2
;Generated with Cura_SteamEngine 3.1.0
M190 S60
M104 S215
M109 S215
M82 ; absolute extrusion mode
G28 ;Home
G1 Z15.0 F6000 ;Move the platform down 15mm
;Prime the extruder
G92 E0
G1 F200 E3
G92 E0
;LAYER_COUNT:11
;LAYER:0
M107
G0 F7200 X97.75 Y98.769 Z0.2
;TYPE:SKIRT
G1 F1800 X98.778 Y97.742 E0.04833
G1 X98.997 Y97.548 E0.05806
G1 X99.822 Y96.904 E0.09287
G1 X100.088 Y96.724 E0.10355
G1 X101.406 Y95.954 E0.15432
G1 X101.68 Y95.816 E0.16453
G1 X102.647 Y95.406 E0.19946
G1 X102.912 Y95.312 E0.20881
G1 X104.18 Y94.942 E0.25275
G1 X104.451 Y94.88 E0.26199
G1 X105.419 Y94.716 E0.29465
G1 X105.713 Y94.684 E0.30448
G1 X107.192 Y94.618 E0.35372
G1 X107.515 Y94.626 E0.36447
G1 X108.71 Y94.734 E0.40438
G1 X108.973 Y94.772 E0.41322
G1 X109.954 Y94.972 E0.44652
G1 X110.234 Y95.047 E0.45616
G1 X111.595 Y95.501 E0.50388
G1 X111.861 Y95.608 E0.51341
G1 X112.699 Y96.004 E0.54424
G1 X112.986 Y96.164 E0.55517
G1 X114.526 Y97.169 E0.61633
G1 X114.812 Y97.389 E0.62833
G1 X115.661 Y98.147 E0.66619
G1 X115.87 Y98.357 E0.67604
G1 X116.776 Y99.393 E0.72182
G1 X116.979 Y99.662 E0.73302
G1 X117.705 Y100.775 E0.77722
G1 X117.875 Y101.082 E0.78889
G1 X118.565 Y102.58 E0.84375
G1 X118.689 Y102.913 E0.85557
G1 X119.058 Y104.181 E0.89949
G1 X119.12 Y104.451 E0.90871
G1 X119.284 Y105.419 E0.94136
G1 X119.316 Y105.713 E0.9512
G1 X119.382 Y107.192 E1.00044
G1 X119.374 Y107.515 E1.01118
G1 X119.266 Y108.71 E1.05109
G1 X119.201 Y109.089 E1.06388
G1 X118.709 Y111.011 E1.12987
G1 X118.578 Y111.388 E1.14314
G1 X118.02 Y112.647 E1.18895
G1 X117.835 Y112.987 E1.20182
G1 X116.83 Y114.526 E1.26295
G1 X116.611 Y114.812 E1.27494
G1 X115.853 Y115.661 E1.31279
G1 X115.643 Y115.87 E1.32264
G1 X114.607 Y116.776 E1.36842
G1 X114.339 Y116.979 E1.3796
G1 X113.233 Y117.701 E1.42353
G1 X112.926 Y117.87 E1.43519
G1 X111.421 Y118.564 E1.49031
G1 X111.087 Y118.689 E1.50217
G1 X109.819 Y119.058 E1.54609
G1 X109.549 Y119.12 E1.55531
G1 X108.581 Y119.284 E1.58796
G1 X108.287 Y119.316 E1.5978
G1 X106.808 Y119.382 E1.64704
G1 X106.485 Y119.374 E1.65779
G1 X105.29 Y119.266 E1.69769
G1 X104.911 Y119.201 E1.71048
G1 X102.989 Y118.709 E1.77647
G1 X102.612 Y118.578 E1.78975
G1 X101.353 Y118.02 E1.83555
G1 X101.013 Y117.835 E1.84842
G1 X99.474 Y116.83 E1.90956
G1 X99.188 Y116.611 E1.92154
G1 X98.339 Y115.853 E1.95939
G1 X98.13 Y115.643 E1.96925
G1 X97.224 Y114.607 E2.01502
G1 X97.02 Y114.336 E2.0263
G1 X96.283 Y113.204 E2.07123
G1 X96.136 Y112.946 E2.08111
G1 X95.62 Y111.887 E2.12029
G1 X95.516 Y111.639 E2.12923
G1 X95.164 Y110.647 E2.16424
G1 X95.092 Y110.403 E2.1727
G1 X94.841 Y109.355 E2.20855
G1 X94.789 Y109.056 E2.21864
G1 X94.632 Y107.618 E2.26675
G1 X94.619 Y107.289 E2.2777
G1 X94.655 Y106.03 E2.3196
G1 X94.682 Y105.733 E2.32951
G1 X94.874 Y104.487 E2.37145
G1 X94.963 Y104.114 E2.3842
G1 X95.556 Y102.283 E2.44821
G1 X95.709 Y101.917 E2.46141
G1 X96.333 Y100.714 E2.50648
G1 X96.522 Y100.408 E2.51844
G1 X97.505 Y99.056 E2.57404
G1 X97.75 Y98.769 E2.58659
G0 F7200 X98.032 Y99.052
G1 F1800 X99.06 Y98.025 E2.63492
G1 X99.243 Y97.863 E2.64305
G1 X100.068 Y97.219 E2.67786
G1 X100.29 Y97.069 E2.68677
G1 X101.608 Y96.299 E2.73754
G1 X101.836 Y96.185 E2.74602
G1 X102.803 Y95.775 E2.78095
G1 X103.024 Y95.696 E2.78876
G1 X104.292 Y95.326 E2.83269
G1 X104.518 Y95.274 E2.84041
G1 X105.486 Y95.11 E2.87306
G1 X105.731 Y95.084 E2.88126
G1 X107.21 Y95.018 E2.9305
G1 X107.479 Y95.024 E2.93945
G1 X108.674 Y95.132 E2.97935
G1 X108.894 Y95.164 E2.98675
G1 X109.875 Y95.364 E3.02005
G1 X110.108 Y95.427 E3.02808
G1 X111.469 Y95.881 E3.07579
G1 X111.691 Y95.97 E3.08375
G1 X112.529 Y96.366 E3.11458
G1 X112.767 Y96.499 E3.12364
G1 X114.307 Y97.504 E3.18481
G1 X114.546 Y97.687 E3.19482
G1 X115.395 Y98.445 E3.23267
G1 X115.569 Y98.62 E3.24088
G1 X116.475 Y99.656 E3.28666
G1 X116.644 Y99.88 E3.29599
G1 X117.37 Y100.993 E3.34019
G1 X117.512 Y101.249 E3.34992
G1 X118.202 Y102.747 E3.40478
G1 X118.305 Y103.025 E3.41464
G1 X118.674 Y104.293 E3.45856
G1 X118.726 Y104.518 E3.46624
G1 X118.89 Y105.486 E3.4989
G1 X118.916 Y105.731 E3.50709
G1 X118.982 Y107.21 E3.55633
G1 X118.976 Y107.479 E3.56528
G1 X118.868 Y108.674 E3.60519
G1 X118.814 Y108.99 E3.61585
G1 X118.322 Y110.912 E3.68184
G1 X118.212 Y111.226 E3.69291
G1 X117.654 Y112.485 E3.73871
G1 X117.501 Y112.769 E3.74944
G1 X116.496 Y114.308 E3.81057
G1 X116.313 Y114.546 E3.82056
G1 X115.555 Y115.395 E3.85841
G1 X115.38 Y115.569 E3.86662
G1 X114.344 Y116.475 E3.9124
G1 X114.12 Y116.644 E3.92173
G1 X113.014 Y117.366 E3.96566
G1 X112.759 Y117.507 E3.97535
G1 X111.254 Y118.201 E4.03047
G1 X110.975 Y118.305 E4.04038
G1 X109.707 Y118.674 E4.0843
G1 X109.482 Y118.726 E4.09198
G1 X108.514 Y118.89 E4.12464
G1 X108.269 Y118.916 E4.13283
G1 X106.79 Y118.982 E4.18207
G1 X106.521 Y118.976 E4.19102
G1 X105.326 Y118.868 E4.23093
G1 X105.01 Y118.814 E4.24159
G1 X103.088 Y118.322 E4.30758
G1 X102.774 Y118.212 E4.31864
G1 X101.515 Y117.654 E4.36445
G1 X101.231 Y117.501 E4.37518
G1 X99.692 Y116.496 E4.43631
G1 X99.454 Y116.313 E4.4463
G1 X98.605 Y115.555 E4.48415
G1 X98.431 Y115.38 E4.49236
G1 X97.525 Y114.344 E4.53813
G1 X97.355 Y114.118 E4.54754
G1 X96.618 Y112.986 E4.59247
G1 X96.496 Y112.771 E4.60069
G1 X95.98 Y111.712 E4.63987
G1 X95.893 Y111.505 E4.64734
G1 X95.541 Y110.513 E4.68235
G1 X95.481 Y110.31 E4.68939
G1 X95.23 Y109.262 E4.72523
G1 X95.187 Y109.013 E4.73364
G1 X95.03 Y107.575 E4.78175
G1 X95.019 Y107.301 E4.79087
G1 X95.055 Y106.042 E4.83276
G1 X95.077 Y105.794 E4.84104
G1 X95.269 Y104.548 E4.88297
G1 X95.343 Y104.237 E4.89361
G1 X95.936 Y102.406 E4.95762
G1 X96.064 Y102.101 E4.96862
G1 X96.688 Y100.898 E5.01369
G1 X96.845 Y100.643 E5.02365
G1 X97.828 Y99.291 E5.07925
G1 X98.032 Y99.052 E5.0897
G0 F7200 X98.315 Y99.335
G1 F1800 X99.343 Y98.308 E5.13803
G1 X99.489 Y98.179 E5.14451
G1 X100.314 Y97.535 E5.17932
G1 X100.492 Y97.414 E5.18648
G1 X101.81 Y96.644 E5.23725
G1 X101.992 Y96.553 E5.24402
G1 X102.959 Y96.143 E5.27895
G1 X103.136 Y96.08 E5.2852
G1 X104.404 Y95.71 E5.32913
G1 X104.585 Y95.668 E5.33531
G1 X105.553 Y95.504 E5.36797
G1 X105.749 Y95.484 E5.37452
G1 X107.228 Y95.418 E5.42376
G1 X107.443 Y95.422 E5.43091
G1 X108.638 Y95.53 E5.47082
G1 X108.814 Y95.556 E5.47674
G1 X109.795 Y95.756 E5.51004
G1 X109.981 Y95.806 E5.51645
G1 X111.342 Y96.26 E5.56416
G1 X111.52 Y96.331 E5.57054
G1 X112.358 Y96.727 E5.60137
G1 X112.548 Y96.834 E5.60862
G1 X114.088 Y97.839 E5.66978
G1 X114.28 Y97.985 E5.6778
G1 X115.129 Y98.743 E5.71566
G1 X115.267 Y98.884 E5.72222
G1 X116.173 Y99.92 E5.768
G1 X116.309 Y100.099 E5.77547
G1 X117.035 Y101.212 E5.81967
G1 X117.148 Y101.417 E5.82746
G1 X117.838 Y102.915 E5.88231
G1 X117.921 Y103.137 E5.89019
G1 X118.29 Y104.405 E5.93412
G1 X118.332 Y104.585 E5.94026
G1 X118.496 Y105.553 E5.97292
G1 X118.516 Y105.749 E5.97947
G1 X118.582 Y107.228 E6.02871
G1 X118.578 Y107.443 E6.03587
G1 X118.47 Y108.638 E6.07577
G1 X118.426 Y108.891 E6.08431
G1 X117.934 Y110.813 E6.1503
G1 X117.847 Y111.064 E6.15914
G1 X117.289 Y112.323 E6.20494
G1 X117.166 Y112.55 E6.21353
G1 X116.161 Y114.089 E6.27466
G1 X116.015 Y114.28 E6.28266
G1 X115.257 Y115.129 E6.32051
G1 X115.116 Y115.267 E6.32707
G1 X114.08 Y116.173 E6.37285
G1 X113.902 Y116.309 E6.3803
G1 X112.796 Y117.031 E6.42423
G1 X112.591 Y117.144 E6.43202
G1 X111.086 Y117.838 E6.48714
G1 X110.863 Y117.921 E6.49505
G1 X109.595 Y118.29 E6.53898
G1 X109.415 Y118.332 E6.54512
G1 X108.447 Y118.496 E6.57778
G1 X108.251 Y118.516 E6.58433
G1 X106.772 Y118.582 E6.63357
G1 X106.557 Y118.578 E6.64072
G1 X105.362 Y118.47 E6.68063
G1 X105.109 Y118.426 E6.68917
G1 X103.187 Y117.934 E6.75516
G1 X102.936 Y117.847 E6.764
G1 X101.677 Y117.289 E6.8098
G1 X101.45 Y117.166 E6.81839
G1 X99.911 Y116.161 E6.87952
G1 X99.72 Y116.015 E6.88752
G1 X98.871 Y115.257 E6.92537
G1 X98.733 Y115.116 E6.93193
G1 X97.827 Y114.08 E6.97771
G1 X97.69 Y113.9 E6.98523
G1 X96.953 Y112.768 E7.03016
G1 X96.856 Y112.596 E7.03673
G1 X96.34 Y111.537 E7.07591
G1 X96.27 Y111.371 E7.0819
G1 X95.918 Y110.379 E7.11691
G1 X95.87 Y110.217 E7.12253
G1 X95.619 Y109.169 E7.15837
G1 X95.584 Y108.97 E7.16509
G1 X95.427 Y107.532 E7.2132
G1 X95.419 Y107.312 E7.22053
G1 X95.455 Y106.053 E7.26242
G1 X95.473 Y105.855 E7.26903
G1 X95.665 Y104.609 E7.31096
G1 X95.724 Y104.36 E7.31947
G1 X96.317 Y102.529 E7.38349
G1 X96.419 Y102.285 E7.39228
G1 X97.043 Y101.082 E7.43736
G1 X97.169 Y100.878 E7.44533
G1 X98.152 Y99.526 E7.50093
G1 X98.315 Y99.335 E7.50928
G0 F7200 X98.598 Y99.618
G1 F1800 X99.626 Y98.591 E7.55761
G1 X99.736 Y98.494 E7.56249
G1 X100.561 Y97.85 E7.5973
G1 X100.694 Y97.76 E7.60264
G1 X102.012 Y96.99 E7.65341
G1 X102.149 Y96.921 E7.65851
G1 X103.116 Y96.511 E7.69345
G1 X103.248 Y96.464 E7.69811
G1 X104.516 Y96.094 E7.74204
G1 X104.652 Y96.063 E7.74668
G1 X105.62 Y95.899 E7.77933
G1 X105.767 Y95.883 E7.78425
G1 X107.246 Y95.817 E7.83349
G1 X107.407 Y95.821 E7.83885
G1 X108.602 Y95.929 E7.87876
G1 X108.734 Y95.948 E7.88319
G1 X109.715 Y96.148 E7.91649
G1 X109.855 Y96.186 E7.92132
G1 X111.216 Y96.64 E7.96903
G1 X111.349 Y96.693 E7.9738
G1 X112.187 Y97.089 E8.00462
G1 X112.33 Y97.169 E8.01007
G1 X113.87 Y98.174 E8.07124
G1 X114.013 Y98.284 E8.07724
G1 X114.862 Y99.042 E8.11509
G1 X114.966 Y99.147 E8.12001
G1 X115.872 Y100.183 E8.16578
G1 X115.974 Y100.317 E8.17138
G1 X116.7 Y101.43 E8.21558
G1 X116.785 Y101.584 E8.22143
G1 X117.475 Y103.082 E8.27629
G1 X117.537 Y103.249 E8.28221
G1 X117.906 Y104.517 E8.32614
G1 X117.937 Y104.652 E8.33074
G1 X118.101 Y105.62 E8.3634
G1 X118.117 Y105.767 E8.36831
G1 X118.183 Y107.246 E8.41756
G1 X118.179 Y107.407 E8.42291
G1 X118.071 Y108.602 E8.46282
G1 X118.039 Y108.792 E8.46923
G1 X117.547 Y110.714 E8.53522
G1 X117.481 Y110.902 E8.54184
G1 X116.923 Y112.161 E8.58765
G1 X116.831 Y112.331 E8.59407
G1 X115.826 Y113.87 E8.65521
G1 X115.716 Y114.013 E8.66121
G1 X114.958 Y114.862 E8.69906
G1 X114.853 Y114.966 E8.70398
G1 X113.817 Y115.872 E8.74976
G1 X113.683 Y115.974 E8.75536
G1 X112.577 Y116.696 E8.79929
G1 X112.424 Y116.781 E8.80511
G1 X110.919 Y117.475 E8.86023
G1 X110.751 Y117.537 E8.86619
G1 X109.483 Y117.906 E8.91011
G1 X109.348 Y117.937 E8.91472
G1 X108.38 Y118.101 E8.94737
G1 X108.233 Y118.117 E8.95229
G1 X106.754 Y118.183 E9.00153
G1 X106.593 Y118.179 E9.00689
G1 X105.398 Y118.071 E9.04679
G1 X105.208 Y118.039 E9.0532
G1 X103.286 Y117.547 E9.11919
G1 X103.098 Y117.481 E9.12582
G1 X101.839 Y116.923 E9.17162
G1 X101.669 Y116.831 E9.17805
G1 X100.13 Y115.826 E9.23918
G1 X99.987 Y115.716 E9.24518
G1 X99.138 Y114.958 E9.28304
G1 X99.034 Y114.853 E9.28795
G1 X98.128 Y113.817 E9.33373
G1 X98.025 Y113.682 E9.33938
G1 X97.288 Y112.55 E9.3843
G1 X97.215 Y112.421 E9.38923
G1 X96.699 Y111.362 E9.42842
G1 X96.647 Y111.237 E9.43292
G1 X96.295 Y110.245 E9.46793
G1 X96.259 Y110.124 E9.47213
G1 X96.008 Y109.076 E9.50797
G1 X95.982 Y108.926 E9.51303
G1 X95.825 Y107.488 E9.56115
G1 X95.818 Y107.324 E9.5666
G1 X95.854 Y106.065 E9.6085
G1 X95.868 Y105.916 E9.61347
G1 X96.06 Y104.67 E9.65541
G1 X96.104 Y104.483 E9.66179
G1 X96.697 Y102.652 E9.72581
G1 X96.774 Y102.469 E9.73241
G1 X97.398 Y101.266 E9.77749
G1 X97.492 Y101.113 E9.78346
G1 X98.475 Y99.761 E9.83906
G1 X98.598 Y99.618 E9.84533
G1 F1500 E9.14533
G0 F7200 X106.56 Y100.265
;TYPE:WALL-INNER
G1 F1500 E9.84533
G1 F600 X106.211 Y100.297 E9.85699
G1 X105.858 Y100.348 E9.86885
G1 X105.524 Y100.416 E9.88019
G1 X105.155 Y100.507 E9.89283
G1 X104.553 Y100.709 E9.91395
G1 X104.196 Y100.859 E9.92683
G1 X103.875 Y101.018 E9.93874
G1 X103.581 Y101.181 E9.94992
G1 X103.282 Y101.364 E9.96158
G1 X102.988 Y101.569 E9.9735
G1 X102.713 Y101.784 E9.98511
G1 X102.446 Y102.017 E9.9969
G1 X102.195 Y102.258 E10.00847
G1 X101.956 Y102.514 E10.02012
G1 X101.732 Y102.779 E10.03166
G1 X101.519 Y103.057 E10.04331
G1 X101.319 Y103.353 E10.05519
G1 X101.138 Y103.652 E10.06682
G1 X100.974 Y103.96 E10.07842
G1 X100.824 Y104.275 E10.09003
G1 X100.69 Y104.6 E10.10172
G1 X100.574 Y104.93 E10.11335
G1 X100.475 Y105.264 E10.12494
G1 X100.394 Y105.608 E10.13669
G1 X100.332 Y105.949 E10.14822
G1 X100.285 Y106.299 E10.15997
G1 X100.256 Y106.655 E10.17185
G1 X100.25 Y107 E10.18332
G1 X100.256 Y107.345 E10.1948
G1 X100.285 Y107.701 E10.20668
G1 X100.332 Y108.051 E10.21842
G1 X100.394 Y108.392 E10.22995
G1 X100.475 Y108.736 E10.24171
G1 X100.574 Y109.07 E10.25329
G1 X100.69 Y109.4 E10.26493
G1 X100.824 Y109.725 E10.27662
G1 X100.974 Y110.04 E10.28822
G1 X101.138 Y110.348 E10.29983
G1 X101.319 Y110.647 E10.31145
G1 X101.519 Y110.943 E10.32334
G1 X101.732 Y111.221 E10.33498
G1 X101.956 Y111.486 E10.34652
G1 X102.195 Y111.742 E10.35817
G1 X102.446 Y111.983 E10.36975
G1 X102.713 Y112.216 E10.38153
G1 X102.988 Y112.431 E10.39314
G1 X103.282 Y112.636 E10.40506
G1 X103.581 Y112.818 E10.41671
G1 X103.876 Y112.983 E10.42795
G1 X104.197 Y113.141 E10.43985
G1 X104.517 Y113.277 E10.45141
G1 X104.842 Y113.397 E10.46294
G1 X105.182 Y113.501 E10.47476
G1 X105.53 Y113.59 E10.48671
G1 X105.867 Y113.654 E10.49812
G1 X106.211 Y113.703 E10.50967
G1 X106.56 Y113.735 E10.52133
G1 X106.906 Y113.75 E10.53285
G1 X107.269 Y113.747 E10.54492
G1 X107.618 Y113.72 E10.55657
G1 X107.951 Y113.682 E10.56771
G1 X108.336 Y113.62 E10.58068
G1 X108.957 Y113.462 E10.602
G1 X109.348 Y113.329 E10.61573
G1 X109.938 Y113.082 E10.63701
G1 X110.275 Y112.903 E10.6497
G1 X110.572 Y112.73 E10.66113
G1 X110.873 Y112.53 E10.67315
G1 X111.15 Y112.322 E10.68467
G1 X111.417 Y112.105 E10.69611
G1 X111.683 Y111.864 E10.70805
G1 X111.926 Y111.613 E10.71967
G1 X112.16 Y111.354 E10.73128
G1 X112.373 Y111.083 E10.74275
G1 X112.599 Y110.776 E10.75543
G1 X112.931 Y110.225 E10.77682
G1 X113.105 Y109.885 E10.78953
G1 X113.245 Y109.561 E10.80126
G1 X113.368 Y109.239 E10.81273
G1 X113.478 Y108.901 E10.82455
G1 X113.566 Y108.569 E10.83598
G1 X113.643 Y108.218 E10.84793
G1 X113.695 Y107.865 E10.85979
G1 X113.731 Y107.507 E10.87176
G1 X113.75 Y107 E10.88864
G1 X113.731 Y106.493 E10.90551
G1 X113.695 Y106.135 E10.91748
G1 X113.643 Y105.782 E10.92935
G1 X113.566 Y105.431 E10.9413
G1 X113.478 Y105.099 E10.95272
G1 X113.368 Y104.761 E10.96454
G1 X113.245 Y104.439 E10.97601
G1 X113.105 Y104.115 E10.98775
G1 X112.931 Y103.775 E11.00045
G1 X112.599 Y103.224 E11.02185
G1 X112.373 Y102.917 E11.03453
G1 X112.16 Y102.646 E11.04599
G1 X111.926 Y102.387 E11.0576
G1 X111.683 Y102.136 E11.06922
G1 X111.417 Y101.895 E11.08116
G1 X111.15 Y101.678 E11.0926
G1 X110.873 Y101.47 E11.10412
G1 X110.573 Y101.271 E11.1161
G1 X110.275 Y101.096 E11.12759
G1 X109.961 Y100.931 E11.13939
G1 X109.642 Y100.79 E11.15099
G1 X109.323 Y100.66 E11.16245
G1 X108.979 Y100.545 E11.17451
G1 X108.644 Y100.454 E11.18606
G1 X108.31 Y100.38 E11.19743
G1 X107.961 Y100.318 E11.20922
G1 X107.616 Y100.28 E11.22077
G1 X107.269 Y100.253 E11.23234
G1 X106.906 Y100.25 E11.24442
G1 X106.56 Y100.265 E11.25594
G1 F1500 E10.55594
G0 F7200 X107.013 Y114.397
G1 F1500 E11.25594
G1 F600 X106.484 Y114.379 E11.27354
G1 X106.047 Y114.336 E11.28815
G1 X105.728 Y114.288 E11.29888
G1 X105.305 Y114.204 E11.31322
G1 X104.823 Y114.071 E11.32985
G1 X104.307 Y113.89 E11.34804
G1 X103.875 Y113.705 E11.36367
G1 X103.675 Y113.608 E11.37106
G1 X103.205 Y113.351 E11.38888
G1 X102.811 Y113.1 E11.40442
G1 X102.624 Y112.968 E11.41203
G1 X102.206 Y112.636 E11.42978
G1 X102.049 Y112.497 E11.43676
G1 X101.681 Y112.145 E11.45369
G1 X101.32 Y111.742 E11.47169
G1 X101.054 Y111.404 E11.486
G1 X100.75 Y110.96 E11.50389
G1 X100.486 Y110.508 E11.5213
G1 X100.288 Y110.115 E11.53594
G1 X100.111 Y109.694 E11.55113
G1 X99.997 Y109.383 E11.56215
G1 X99.922 Y109.156 E11.5701
G1 X99.804 Y108.726 E11.58493
G1 X99.699 Y108.211 E11.60241
G1 X99.642 Y107.784 E11.61674
G1 X99.616 Y107.464 E11.62742
G1 X99.6 Y107.012 E11.64246
G1 X99.616 Y106.536 E11.6583
G1 X99.642 Y106.216 E11.66898
G1 X99.702 Y105.793 E11.68319
G1 X99.756 Y105.497 E11.6932
G1 X99.862 Y105.046 E11.7086
G1 X99.911 Y104.877 E11.71446
G1 X100.12 Y104.279 E11.73553
G1 X100.275 Y103.915 E11.74868
G1 X100.406 Y103.645 E11.75867
G1 X100.619 Y103.256 E11.77342
G1 X100.903 Y102.81 E11.791
G1 X101.195 Y102.414 E11.80737
G1 X101.501 Y102.05 E11.82318
