;FLAVOR:Marlin
;TIME:1326
;Filament used: 1.40813m
;Layer height: 0.2
;Generated with Cura_SteamEngine 3.1.0
M190 S60
M104 S215
M109 S215
M82 ; absolute extrusion mode
G28 ;Home
G1 Z15.0 F6000 ;Move the platform down 15mm
;Prime the extruder
G92 E0
G1 F200 E3
G92 E0
;LAYER_COUNT:46
;LAYER:0
M107
G0 F5400 X93.134 Y93.656 Z0.2
;TYPE:SKIRT
G1 F1800 X94.238 Y92.596 E0.0509
G1 X94.378 Y92.474 E0.05708
G1 X95.524 Y91.562 E0.10579
G1 X95.707 Y91.432 E0.11326
G1 X97.877 Y90.072 E0.19844
G1 X98.08 Y89.961 E0.20613
G1 X99.389 Y89.338 E0.25435
G1 X99.581 Y89.259 E0.26126
G1 X101.601 Y88.544 E0.33253
G1 X101.807 Y88.483 E0.33967
G1 X103.14 Y88.167 E0.38524
G1 X103.315 Y88.133 E0.39116
G1 X105.235 Y87.856 E0.45569
G1 X105.479 Y87.836 E0.46383
G1 X107.592 Y87.792 E0.53412
G1 X107.832 Y87.802 E0.54211
G1 X109.909 Y88.009 E0.61153
G1 X110.135 Y88.044 E0.61914
G1 X112.053 Y88.46 E0.68442
G1 X112.217 Y88.503 E0.69006
G1 X112.975 Y88.736 E0.71643
G1 X113.152 Y88.8 E0.72269
G1 X115.396 Y89.729 E0.80347
G1 X115.654 Y89.858 E0.81306
G1 X117.984 Y91.245 E0.90325
G1 X118.184 Y91.381 E0.9113
G1 X119.288 Y92.234 E0.9577
G1 X119.466 Y92.39 E0.96557
G1 X121.295 Y94.186 E1.05083
G1 X121.46 Y94.369 E1.05902
G1 X122.601 Y95.806 E1.12005
G1 X122.727 Y95.983 E1.12728
G1 X123.752 Y97.608 E1.19118
G1 X123.859 Y97.802 E1.19855
G1 X124.641 Y99.414 E1.25814
G1 X124.727 Y99.62 E1.26557
G1 X125.442 Y101.64 E1.33684
G1 X125.504 Y101.852 E1.34418
G1 X125.874 Y103.434 E1.39822
G1 X125.908 Y103.612 E1.40425
G1 X126.108 Y105.041 E1.45224
G1 X126.123 Y105.193 E1.45732
G1 X126.2 Y106.425 E1.49838
G1 X126.202 Y106.634 E1.50533
G1 X126.101 Y109.025 E1.58492
G1 X126.07 Y109.3 E1.59413
G1 X125.654 Y111.579 E1.67118
G1 X125.609 Y111.774 E1.67784
G1 X125.267 Y112.961 E1.71892
G1 X125.201 Y113.152 E1.72564
G1 X124.43 Y115.073 E1.79449
G1 X124.342 Y115.263 E1.80145
G1 X123.506 Y116.844 E1.86094
G1 X123.378 Y117.054 E1.86912
G1 X122.038 Y118.972 E1.94694
G1 X121.89 Y119.159 E1.95487
G1 X120.746 Y120.44 E2.01199
G1 X120.607 Y120.581 E2.01858
G1 X119.353 Y121.733 E2.07521
G1 X119.208 Y121.854 E2.0815
G1 X117.938 Y122.816 E2.13449
G1 X117.745 Y122.945 E2.14221
G1 X115.674 Y124.165 E2.22215
G1 X115.496 Y124.258 E2.22883
G1 X114.578 Y124.681 E2.26245
G1 X114.431 Y124.742 E2.26774
G1 X112.738 Y125.364 E2.32773
G1 X112.533 Y125.427 E2.33487
G1 X110.828 Y125.853 E2.39332
G1 X110.64 Y125.891 E2.3997
G1 X108.931 Y126.148 E2.45718
G1 X108.755 Y126.166 E2.46306
G1 X107.546 Y126.239 E2.50335
G1 X107.386 Y126.243 E2.50867
G1 X105.952 Y126.215 E2.55637
G1 X105.733 Y126.198 E2.56368
G1 X103.258 Y125.876 E2.64669
G1 X103.006 Y125.827 E2.65523
G1 X101.04 Y125.309 E2.72285
G1 X100.804 Y125.231 E2.73112
G1 X98.9 Y124.466 E2.79937
G1 X98.692 Y124.368 E2.80701
G1 X96.996 Y123.447 E2.8712
G1 X96.806 Y123.329 E2.87864
G1 X95.087 Y122.13 E2.94835
G1 X94.875 Y121.96 E2.95739
G1 X93.1 Y120.322 E3.03772
G1 X92.918 Y120.131 E3.0465
G1 X91.504 Y118.431 E3.12004
G1 X91.358 Y118.231 E3.12828
G1 X90.203 Y116.429 E3.19947
G1 X90.068 Y116.182 E3.20883
G1 X89.007 Y113.862 E3.29368
G1 X88.918 Y113.629 E3.30198
G1 X88.339 Y111.785 E3.36626
G1 X88.294 Y111.617 E3.37204
G1 X88.102 Y110.747 E3.40168
G1 X88.07 Y110.561 E3.40795
G1 X87.776 Y108.183 E3.48765
G1 X87.761 Y107.918 E3.49648
G1 X87.782 Y105.769 E3.56796
G1 X87.801 Y105.514 E3.57646
G1 X88.11 Y103.291 E3.65111
G1 X88.157 Y103.057 E3.65905
G1 X88.677 Y101.08 E3.72704
G1 X88.754 Y100.846 E3.73523
G1 X89.479 Y99.034 E3.80015
G1 X89.587 Y98.807 E3.80851
G1 X90.853 Y96.525 E3.8953
G1 X90.982 Y96.323 E3.90328
G1 X91.796 Y95.198 E3.94946
G1 X91.905 Y95.059 E3.95534
G1 X93.008 Y93.788 E4.01131
G1 X93.134 Y93.656 E4.01738
G0 F5400 X93.411 Y93.945
G1 F1800 X94.515 Y92.885 E4.06828
G1 X94.627 Y92.787 E4.07323
G1 X95.773 Y91.875 E4.12195
G1 X95.919 Y91.771 E4.12791
G1 X98.089 Y90.411 E4.21308
G1 X98.251 Y90.322 E4.21923
G1 X99.56 Y89.699 E4.26745
G1 X99.714 Y89.636 E4.27298
G1 X101.734 Y88.921 E4.34425
G1 X101.899 Y88.872 E4.34998
G1 X103.232 Y88.556 E4.39554
G1 X103.373 Y88.529 E4.40032
G1 X105.293 Y88.252 E4.46484
G1 X105.488 Y88.236 E4.47135
G1 X107.601 Y88.192 E4.54164
G1 X107.793 Y88.2 E4.54803
G1 X109.87 Y88.407 E4.61745
G1 X110.05 Y88.435 E4.62351
G1 X111.968 Y88.851 E4.68879
G1 X112.099 Y88.886 E4.6933
G1 X112.857 Y89.119 E4.71968
G1 X112.999 Y89.17 E4.72469
G1 X115.243 Y90.099 E4.80547
G1 X115.449 Y90.202 E4.81313
G1 X117.779 Y91.589 E4.90332
G1 X117.939 Y91.698 E4.90976
G1 X119.043 Y92.551 E4.95616
G1 X119.186 Y92.675 E4.96246
G1 X121.015 Y94.471 E5.04772
G1 X121.147 Y94.618 E5.05429
G1 X122.288 Y96.055 E5.11532
G1 X122.388 Y96.196 E5.12106
G1 X123.413 Y97.821 E5.18497
G1 X123.5 Y97.977 E5.19091
G1 X124.282 Y99.589 E5.2505
G1 X124.35 Y99.753 E5.2564
G1 X125.065 Y101.773 E5.32767
G1 X125.115 Y101.943 E5.33357
G1 X125.485 Y103.525 E5.3876
G1 X125.512 Y103.667 E5.39241
G1 X125.712 Y105.096 E5.4404
G1 X125.724 Y105.218 E5.44448
G1 X125.801 Y106.45 E5.48554
G1 X125.803 Y106.618 E5.49113
G1 X125.702 Y109.009 E5.57072
G1 X125.677 Y109.228 E5.57805
G1 X125.261 Y111.507 E5.65511
G1 X125.224 Y111.663 E5.66044
G1 X124.882 Y112.85 E5.70152
G1 X124.83 Y113.003 E5.7069
G1 X124.059 Y114.924 E5.77575
G1 X123.988 Y115.076 E5.78132
G1 X123.152 Y116.657 E5.84081
G1 X123.05 Y116.825 E5.84735
G1 X121.71 Y118.743 E5.92516
G1 X121.591 Y118.893 E5.93153
G1 X120.447 Y120.174 E5.98866
G1 X120.336 Y120.286 E5.9939
G1 X119.082 Y121.438 E6.05054
G1 X118.966 Y121.535 E6.05557
G1 X117.696 Y122.497 E6.10856
G1 X117.542 Y122.601 E6.11474
G1 X115.471 Y123.821 E6.19468
G1 X115.329 Y123.895 E6.20001
G1 X114.411 Y124.318 E6.23363
G1 X114.293 Y124.367 E6.23788
G1 X112.6 Y124.989 E6.29787
G1 X112.436 Y125.039 E6.30357
G1 X110.731 Y125.465 E6.36202
G1 X110.581 Y125.495 E6.36711
G1 X108.872 Y125.752 E6.42459
G1 X108.73 Y125.767 E6.42934
G1 X107.521 Y125.84 E6.46962
G1 X107.394 Y125.843 E6.47385
G1 X105.96 Y125.815 E6.52155
G1 X105.785 Y125.802 E6.52739
G1 X103.31 Y125.48 E6.6104
G1 X103.108 Y125.44 E6.61725
G1 X101.142 Y124.922 E6.68487
G1 X100.953 Y124.86 E6.69149
G1 X99.049 Y124.095 E6.75973
G1 X98.882 Y124.016 E6.76588
G1 X97.186 Y123.095 E6.83007
G1 X97.035 Y123.001 E6.83599
G1 X95.316 Y121.802 E6.90569
G1 X95.146 Y121.666 E6.91293
G1 X93.371 Y120.028 E6.99327
G1 X93.226 Y119.875 E7.00028
G1 X91.812 Y118.175 E7.07382
G1 X91.695 Y118.015 E7.08042
G1 X90.54 Y116.213 E7.15161
G1 X90.432 Y116.015 E7.15911
G1 X89.371 Y113.695 E7.24396
G1 X89.299 Y113.509 E7.25059
G1 X88.72 Y111.665 E7.31487
G1 X88.685 Y111.531 E7.31948
G1 X88.493 Y110.661 E7.34911
G1 X88.467 Y110.512 E7.35414
G1 X88.173 Y108.134 E7.43384
G1 X88.161 Y107.922 E7.4409
G1 X88.182 Y105.773 E7.51238
G1 X88.197 Y105.569 E7.51918
G1 X88.506 Y103.346 E7.59383
G1 X88.544 Y103.159 E7.60018
G1 X89.064 Y101.182 E7.66817
G1 X89.125 Y100.995 E7.67471
G1 X89.85 Y99.183 E7.73963
G1 X89.937 Y99.001 E7.74633
G1 X91.203 Y96.719 E7.83313
G1 X91.306 Y96.557 E7.83952
G1 X92.12 Y95.432 E7.8857
G1 X92.208 Y95.321 E7.89041
G1 X93.311 Y94.05 E7.94639
G1 X93.411 Y93.945 E7.95121
G0 F5400 X93.688 Y94.233
G1 F1800 X94.792 Y93.173 E8.00211
G1 X94.876 Y93.1 E8.00581
G1 X96.022 Y92.188 E8.05453
G1 X96.132 Y92.11 E8.05901
G1 X98.302 Y90.75 E8.14419
G1 X98.423 Y90.683 E8.14879
G1 X99.732 Y90.06 E8.19701
G1 X99.848 Y90.013 E8.20117
G1 X101.868 Y89.298 E8.27244
G1 X101.991 Y89.261 E8.27671
G1 X103.324 Y88.945 E8.32228
G1 X103.43 Y88.925 E8.32586
G1 X105.35 Y88.648 E8.39039
G1 X105.496 Y88.636 E8.39526
G1 X107.609 Y88.592 E8.46555
G1 X107.753 Y88.598 E8.47035
G1 X109.83 Y88.805 E8.53977
G1 X109.965 Y88.826 E8.54431
G1 X111.883 Y89.242 E8.60959
G1 X111.982 Y89.268 E8.61299
G1 X112.74 Y89.501 E8.63937
G1 X112.846 Y89.539 E8.64311
G1 X115.09 Y90.468 E8.72389
G1 X115.245 Y90.546 E8.72966
G1 X117.575 Y91.933 E8.81985
G1 X117.695 Y92.014 E8.82467
G1 X118.799 Y92.867 E8.87107
G1 X118.906 Y92.961 E8.87581
G1 X120.735 Y94.757 E8.96107
G1 X120.834 Y94.867 E8.96599
G1 X121.975 Y96.304 E9.02702
G1 X122.05 Y96.41 E9.03134
G1 X123.075 Y98.035 E9.09524
G1 X123.14 Y98.151 E9.09966
G1 X123.922 Y99.763 E9.15925
G1 X123.973 Y99.887 E9.16371
G1 X124.688 Y101.907 E9.23498
G1 X124.725 Y102.034 E9.23938
G1 X125.095 Y103.616 E9.29342
G1 X125.115 Y103.723 E9.29704
G1 X125.315 Y105.152 E9.34503
G1 X125.325 Y105.243 E9.34807
G1 X125.402 Y106.475 E9.38913
G1 X125.403 Y106.601 E9.39332
G1 X125.302 Y108.992 E9.47292
G1 X125.283 Y109.156 E9.47841
G1 X124.867 Y111.435 E9.55546
G1 X124.84 Y111.552 E9.55945
G1 X124.498 Y112.739 E9.60054
G1 X124.459 Y112.854 E9.60458
G1 X123.688 Y114.775 E9.67343
G1 X123.635 Y114.889 E9.67761
G1 X122.799 Y116.47 E9.73709
G1 X122.722 Y116.596 E9.742
G1 X121.382 Y118.514 E9.81982
G1 X121.293 Y118.626 E9.82458
G1 X120.149 Y119.907 E9.8817
G1 X120.066 Y119.992 E9.88565
G1 X118.812 Y121.144 E9.94229
G1 X118.725 Y121.217 E9.94607
G1 X117.455 Y122.179 E9.99906
G1 X117.339 Y122.256 E10.00369
G1 X115.268 Y123.476 E10.08363
G1 X115.161 Y123.532 E10.08765
G1 X114.243 Y123.955 E10.12127
G1 X114.155 Y123.991 E10.12443
G1 X112.462 Y124.613 E10.18442
G1 X112.339 Y124.651 E10.1887
G1 X110.634 Y125.077 E10.24715
G1 X110.521 Y125.1 E10.25099
G1 X108.812 Y125.357 E10.30847
G1 X108.706 Y125.368 E10.31202
G1 X107.497 Y125.441 E10.3523
G1 X107.402 Y125.443 E10.35546
G1 X105.968 Y125.415 E10.40316
G1 X105.836 Y125.405 E10.40757
G1 X103.361 Y125.083 E10.49058
G1 X103.21 Y125.053 E10.4957
G1 X101.244 Y124.535 E10.56332
G1 X101.103 Y124.488 E10.56827
G1 X99.199 Y123.723 E10.63651
G1 X99.073 Y123.665 E10.64113
G1 X97.377 Y122.744 E10.70532
G1 X97.263 Y122.673 E10.70978
G1 X95.544 Y121.474 E10.77949
G1 X95.417 Y121.372 E10.78491
G1 X93.642 Y119.734 E10.86524
G1 X93.533 Y119.619 E10.87051
G1 X92.119 Y117.919 E10.94406
G1 X92.032 Y117.8 E10.94896
G1 X90.877 Y115.998 E11.02015
G1 X90.796 Y115.849 E11.02579
G1 X89.735 Y113.529 E11.11064
G1 X89.681 Y113.389 E11.11563
G1 X89.102 Y111.545 E11.17991
G1 X89.075 Y111.445 E11.18336
G1 X88.883 Y110.575 E11.21299
G1 X88.864 Y110.463 E11.21677
G1 X88.57 Y108.085 E11.29647
G1 X88.561 Y107.926 E11.30176
G1 X88.582 Y105.777 E11.37324
G1 X88.593 Y105.624 E11.37834
G1 X88.902 Y103.401 E11.45299
G1 X88.93 Y103.261 E11.45774
G1 X89.45 Y101.284 E11.52573
G1 X89.497 Y101.143 E11.53068
G1 X90.222 Y99.331 E11.59559
G1 X90.287 Y99.195 E11.6006
G1 X91.553 Y96.913 E11.6874
G1 X91.63 Y96.792 E11.69217
G1 X92.444 Y95.667 E11.73835
G1 X92.51 Y95.583 E11.74191
G1 X93.613 Y94.312 E11.79788
G1 X93.688 Y94.233 E11.8015
G1 F1500 E11.1015
G0 F5400 X96.177 Y96.215
;TYPE:WALL-INNER
G1 F1500 E11.8015
G1 F1800 X95.934 Y96.22 E11.80959
G1 X96.178 Y95.972 E11.82116
G1 X96.177 Y96.215 E11.82924
G1 F1500 E11.12924
G0 F5400 X102.929 Y92.206
G1 F1500 E11.82924
G1 F1800 X102.801 Y92.143 E11.83399
G1 X102.951 Y92.101 E11.83917
G1 X103.143 Y92.055 E11.84573
G1 X103.021 Y92.263 E11.85375
G1 X102.929 Y92.206 E11.85735
G1 F1500 E11.15735
G0 F5400 X111.137 Y92.143
G1 F1500 E11.85735
G1 F1800 X110.925 Y92.263 E11.86546
G1 X110.796 Y92.052 E11.87368
G1 X111.137 Y92.143 E11.88542
G1 F1500 E11.18542
G0 F5400 X109.413 Y98.676
G1 F1500 E11.88542
G1 F1800 X109.645 Y98.999 E11.89865
G1 X109.907 Y99.305 E11.91205
G1 X110.198 Y99.587 E11.92552
G1 X110.512 Y99.844 E11.93902
G1 X110.845 Y100.068 E11.95237
G1 X111.196 Y100.261 E11.96569
G1 X111.564 Y100.426 E11.9791
G1 X111.943 Y100.554 E11.99241
G1 X112.33 Y100.652 E12.00569
G1 X112.74 Y100.712 E12.01947
G1 X113.137 Y100.736 E12.0327
G1 X113.251 Y100.733 E12.03649
G1 X113.251 Y100.983 E12.0448
G1 X113.304 Y101.459 E12.06073
G1 X113.357 Y101.762 E12.07097
G1 X113.464 Y102.151 E12.08438
G1 X113.603 Y102.526 E12.09769
G1 X113.775 Y102.891 E12.11111
G1 X113.979 Y103.239 E12.12452
G1 X114.215 Y103.568 E12.13799
G1 X114.477 Y103.874 E12.15139
G1 X114.761 Y104.152 E12.16461
G1 X115.073 Y104.41 E12.17807
G1 X115.409 Y104.636 E12.19154
G1 X115.759 Y104.832 E12.20488
G1 X116.128 Y104.997 E12.21833
G1 X116.509 Y105.127 E12.23172
G1 X116.895 Y105.222 E12.24494
G1 X117.297 Y105.287 E12.25848
G1 X117.704 Y105.312 E12.27204
G1 X118.115 Y105.301 E12.28572
G1 X118.514 Y105.255 E12.29908
G1 X118.772 Y105.202 E12.30784
G1 X118.687 Y105.292 E12.31195
G1 X118.443 Y105.636 E12.32598
G1 X118.26 Y106.012 E12.33989
G1 X118.138 Y106.4 E12.35342
G1 X118.076 Y106.809 E12.36718
G1 X118.076 Y107.227 E12.38108
G1 X118.143 Y107.638 E12.39493
G1 X118.266 Y108.03 E12.4086
G1 X118.453 Y108.401 E12.42241
G1 X118.69 Y108.738 E12.43612
G1 X118.767 Y108.817 E12.43979
G1 X118.491 Y108.762 E12.44915
G1 X118.096 Y108.718 E12.46236
G1 X117.695 Y108.713 E12.4757
G1 X117.293 Y108.738 E12.4891
G1 X116.899 Y108.803 E12.50238
G1 X116.509 Y108.897 E12.51572
G1 X116.123 Y109.031 E12.52931
G1 X115.762 Y109.193 E12.54247
G1 X115.411 Y109.388 E12.55583
G1 X115.073 Y109.615 E12.56937
G1 X114.761 Y109.872 E12.58282
G1 X114.475 Y110.153 E12.59615
G1 X114.215 Y110.457 E12.60946
G1 X113.979 Y110.785 E12.6229
G1 X113.775 Y111.135 E12.63637
G1 X113.603 Y111.498 E12.64973
G1 X113.464 Y111.875 E12.66309
G1 X113.357 Y112.264 E12.67651
G1 X113.287 Y112.657 E12.68979
G1 X113.251 Y113.06 E12.70325
G1 X113.251 Y113.291 E12.71093
G1 X113.109 Y113.289 E12.71565
G1 X112.713 Y113.315 E12.72885
G1 X112.311 Y113.38 E12.7424
G1 X111.922 Y113.476 E12.75572
G1 X111.538 Y113.609 E12.76924
G1 X111.169 Y113.777 E12.78273
G1 X110.818 Y113.973 E12.7961
G1 X110.489 Y114.2 E12.80939
G1 X110.181 Y114.454 E12.82267
G1 X109.891 Y114.737 E12.83615
G1 X109.621 Y115.057 E12.85007
G1 X109.365 Y115.429 E12.86509
G1 X109.272 Y115.589 E12.87125
G1 X109.179 Y115.532 E12.87487
G1 X108.819 Y115.352 E12.88826
G1 X108.446 Y115.205 E12.9016
G1 X108.06 Y115.091 E12.91498
G1 X107.664 Y115.012 E12.92841
G1 X107.257 Y114.968 E12.94203
G1 X106.86 Y114.964 E12.95523
G1 X106.459 Y114.989 E12.9686
G1 X106.058 Y115.055 E12.98211
G1 X105.672 Y115.15 E12.99534
G1 X105.286 Y115.284 E13.00893
G1 X104.922 Y115.451 E13.02225
G1 X104.678 Y115.587 E13.03154
G1 X104.646 Y115.527 E13.0338
G1 X104.421 Y115.185 E13.04741
G1 X104.171 Y114.865 E13.06092
G1 X103.891 Y114.57 E13.07445
G1 X103.592 Y114.306 E13.08771
G1 X103.275 Y114.07 E13.10086
G1 X102.929 Y113.857 E13.11437
G1 X102.565 Y113.677 E13.12788
G1 X102.196 Y113.532 E13.14107
G1 X101.813 Y113.417 E13.15437
G1 X101.431 Y113.34 E13.16733
G1 X101.012 Y113.294 E13.18135
G1 X100.697 Y113.29 E13.19182
G1 X100.682 Y112.861 E13.2061
G1 X100.628 Y112.463 E13.21946
G1 X100.543 Y112.073 E13.23274
G1 X100.417 Y111.681 E13.24643
G1 X100.258 Y111.31 E13.25986
G1 X100.073 Y110.958 E13.27308
G1 X99.854 Y110.619 E13.28651
G1 X99.605 Y110.304 E13.29986
G1 X99.331 Y110.009 E13.31325
G1 X99.03 Y109.739 E13.3267
G1 X98.709 Y109.499 E13.34003
G1 X98.365 Y109.286 E13.35349
G1 X98.005 Y109.109 E13.36683
G1 X97.636 Y108.96 E13.38007
G1 X97.246 Y108.845 E13.39359
G1 X96.852 Y108.763 E13.40698
G1 X96.446 Y108.718 E13.42056
G1 X96.042 Y108.713 E13.434
G1 X95.641 Y108.739 E13.44737
G1 X95.249 Y108.799 E13.46056
G1 X95.184 Y108.815 E13.46278
G1 X95.39 Y108.563 E13.47361
G1 X95.601 Y108.207 E13.48737
G1 X95.755 Y107.818 E13.50129
G1 X95.845 Y107.422 E13.51479
G1 X95.878 Y107.01 E13.52854
G1 X95.845 Y106.594 E13.54242
G1 X95.751 Y106.195 E13.55605
G1 X95.598 Y105.809 E13.56986
G1 X95.385 Y105.451 E13.58372
G1 X95.185 Y105.21 E13.59414
G1 X95.249 Y105.226 E13.59633
G1 X95.64 Y105.285 E13.60948
G1 X96.045 Y105.312 E13.62298
G1 X96.45 Y105.302 E13.63646
G1 X96.849 Y105.261 E13.6498
G1 X97.247 Y105.179 E13.66331
G1 X97.629 Y105.067 E13.67655
G1 X98.004 Y104.92 E13.68995
G1 X98.368 Y104.736 E13.70352
G1 X98.706 Y104.527 E13.71673
G1 X99.033 Y104.286 E13.73024
G1 X99.334 Y104.012 E13.74378
G1 X99.605 Y103.722 E13.75698
G1 X99.854 Y103.406 E13.77036
G1 X100.072 Y103.068 E13.78374
G1 X100.261 Y102.714 E13.79709
G1 X100.417 Y102.343 E13.81047
G1 X100.545 Y101.943 E13.82444
G1 X100.638 Y101.502 E13.83943
G1 X100.682 Y101.163 E13.8508
G1 X100.697 Y100.735 E13.86505
G1 X101.041 Y100.726 E13.87649
G1 X101.457 Y100.678 E13.89042
G1 X101.835 Y100.6 E13.90326
G1 X102.217 Y100.485 E13.91653
G1 X102.591 Y100.337 E13.9299
G1 X102.952 Y100.156 E13.94334
G1 X103.3 Y99.94 E13.95696
G1 X103.617 Y99.699 E13.9702
G1 X103.912 Y99.435 E13.98337
