;FLAVOR:Marlin
;TIME:1319
;Filament used: 1.39807m
;Layer height: 0.2
;Generated with Cura_SteamEngine 3.1.0
M190 S60
M104 S215
M109 S215
M82 ; absolute extrusion mode
G28 ;Home
G1 Z15.0 F6000 ;Move the platform down 15mm
;Prime the extruder
G92 E0
G1 F200 E3
G92 E0
;LAYER_COUNT:46
;LAYER:0
M107
G0 F5400 X93.391 Y93.395 Z0.2
;TYPE:SKIRT
G1 F1800 X93.563 Y93.227 E0.008
G1 X95.243 Y91.777 E0.08181
G1 X95.452 Y91.62 E0.0905
G1 X97.479 Y90.288 E0.17117
G1 X97.69 Y90.167 E0.17926
G1 X99.199 Y89.42 E0.23527
G1 X99.412 Y89.329 E0.24297
G1 X101.61 Y88.542 E0.32062
G1 X101.827 Y88.478 E0.32815
G1 X103.217 Y88.152 E0.37563
G1 X103.39 Y88.119 E0.38149
G1 X105.225 Y87.856 E0.44315
G1 X105.424 Y87.838 E0.44979
G1 X106.851 Y87.777 E0.4973
G1 X107.064 Y87.779 E0.50438
G1 X109.339 Y87.925 E0.5802
G1 X109.57 Y87.954 E0.58795
G1 X111.257 Y88.262 E0.64498
G1 X111.447 Y88.306 E0.65147
G1 X113.063 Y88.767 E0.70736
G1 X113.24 Y88.826 E0.71357
G1 X114.642 Y89.372 E0.76361
G1 X114.806 Y89.445 E0.76958
G1 X116.221 Y90.148 E0.82213
G1 X116.433 Y90.27 E0.83027
G1 X118.629 Y91.72 E0.91779
G1 X118.839 Y91.88 E0.92657
G1 X120.32 Y93.168 E0.99186
G1 X120.504 Y93.35 E1.00046
G1 X122.179 Y95.238 E1.08441
G1 X122.34 Y95.445 E1.09313
G1 X123.403 Y97.018 E1.15628
G1 X123.5 Y97.177 E1.16247
G1 X124.194 Y98.443 E1.21049
G1 X124.276 Y98.61 E1.21668
G1 X124.934 Y100.132 E1.27183
G1 X125.007 Y100.329 E1.27882
G1 X125.61 Y102.256 E1.34597
G1 X125.665 Y102.474 E1.35345
G1 X125.988 Y104.149 E1.41019
G1 X126.015 Y104.335 E1.41644
G1 X126.19 Y106.14 E1.47675
G1 X126.198 Y106.379 E1.48471
G1 X126.149 Y108.517 E1.55584
G1 X126.132 Y108.741 E1.56331
G1 X125.899 Y110.448 E1.62061
G1 X125.852 Y110.682 E1.62855
G1 X125.242 Y113.023 E1.70901
G1 X125.171 Y113.243 E1.7167
G1 X124.651 Y114.581 E1.76444
G1 X124.584 Y114.735 E1.77003
G1 X123.847 Y116.243 E1.82586
G1 X123.737 Y116.44 E1.83336
G1 X122.588 Y118.243 E1.90447
G1 X122.427 Y118.461 E1.91348
G1 X120.834 Y120.341 E1.99544
G1 X120.655 Y120.526 E2.004
G1 X119.163 Y121.886 E2.07115
G1 X119.01 Y122.013 E2.07776
G1 X117.838 Y122.885 E2.12635
G1 X117.699 Y122.979 E2.13193
G1 X116.51 Y123.717 E2.17848
G1 X116.353 Y123.805 E2.18446
G1 X114.829 Y124.571 E2.24119
G1 X114.604 Y124.668 E2.24934
G1 X112.26 Y125.505 E2.33213
G1 X112.039 Y125.569 E2.33978
G1 X110.725 Y125.874 E2.38464
G1 X110.556 Y125.906 E2.39037
G1 X108.724 Y126.168 E2.45192
G1 X108.528 Y126.186 E2.45846
G1 X107.097 Y126.248 E2.5061
G1 X106.88 Y126.246 E2.51332
G1 X104.553 Y126.094 E2.59088
G1 X104.275 Y126.056 E2.60022
G1 X101.842 Y125.549 E2.68288
G1 X101.545 Y125.463 E2.69316
G1 X98.941 Y124.482 E2.78571
G1 X98.692 Y124.368 E2.79482
G1 X96.996 Y123.447 E2.85901
G1 X96.806 Y123.329 E2.86645
G1 X95.087 Y122.13 E2.93616
G1 X94.875 Y121.96 E2.94519
G1 X93.1 Y120.322 E3.02553
G1 X92.918 Y120.131 E3.0343
G1 X91.504 Y118.431 E3.10785
G1 X91.358 Y118.231 E3.11608
G1 X90.203 Y116.429 E3.18727
G1 X90.068 Y116.181 E3.19666
G1 X89.014 Y113.874 E3.28102
G1 X88.934 Y113.67 E3.28831
G1 X88.466 Y112.253 E3.33795
G1 X88.419 Y112.087 E3.34368
G1 X88.121 Y110.829 E3.38668
G1 X88.087 Y110.65 E3.39274
G1 X87.818 Y108.762 E3.45617
G1 X87.8 Y108.567 E3.46269
G1 X87.738 Y107.135 E3.51036
G1 X87.74 Y106.922 E3.51744
G1 X87.88 Y104.706 E3.5913
G1 X87.917 Y104.431 E3.60052
G1 X88.439 Y101.881 E3.6871
G1 X88.517 Y101.603 E3.6967
G1 X89.286 Y99.474 E3.77199
G1 X89.384 Y99.247 E3.78021
G1 X90.386 Y97.274 E3.85381
G1 X90.532 Y97.031 E3.86324
G1 X91.975 Y94.975 E3.94678
G1 X92.133 Y94.778 E3.95518
G1 X93.391 Y93.395 E4.01737
G0 F5400 X93.686 Y93.664
G1 F1800 X93.825 Y93.53 E4.02379
G1 X95.505 Y92.08 E4.0976
G1 X95.671 Y91.954 E4.10453
G1 X97.698 Y90.622 E4.1852
G1 X97.867 Y90.525 E4.19168
G1 X99.376 Y89.778 E4.24769
G1 X99.547 Y89.706 E4.25386
G1 X101.745 Y88.919 E4.33151
G1 X101.919 Y88.867 E4.33755
G1 X103.309 Y88.541 E4.38503
G1 X103.447 Y88.515 E4.3897
G1 X105.282 Y88.252 E4.45136
G1 X105.441 Y88.237 E4.45667
G1 X106.868 Y88.176 E4.50418
G1 X107.038 Y88.178 E4.50983
G1 X109.313 Y88.324 E4.58565
G1 X109.498 Y88.347 E4.59186
G1 X111.185 Y88.655 E4.64889
G1 X111.337 Y88.69 E4.65408
G1 X112.953 Y89.151 E4.70997
G1 X113.095 Y89.199 E4.71496
G1 X114.497 Y89.745 E4.765
G1 X114.628 Y89.803 E4.76977
G1 X116.043 Y90.506 E4.82232
G1 X116.213 Y90.604 E4.82884
G1 X118.409 Y92.054 E4.91637
G1 X118.577 Y92.182 E4.92339
G1 X120.058 Y93.47 E4.98867
G1 X120.205 Y93.615 E4.99554
G1 X121.88 Y95.503 E5.07949
G1 X122.009 Y95.669 E5.08648
G1 X123.072 Y97.242 E5.14962
G1 X123.149 Y97.369 E5.15456
G1 X123.843 Y98.635 E5.20258
G1 X123.909 Y98.769 E5.20755
G1 X124.567 Y100.291 E5.2627
G1 X124.625 Y100.448 E5.26827
G1 X125.228 Y102.375 E5.33542
G1 X125.272 Y102.55 E5.34143
G1 X125.595 Y104.225 E5.39816
G1 X125.617 Y104.374 E5.40317
G1 X125.792 Y106.179 E5.46349
G1 X125.799 Y106.37 E5.46985
G1 X125.75 Y108.508 E5.54097
G1 X125.735 Y108.687 E5.54695
G1 X125.502 Y110.394 E5.60425
G1 X125.465 Y110.581 E5.61059
G1 X124.855 Y112.922 E5.69105
G1 X124.798 Y113.099 E5.69724
G1 X124.278 Y114.437 E5.74498
G1 X124.225 Y114.56 E5.74944
G1 X123.488 Y116.068 E5.80526
G1 X123.399 Y116.225 E5.81127
G1 X122.25 Y118.028 E5.88238
G1 X122.122 Y118.202 E5.88956
G1 X120.529 Y120.082 E5.97152
G1 X120.386 Y120.23 E5.97836
G1 X118.894 Y121.59 E6.04551
G1 X118.771 Y121.692 E6.05082
G1 X117.599 Y122.564 E6.09941
G1 X117.488 Y122.639 E6.10387
G1 X116.299 Y123.377 E6.15041
G1 X116.174 Y123.448 E6.15519
G1 X114.65 Y124.214 E6.21192
G1 X114.469 Y124.291 E6.21847
G1 X112.125 Y125.128 E6.30125
G1 X111.949 Y125.18 E6.30735
G1 X110.635 Y125.485 E6.35222
G1 X110.5 Y125.51 E6.35678
G1 X108.668 Y125.772 E6.41834
G1 X108.51 Y125.787 E6.42362
G1 X107.079 Y125.849 E6.47126
G1 X106.906 Y125.847 E6.47701
G1 X104.579 Y125.695 E6.55457
G1 X104.357 Y125.664 E6.56203
G1 X101.924 Y125.157 E6.64469
G1 X101.686 Y125.088 E6.65293
G1 X99.082 Y124.107 E6.74548
G1 X98.882 Y124.016 E6.75279
G1 X97.186 Y123.095 E6.81698
G1 X97.035 Y123.001 E6.82289
G1 X95.316 Y121.802 E6.8926
G1 X95.146 Y121.666 E6.89984
G1 X93.371 Y120.028 E6.98018
G1 X93.226 Y119.875 E6.98719
G1 X91.812 Y118.175 E7.06073
G1 X91.695 Y118.015 E7.06733
G1 X90.54 Y116.213 E7.13851
G1 X90.432 Y116.015 E7.14602
G1 X89.378 Y113.708 E7.23038
G1 X89.314 Y113.545 E7.2362
G1 X88.846 Y112.128 E7.28583
G1 X88.808 Y111.995 E7.29043
G1 X88.51 Y110.737 E7.33343
G1 X88.483 Y110.594 E7.33827
G1 X88.214 Y108.706 E7.4017
G1 X88.199 Y108.549 E7.40695
G1 X88.137 Y107.117 E7.45462
G1 X88.139 Y106.947 E7.46028
G1 X88.279 Y104.731 E7.53413
G1 X88.309 Y104.511 E7.54151
G1 X88.831 Y101.961 E7.62809
G1 X88.893 Y101.738 E7.63578
G1 X89.662 Y99.609 E7.71107
G1 X89.74 Y99.429 E7.7176
G1 X90.742 Y97.456 E7.7912
G1 X90.859 Y97.261 E7.79876
G1 X92.302 Y95.205 E7.8823
G1 X92.428 Y95.047 E7.88903
G1 X93.686 Y93.664 E7.95121
G0 F5400 X93.982 Y93.934
G1 F1800 X94.086 Y93.833 E7.95603
G1 X95.766 Y92.383 E8.02984
G1 X95.891 Y92.288 E8.03506
G1 X97.918 Y90.956 E8.11573
G1 X98.045 Y90.884 E8.12059
G1 X99.554 Y90.137 E8.17659
G1 X99.681 Y90.082 E8.1812
G1 X101.879 Y89.295 E8.25885
G1 X102.01 Y89.257 E8.26338
G1 X103.4 Y88.931 E8.31087
G1 X103.504 Y88.911 E8.31439
G1 X105.339 Y88.648 E8.37605
G1 X105.458 Y88.637 E8.38002
G1 X106.885 Y88.576 E8.42753
G1 X107.013 Y88.577 E8.43179
G1 X109.288 Y88.723 E8.50761
G1 X109.427 Y88.741 E8.51227
G1 X111.114 Y89.049 E8.56931
G1 X111.227 Y89.075 E8.57316
G1 X112.843 Y89.536 E8.62906
G1 X112.949 Y89.572 E8.63278
G1 X114.351 Y90.118 E8.68282
G1 X114.45 Y90.161 E8.68641
G1 X115.865 Y90.864 E8.73896
G1 X115.992 Y90.938 E8.74385
G1 X118.188 Y92.388 E8.83138
G1 X118.314 Y92.484 E8.83665
G1 X119.795 Y93.772 E8.90193
G1 X119.906 Y93.881 E8.9071
G1 X121.581 Y95.769 E8.99105
G1 X121.677 Y95.893 E8.99626
G1 X122.74 Y97.466 E9.05941
G1 X122.798 Y97.561 E9.06311
G1 X123.492 Y98.827 E9.11113
G1 X123.541 Y98.928 E9.11486
G1 X124.199 Y100.45 E9.17001
G1 X124.243 Y100.568 E9.1742
G1 X124.846 Y102.495 E9.24136
G1 X124.879 Y102.626 E9.24585
G1 X125.202 Y104.301 E9.30259
G1 X125.218 Y104.412 E9.30632
G1 X125.393 Y106.217 E9.36663
G1 X125.399 Y106.36 E9.37139
G1 X125.35 Y108.498 E9.44252
G1 X125.339 Y108.633 E9.44703
G1 X125.106 Y110.34 E9.50433
G1 X125.078 Y110.481 E9.50911
G1 X124.468 Y112.822 E9.58957
G1 X124.425 Y112.954 E9.59419
G1 X123.905 Y114.292 E9.64193
G1 X123.865 Y114.384 E9.64527
G1 X123.128 Y115.892 E9.7011
G1 X123.062 Y116.01 E9.70559
G1 X121.913 Y117.813 E9.7767
G1 X121.817 Y117.944 E9.78211
G1 X120.224 Y119.824 E9.86406
G1 X120.116 Y119.935 E9.86921
G1 X118.624 Y121.295 E9.93636
G1 X118.532 Y121.371 E9.94033
G1 X117.36 Y122.243 E9.98892
G1 X117.277 Y122.3 E9.99227
G1 X116.088 Y123.038 E10.03881
G1 X115.994 Y123.09 E10.04238
G1 X114.47 Y123.856 E10.09911
G1 X114.335 Y123.914 E10.104
G1 X111.991 Y124.751 E10.18678
G1 X111.858 Y124.79 E10.19139
G1 X110.544 Y125.095 E10.23626
G1 X110.443 Y125.114 E10.23968
G1 X108.611 Y125.376 E10.30123
G1 X108.493 Y125.387 E10.30517
G1 X107.062 Y125.449 E10.35281
G1 X106.932 Y125.447 E10.35714
G1 X104.605 Y125.295 E10.4347
G1 X104.438 Y125.273 E10.4403
G1 X102.005 Y124.766 E10.52296
G1 X101.827 Y124.714 E10.52913
G1 X99.223 Y123.733 E10.62168
G1 X99.073 Y123.665 E10.62716
G1 X97.377 Y122.744 E10.69135
G1 X97.263 Y122.673 E10.69581
G1 X95.544 Y121.474 E10.76552
G1 X95.417 Y121.372 E10.77094
G1 X93.642 Y119.734 E10.85127
G1 X93.533 Y119.619 E10.85654
G1 X92.119 Y117.919 E10.93009
G1 X92.032 Y117.8 E10.93499
G1 X90.877 Y115.998 E11.00618
G1 X90.796 Y115.849 E11.01182
G1 X89.742 Y113.542 E11.09618
G1 X89.694 Y113.419 E11.10057
G1 X89.226 Y112.002 E11.15021
G1 X89.197 Y111.903 E11.15364
G1 X88.899 Y110.645 E11.19664
G1 X88.879 Y110.537 E11.20029
G1 X88.61 Y108.649 E11.26372
G1 X88.599 Y108.532 E11.26763
G1 X88.537 Y107.1 E11.3153
G1 X88.538 Y106.972 E11.31956
G1 X88.678 Y104.756 E11.39341
G1 X88.7 Y104.591 E11.39895
G1 X89.222 Y102.041 E11.48552
G1 X89.269 Y101.874 E11.49129
G1 X90.038 Y99.745 E11.56658
G1 X90.097 Y99.61 E11.57148
G1 X91.099 Y97.637 E11.64508
G1 X91.187 Y97.491 E11.65075
G1 X92.63 Y95.435 E11.73429
G1 X92.724 Y95.317 E11.73931
G1 X93.982 Y93.934 E11.80149
G1 F1500 E11.10149
G0 F5400 X96.177 Y96.215
;TYPE:WALL-INNER
G1 F1500 E11.80149
G1 F1800 X95.928 Y96.22 E11.80977
G1 X96.178 Y95.97 E11.82153
G1 X96.177 Y96.215 E11.82968
G1 F1500 E11.12968
G0 F5400 X102.929 Y92.206
G1 F1500 E11.82968
G1 F1800 X102.805 Y92.145 E11.83428
G1 X103.142 Y92.056 E11.84587
G1 X103.021 Y92.263 E11.85385
G1 X102.929 Y92.206 E11.85745
G1 F1500 E11.15745
G0 F5400 X111.133 Y92.145
G1 F1500 E11.85745
G1 F1800 X110.925 Y92.263 E11.8654
G1 X110.797 Y92.054 E11.87355
G1 X111.133 Y92.145 E11.88513
G1 F1500 E11.18513
G0 F5400 X109.413 Y98.676
G1 F1500 E11.88513
G1 F1800 X109.645 Y98.999 E11.89836
G1 X109.907 Y99.305 E11.91175
G1 X110.198 Y99.587 E11.92523
G1 X110.512 Y99.844 E11.93873
G1 X110.845 Y100.068 E11.95208
G1 X111.196 Y100.261 E11.9654
G1 X111.564 Y100.426 E11.97881
G1 X111.947 Y100.554 E11.99224
G1 X112.335 Y100.652 E12.00555
G1 X112.731 Y100.711 E12.01887
G1 X113.135 Y100.736 E12.03233
G1 X113.251 Y100.733 E12.03619
G1 X113.251 Y100.965 E12.04391
G1 X113.287 Y101.366 E12.0573
G1 X113.357 Y101.761 E12.07064
G1 X113.464 Y102.15 E12.08406
G1 X113.603 Y102.526 E12.09739
G1 X113.775 Y102.891 E12.11081
G1 X113.979 Y103.239 E12.12423
G1 X114.215 Y103.568 E12.1377
G1 X114.477 Y103.874 E12.1511
G1 X114.761 Y104.152 E12.16431
G1 X115.073 Y104.41 E12.17778
G1 X115.409 Y104.636 E12.19125
G1 X115.759 Y104.832 E12.20459
G1 X116.128 Y104.997 E12.21803
G1 X116.509 Y105.127 E12.23142
G1 X116.895 Y105.222 E12.24465
G1 X117.297 Y105.287 E12.25819
G1 X117.704 Y105.312 E12.27175
G1 X118.115 Y105.301 E12.28543
G1 X118.514 Y105.255 E12.29879
G1 X118.772 Y105.202 E12.30755
G1 X118.687 Y105.292 E12.31166
G1 X118.443 Y105.636 E12.32569
G1 X118.26 Y106.012 E12.3396
G1 X118.138 Y106.4 E12.35313
G1 X118.076 Y106.809 E12.36689
G1 X118.076 Y107.227 E12.38079
G1 X118.143 Y107.638 E12.39464
G1 X118.266 Y108.03 E12.4083
G1 X118.453 Y108.401 E12.42212
G1 X118.69 Y108.738 E12.43583
G1 X118.767 Y108.817 E12.43949
G1 X118.491 Y108.762 E12.44885
G1 X118.096 Y108.718 E12.46207
G1 X117.695 Y108.713 E12.47541
G1 X117.293 Y108.738 E12.48881
G1 X116.899 Y108.803 E12.50209
G1 X116.509 Y108.897 E12.51543
G1 X116.123 Y109.031 E12.52902
G1 X115.762 Y109.193 E12.54218
G1 X115.411 Y109.388 E12.55554
G1 X115.073 Y109.615 E12.56908
G1 X114.761 Y109.872 E12.58252
G1 X114.475 Y110.153 E12.59586
G1 X114.215 Y110.457 E12.60916
G1 X113.979 Y110.785 E12.6226
G1 X113.775 Y111.135 E12.63608
G1 X113.603 Y111.498 E12.64944
G1 X113.464 Y111.875 E12.6628
G1 X113.357 Y112.264 E12.67622
G1 X113.287 Y112.657 E12.6895
G1 X113.251 Y113.06 E12.70296
G1 X113.251 Y113.291 E12.71064
G1 X113.118 Y113.288 E12.71506
G1 X112.706 Y113.315 E12.7288
G1 X112.307 Y113.38 E12.74224
G1 X111.922 Y113.476 E12.75544
G1 X111.538 Y113.609 E12.76896
G1 X111.169 Y113.777 E12.78244
G1 X110.818 Y113.973 E12.79581
G1 X110.489 Y114.2 E12.80911
G1 X110.181 Y114.454 E12.82238
G1 X109.891 Y114.737 E12.83586
G1 X109.621 Y115.057 E12.84979
G1 X109.365 Y115.429 E12.86481
G1 X109.272 Y115.589 E12.87096
G1 X109.179 Y115.532 E12.87459
G1 X108.819 Y115.352 E12.88798
G1 X108.446 Y115.205 E12.90131
G1 X108.06 Y115.091 E12.9147
G1 X107.664 Y115.012 E12.92813
G1 X107.257 Y114.968 E12.94174
G1 X106.86 Y114.964 E12.95495
G1 X106.459 Y114.989 E12.96831
G1 X106.058 Y115.055 E12.98183
G1 X105.672 Y115.15 E12.99505
G1 X105.286 Y115.284 E13.00864
G1 X104.922 Y115.451 E13.02196
G1 X104.678 Y115.587 E13.03125
G1 X104.646 Y115.527 E13.03351
G1 X104.421 Y115.185 E13.04713
G1 X104.171 Y114.865 E13.06064
G1 X103.891 Y114.57 E13.07416
G1 X103.592 Y114.306 E13.08743
G1 X103.275 Y114.07 E13.10057
G1 X102.929 Y113.857 E13.11409
G1 X102.565 Y113.677 E13.12759
G1 X102.195 Y113.531 E13.14082
G1 X101.81 Y113.417 E13.15418
G1 X101.414 Y113.338 E13.16761
G1 X101.01 Y113.294 E13.18113
G1 X100.697 Y113.29 E13.19154
G1 X100.681 Y112.848 E13.20625
G1 X100.626 Y112.447 E13.21971
G1 X100.536 Y112.059 E13.23296
G1 X100.413 Y111.671 E13.2465
G1 X100.253 Y111.298 E13.25999
G1 X100.067 Y110.949 E13.27315
G1 X99.845 Y110.607 E13.28671
G1 X99.598 Y110.294 E13.29997
G1 X99.325 Y110 E13.31331
G1 X99.017 Y109.729 E13.32696
G1 X98.696 Y109.491 E13.34025
G1 X98.354 Y109.282 E13.35358
G1 X97.993 Y109.102 E13.367
G1 X97.621 Y108.955 E13.3803
G1 X97.235 Y108.841 E13.39369
G1 X96.834 Y108.762 E13.40728
G1 X96.425 Y108.718 E13.42096
G1 X95.967 Y108.716 E13.4362
G1 X95.638 Y108.738 E13.44716
G1 X95.182 Y108.818 E13.46256
G1 X95.39 Y108.563 E13.47351
G1 X95.601 Y108.207 E13.48727
G1 X95.755 Y107.818 E13.50119
G1 X95.845 Y107.422 E13.51469
G1 X95.878 Y107.01 E13.52844
G1 X95.845 Y106.594 E13.54232
G1 X95.751 Y106.195 E13.55595
G1 X95.598 Y105.809 E13.56977
G1 X95.385 Y105.451 E13.58362
G1 X95.185 Y105.21 E13.59404
G1 X95.249 Y105.226 E13.59623
G1 X95.64 Y105.285 E13.60938
G1 X96.045 Y105.312 E13.62288
G1 X96.45 Y105.302 E13.63636
G1 X96.849 Y105.261 E13.6497
G1 X97.247 Y105.179 E13.66321
G1 X97.629 Y105.067 E13.67645
G1 X98.004 Y104.92 E13.68985
G1 X98.368 Y104.736 E13.70342
G1 X98.706 Y104.527 E13.71663
G1 X99.033 Y104.286 E13.73014
G1 X99.334 Y104.012 E13.74368
G1 X99.605 Y103.722 E13.75688
G1 X99.854 Y103.406 E13.77026
G1 X100.073 Y103.067 E13.78369
G1 X100.258 Y102.715 E13.79691
G1 X100.417 Y102.344 E13.81034
G1 X100.543 Y101.952 E13.82403
G1 X100.628 Y101.562 E13.83731
G1 X100.682 Y101.163 E13.8507
G1 X100.697 Y100.735 E13.86495
G1 X101.04 Y100.726 E13.87636
G1 X101.439 Y100.68 E13.88972
G1 X101.831 Y100.6 E13.90302
G1 X102.217 Y100.485 E13.91642
G1 X102.591 Y100.337 E13.9298
G1 X102.952 Y100.156 E13.94323
G1 X103.3 Y99.94 E13.95685
G1 X103.617 Y99.699 E13.9701
G1 X103.912 Y99.435 E13.98326
G1 X104.191 Y99.135 E13.99689
G1 X104.433 Y98.823 E14.01002
G1 X104.678 Y98.438 E14.0252
G1 X104.948 Y98.585 E14.03543
G1 X105.314 Y98.751 E14.04879
G1 X105.698 Y98.88 E14.06227
G1 X106.079 Y98.973 E14.07531
G1 X106.48 Y99.038 E14.08882
G1 X106.892 Y99.062 E14.10255
G1 X107.29 Y99.051 E14.11579
G1 X107.689 Y99.005 E14.12915
G1 X108.081 Y98.925 E14.14246
G1 X108.467 Y98.81 E14.15585
G1 X108.841 Y98.662 E14.16923
