;FLAVOR:Marlin
;TIME:1846
;Filament used: 1.8125m
;Layer height: 0.2
;Generated with Cura_SteamEngine 3.1.0
M190 S60
M104 S215
M109 S215
M82 ; absolute extrusion mode
G28 ;Home
G1 Z15.0 F6000 ;Move the platform down 15mm
;Prime the extruder
G92 E0
G1 F200 E3
G92 E0
;LAYER_COUNT:173
;LAYER:0
M107
G0 F5400 X93.148 Y93.746 Z0.2
;TYPE:SKIRT
G1 F1800 X93.572 Y93.481 E0.01663
G1 X103.288 Y89.006 E0.37241
G1 X105.296 Y88.025 E0.44674
G1 X105.671 Y87.886 E0.46005
G1 X106.177 Y87.822 E0.47701
G1 X107.969 Y87.825 E0.53661
G1 X108.18 Y87.836 E0.54364
G1 X110.01 Y88.033 E0.60486
G1 X110.193 Y88.062 E0.61102
G1 X111.545 Y88.336 E0.6569
G1 X111.721 Y88.38 E0.66294
G1 X113.412 Y88.886 E0.72164
G1 X113.616 Y88.959 E0.72885
G1 X115.417 Y89.718 E0.79385
G1 X115.619 Y89.817 E0.80134
G1 X117.316 Y90.77 E0.86607
G1 X117.493 Y90.882 E0.87304
G1 X118.849 Y91.842 E0.92829
G1 X119.009 Y91.968 E0.93507
G1 X120.406 Y93.188 E0.99676
G1 X120.561 Y93.338 E1.00393
G1 X121.835 Y94.72 E1.06645
G1 X121.977 Y94.894 E1.07392
G1 X123.145 Y96.488 E1.13964
G1 X123.261 Y96.666 E1.14671
G1 X124.127 Y98.157 E1.20406
G1 X124.22 Y98.337 E1.2108
G1 X124.954 Y99.96 E1.27004
G1 X125.025 Y100.139 E1.27645
G1 X125.511 Y101.566 E1.32659
G1 X125.558 Y101.724 E1.33207
G1 X125.895 Y103.066 E1.37809
G1 X125.932 Y103.253 E1.38443
G1 X126.215 Y105.119 E1.4472
G1 X126.236 Y105.329 E1.45422
G1 X126.316 Y107.096 E1.51305
G1 X126.314 Y107.31 E1.52017
G1 X126.195 Y109.224 E1.58395
G1 X126.169 Y109.442 E1.59126
G1 X125.846 Y111.301 E1.65401
G1 X125.806 Y111.483 E1.66021
G1 X125.467 Y112.731 E1.70322
G1 X125.414 Y112.898 E1.70905
G1 X124.804 Y114.555 E1.76778
G1 X124.717 Y114.756 E1.77506
G1 X123.803 Y116.589 E1.84319
G1 X123.665 Y116.825 E1.85228
G1 X122.18 Y119 E1.93988
G1 X122.039 Y119.182 E1.94753
G1 X121.189 Y120.162 E1.99068
G1 X120.898 Y120.437 E2.004
G1 X120.573 Y120.641 E2.01676
G1 X117.34 Y122.258 E2.13699
G1 X117.219 Y122.313 E2.14141
G1 X114.433 Y123.482 E2.2419
G1 X108.861 Y126.127 E2.44705
G1 X108.484 Y126.261 E2.46035
G1 X108.015 Y126.32 E2.47607
G1 X106.241 Y126.331 E2.53508
G1 X106.046 Y126.323 E2.54157
G1 X104.509 Y126.182 E2.59291
G1 X104.306 Y126.152 E2.59973
G1 X102.393 Y125.776 E2.66458
G1 X102.201 Y125.729 E2.67115
G1 X100.75 Y125.291 E2.72156
G1 X100.57 Y125.227 E2.72792
G1 X98.948 Y124.563 E2.78621
G1 X98.767 Y124.478 E2.79286
G1 X97.194 Y123.641 E2.85212
G1 X97.003 Y123.525 E2.85956
G1 X95.337 Y122.384 E2.92672
G1 X95.138 Y122.229 E2.93511
G1 X93.402 Y120.686 E3.01236
G1 X93.253 Y120.538 E3.01934
G1 X92.35 Y119.547 E3.06393
G1 X92.233 Y119.407 E3.07
G1 X91.145 Y117.969 E3.12998
G1 X91.024 Y117.79 E3.13716
G1 X90.035 Y116.139 E3.20117
G1 X89.93 Y115.937 E3.20875
G1 X89.102 Y114.111 E3.27543
G1 X89.031 Y113.934 E3.28177
G1 X88.624 Y112.747 E3.32351
G1 X88.577 Y112.59 E3.32896
G1 X88.17 Y110.985 E3.38403
G1 X88.133 Y110.804 E3.39018
G1 X87.907 Y109.366 E3.43859
G1 X87.886 Y109.169 E3.44518
G1 X87.772 Y107.17 E3.51178
G1 X87.772 Y106.954 E3.51896
G1 X87.86 Y105.227 E3.57648
G1 X87.885 Y104.993 E3.5843
G1 X88.277 Y102.695 E3.66184
G1 X88.319 Y102.508 E3.66821
G1 X88.579 Y101.549 E3.70126
G1 X88.635 Y101.374 E3.70737
G1 X89.383 Y99.364 E3.77871
G1 X89.479 Y99.146 E3.78663
G1 X90.391 Y97.375 E3.85288
G1 X90.495 Y97.196 E3.85977
G1 X91.357 Y95.878 E3.91215
G1 X91.487 Y95.702 E3.91943
G1 X92.865 Y94.027 E3.99157
G1 X93.148 Y93.746 E4.00483
G0 F5400 X93.43 Y94.033
G1 F1800 X93.74 Y93.845 E4.01689
G1 X103.423 Y89.385 E4.37147
G1 X105.472 Y88.384 E4.44732
G1 X105.808 Y88.264 E4.45918
G1 X106.177 Y88.222 E4.47154
G1 X107.969 Y88.225 E4.53114
G1 X108.137 Y88.234 E4.53673
G1 X109.967 Y88.431 E4.59795
G1 X110.114 Y88.454 E4.6029
G1 X111.466 Y88.728 E4.64878
G1 X111.607 Y88.763 E4.65361
G1 X113.298 Y89.269 E4.71232
G1 X113.46 Y89.328 E4.71806
G1 X115.261 Y90.087 E4.78306
G1 X115.423 Y90.166 E4.78905
G1 X117.12 Y91.119 E4.85379
G1 X117.262 Y91.208 E4.85936
G1 X118.618 Y92.168 E4.91462
G1 X118.745 Y92.269 E4.92002
G1 X120.142 Y93.489 E4.98171
G1 X120.266 Y93.61 E4.98747
G1 X121.54 Y94.992 E5.04998
G1 X121.655 Y95.13 E5.05596
G1 X122.823 Y96.724 E5.12169
G1 X122.916 Y96.866 E5.12733
G1 X123.782 Y98.357 E5.18468
G1 X123.856 Y98.502 E5.19009
G1 X124.59 Y100.125 E5.24934
G1 X124.647 Y100.268 E5.25446
G1 X125.133 Y101.695 E5.3046
G1 X125.17 Y101.821 E5.30897
G1 X125.507 Y103.163 E5.35499
G1 X125.537 Y103.313 E5.36008
G1 X125.82 Y105.179 E5.42285
G1 X125.836 Y105.347 E5.42846
G1 X125.916 Y107.114 E5.48729
G1 X125.915 Y107.285 E5.49298
G1 X125.796 Y109.199 E5.55676
G1 X125.775 Y109.374 E5.56263
G1 X125.452 Y111.233 E5.62538
G1 X125.42 Y111.378 E5.63032
G1 X125.081 Y112.626 E5.67333
G1 X125.038 Y112.76 E5.67801
G1 X124.428 Y114.417 E5.73674
G1 X124.359 Y114.578 E5.74257
G1 X123.445 Y116.411 E5.81069
G1 X123.334 Y116.599 E5.81795
G1 X121.849 Y118.774 E5.90555
G1 X121.737 Y118.92 E5.91167
G1 X120.887 Y119.9 E5.95482
G1 X120.624 Y120.142 E5.9667
G1 X120.394 Y120.283 E5.97568
G1 X117.161 Y121.9 E6.09591
G1 X117.064 Y121.944 E6.09945
G1 X114.259 Y123.121 E6.20062
G1 X108.689 Y125.765 E6.40569
G1 X108.351 Y125.882 E6.41759
G1 X108.013 Y125.92 E6.4289
G1 X106.239 Y125.931 E6.48791
G1 X106.083 Y125.924 E6.4931
G1 X104.546 Y125.783 E6.54444
G1 X104.383 Y125.76 E6.54991
G1 X102.47 Y125.384 E6.61476
G1 X102.317 Y125.346 E6.62
G1 X100.866 Y124.908 E6.67041
G1 X100.722 Y124.857 E6.67549
G1 X99.1 Y124.193 E6.73379
G1 X98.954 Y124.124 E6.73916
G1 X97.381 Y123.287 E6.79842
G1 X97.229 Y123.195 E6.80433
G1 X95.563 Y122.054 E6.87149
G1 X95.404 Y121.93 E6.8782
G1 X93.668 Y120.387 E6.95545
G1 X93.548 Y120.269 E6.96105
G1 X92.645 Y119.278 E7.00564
G1 X92.552 Y119.165 E7.01051
G1 X91.464 Y117.727 E7.07048
G1 X91.367 Y117.584 E7.07623
G1 X90.378 Y115.933 E7.14024
G1 X90.294 Y115.772 E7.14628
G1 X89.466 Y113.946 E7.21296
G1 X89.409 Y113.804 E7.21805
G1 X89.002 Y112.617 E7.25979
G1 X88.965 Y112.491 E7.26416
G1 X88.558 Y110.886 E7.31923
G1 X88.528 Y110.741 E7.32415
G1 X88.302 Y109.303 E7.37257
G1 X88.286 Y109.146 E7.37782
G1 X88.172 Y107.147 E7.44441
G1 X88.171 Y106.975 E7.45013
G1 X88.259 Y105.248 E7.50765
G1 X88.28 Y105.06 E7.51394
G1 X88.672 Y102.762 E7.59148
G1 X88.705 Y102.612 E7.59658
G1 X88.965 Y101.653 E7.62963
G1 X89.009 Y101.514 E7.63448
G1 X89.757 Y99.504 E7.70581
G1 X89.835 Y99.329 E7.71219
G1 X90.747 Y97.558 E7.77844
G1 X90.83 Y97.415 E7.78394
G1 X91.692 Y96.097 E7.83632
G1 X91.795 Y95.956 E7.84213
G1 X93.173 Y94.281 E7.91427
G1 X93.43 Y94.033 E7.92615
G0 F5400 X93.708 Y94.324
G1 F1800 X93.907 Y94.208 E7.93381
G1 X103.623 Y89.733 E8.28959
G1 X105.647 Y88.744 E8.36452
G1 X105.94 Y88.645 E8.3748
G1 X106.176 Y88.622 E8.38269
G1 X107.968 Y88.625 E8.44229
G1 X108.094 Y88.632 E8.44649
G1 X109.924 Y88.829 E8.50771
G1 X110.034 Y88.846 E8.51141
G1 X111.386 Y89.12 E8.55729
G1 X111.492 Y89.146 E8.56092
G1 X113.183 Y89.652 E8.61963
G1 X113.305 Y89.696 E8.62394
G1 X115.106 Y90.455 E8.68895
G1 X115.228 Y90.515 E8.69347
G1 X116.925 Y91.468 E8.7582
G1 X117.03 Y91.535 E8.76235
G1 X118.386 Y92.495 E8.8176
G1 X118.482 Y92.57 E8.82166
G1 X119.879 Y93.79 E8.88334
G1 X119.972 Y93.881 E8.88767
G1 X121.246 Y95.263 E8.95019
G1 X121.332 Y95.367 E8.95468
G1 X122.5 Y96.961 E9.0204
G1 X122.57 Y97.067 E9.02463
G1 X123.436 Y98.558 E9.08198
G1 X123.491 Y98.667 E9.08604
G1 X124.225 Y100.29 E9.14528
G1 X124.268 Y100.397 E9.14912
G1 X124.754 Y101.824 E9.19926
G1 X124.782 Y101.919 E9.20255
G1 X125.119 Y103.261 E9.24857
G1 X125.141 Y103.373 E9.25237
G1 X125.424 Y105.239 E9.31514
G1 X125.437 Y105.365 E9.31936
G1 X125.517 Y107.132 E9.37819
G1 X125.516 Y107.26 E9.38244
G1 X125.397 Y109.174 E9.44623
G1 X125.381 Y109.305 E9.45062
G1 X125.058 Y111.164 E9.51337
G1 X125.034 Y111.274 E9.51712
G1 X124.695 Y112.522 E9.56013
G1 X124.663 Y112.622 E9.56362
G1 X124.053 Y114.279 E9.62235
G1 X124.001 Y114.399 E9.6267
G1 X123.087 Y116.232 E9.69482
G1 X123.004 Y116.374 E9.7003
G1 X121.519 Y118.549 E9.78789
G1 X121.435 Y118.658 E9.79247
G1 X120.585 Y119.638 E9.83561
G1 X120.354 Y119.844 E9.84591
G1 X120.215 Y119.925 E9.85126
G1 X116.982 Y121.542 E9.97149
G1 X116.909 Y121.576 E9.97417
G1 X114.093 Y122.758 E10.07574
G1 X108.518 Y125.404 E10.28099
G1 X108.223 Y125.5 E10.29131
G1 X108.01 Y125.52 E10.29843
G1 X106.236 Y125.531 E10.35743
G1 X106.119 Y125.526 E10.36133
G1 X104.582 Y125.385 E10.41266
G1 X104.461 Y125.367 E10.41673
G1 X102.548 Y124.991 E10.48158
G1 X102.432 Y124.963 E10.48554
G1 X100.981 Y124.525 E10.53596
G1 X100.873 Y124.487 E10.53976
G1 X99.251 Y123.823 E10.59806
G1 X99.142 Y123.771 E10.60207
G1 X97.569 Y122.934 E10.66134
G1 X97.455 Y122.865 E10.66577
G1 X95.789 Y121.724 E10.73293
G1 X95.67 Y121.631 E10.73795
G1 X93.934 Y120.088 E10.8152
G1 X93.844 Y119.999 E10.81941
G1 X92.941 Y119.008 E10.86401
G1 X92.871 Y118.924 E10.86764
G1 X91.783 Y117.486 E10.92762
G1 X91.711 Y117.379 E10.93191
G1 X90.722 Y115.728 E10.99592
G1 X90.658 Y115.607 E11.00047
G1 X89.83 Y113.781 E11.06716
G1 X89.788 Y113.674 E11.07098
G1 X89.381 Y112.487 E11.11272
G1 X89.353 Y112.393 E11.11598
G1 X88.946 Y110.788 E11.17105
G1 X88.924 Y110.679 E11.17475
G1 X88.698 Y109.241 E11.22316
G1 X88.685 Y109.123 E11.22711
G1 X88.571 Y107.124 E11.29371
G1 X88.571 Y106.995 E11.298
G1 X88.659 Y105.268 E11.35551
G1 X88.674 Y105.127 E11.36023
G1 X89.066 Y102.829 E11.43776
G1 X89.091 Y102.717 E11.44158
G1 X89.351 Y101.758 E11.47463
G1 X89.384 Y101.653 E11.47829
G1 X90.132 Y99.643 E11.54962
G1 X90.19 Y99.513 E11.55436
G1 X91.102 Y97.742 E11.62061
G1 X91.165 Y97.634 E11.62477
G1 X92.027 Y96.316 E11.67715
G1 X92.104 Y96.211 E11.68148
G1 X93.482 Y94.536 E11.75362
G1 X93.708 Y94.324 E11.76393
G1 F1500 E11.06393
G0 F5400 X97.97 Y93.867
;TYPE:SUPPORT
G1 F1500 E11.76393
G1 F1800 X100.714 Y93.176 E11.85804
G1 X100.982 Y93.04 E11.86804
G1 X103.327 Y92.965 E11.94607
G1 X103.353 Y92.987 E11.94721
G1 X103.833 Y93.095 E11.96357
G1 X104.701 Y92.886 E11.99327
G1 X107.506 Y93.278 E12.08747
G1 X107.892 Y93.402 E12.10095
G1 X107.924 Y93.404 E12.10202
G1 X108 Y93.491 E12.10586
G1 X108.388 Y93.523 E12.11881
G1 X108.438 Y93.577 E12.12126
G1 X108.896 Y93.648 E12.13667
G1 X108.981 Y93.735 E12.14072
G1 X109.178 Y93.769 E12.14737
G1 X109.196 Y93.788 E12.14824
G1 X109.365 Y93.822 E12.15397
G1 X109.437 Y93.905 E12.15763
G1 X109.62 Y93.935 E12.16379
G1 X109.651 Y93.979 E12.16558
G1 X109.887 Y94.036 E12.17366
G1 X109.929 Y94.089 E12.17591
G1 X110.117 Y94.136 E12.18235
G1 X110.17 Y94.208 E12.18533
G1 X110.421 Y94.276 E12.19398
G1 X110.457 Y94.323 E12.19594
G1 X110.671 Y94.389 E12.20339
G1 X110.71 Y94.448 E12.20575
G1 X110.989 Y94.546 E12.21558
G1 X111.042 Y94.619 E12.21858
G1 X111.254 Y94.693 E12.22605
G1 X111.306 Y94.769 E12.22911
G1 X111.584 Y94.877 E12.23903
G1 X111.614 Y94.923 E12.24086
G1 X111.903 Y95.051 E12.25137
G1 X111.956 Y95.125 E12.2544
G1 X112.191 Y95.229 E12.26295
G1 X112.21 Y95.265 E12.2643
G1 X112.845 Y95.602 E12.28821
G1 X112.947 Y95.779 E12.29501
G1 X113.282 Y95.969 E12.30781
G1 X113.327 Y96.055 E12.31104
G1 X113.791 Y96.34 E12.32915
G1 X113.916 Y96.595 E12.3386
G1 X114.412 Y96.963 E12.35914
G1 X114.465 Y97.077 E12.36332
G1 X114.465 Y98.674 E12.41644
G1 X113.146 Y97.861 E12.46797
G1 X112.811 Y97.62 E12.4817
G1 X111.759 Y97.084 E12.52097
G1 X111.206 Y96.845 E12.54101
G1 X110.858 Y96.707 E12.55346
G1 X110.685 Y96.648 E12.55954
G1 X110.325 Y96.45 E12.5732
G1 X110.07 Y96.373 E12.58206
G1 X109.72 Y96.213 E12.59486
G1 X109.538 Y96.165 E12.60112
G1 X109.168 Y96.015 E12.6144
G1 X108.63 Y95.901 E12.63269
G1 X108.245 Y95.718 E12.64687
G1 X104.613 Y95.236 E12.76873
G1 X103.409 Y95.248 E12.80878
G1 X102.99 Y95.281 E12.82276
G1 X101.272 Y95.705 E12.88161
G1 X101.034 Y95.579 E12.89057
G1 X99.701 Y95.949 E12.93658
G1 X99.674 Y95.968 E12.93768
G1 X99.376 Y96.048 E12.94794
G1 X99.317 Y96.082 E12.95021
G1 X98.973 Y96.192 E12.96222
G1 X98.511 Y96.36 E12.97857
G1 X98.312 Y96.441 E12.98571
G1 X98.312 Y96.221 E12.99303
G1 X98.129 Y96.039 E13.00162
G1 X98.128 Y94.131 E13.06508
G1 X97.97 Y93.867 E13.07531
G0 F5400 X98.236 Y94
G1 F1800 X109.308 Y94 E13.44357
G0 F5400 X110 Y94.273
G1 F1800 X110 Y96.165 E13.50649
G0 F5400 X109.556 Y96
G1 F1800 X113.013 Y96 E13.62147
G1 F1500 E12.92147
G0 F5400 X112 Y95.32
G1 F1500 E13.62147
G1 F1800 X112 Y97.027 E13.67825
G1 F1500 E12.97825
G0 F5400 X113.676 Y98
G1 F1500 E13.67825
G1 F1800 X114.305 Y98 E13.69917
G0 F5400 X114 Y98.199
G1 F1800 X114 Y96.857 E13.74381
G1 F1500 E13.04381
G0 F5400 X108 Y95.524
G1 F1500 E13.74381
G1 F1800 X108 Y93.652 E13.80607
G1 F1500 E13.10607
G0 F5400 X106 Y93.229
G1 F1500 E13.80607
G1 F1800 X106 Y95.259 E13.87359
G1 F1500 E13.17359
G0 F5400 X104 Y95.083
G1 F1500 E13.87359
G1 F1800 X104 Y93.219 E13.93558
G1 F1500 E13.23558
G0 F5400 X102 Y93.167
G1 F1500 E13.93558
G1 F1800 X102 Y95.361 E14.00856
G1 F1500 E13.30856
G0 F5400 X100 Y95.701
G1 F1500 E14.00856
G1 F1800 X100 Y93.52 E14.0811
G1 F1500 E13.3811
G0 F5400 X99.048 Y96
G1 F1500 E14.0811
G1 F1800 X98.316 Y96 E14.10544
G1 F1500 E13.40544
G0 F5400 X97.334 Y105.065
G1 F1500 E14.10544
G1 F1800 X98.143 Y106.249 E14.15314
G1 X98.121 Y106.943 E14.17623
G1 X98.125 Y107.288 E14.18771
G1 X98.161 Y107.9 E14.2081
G1 X97.339 Y109.033 E14.25465
G1 X96.67 Y108.935 E14.27714
G1 X96.709 Y108.867 E14.27975
G1 X96.855 Y108.554 E14.29124
G1 X96.967 Y108.239 E14.30236
G1 X97.055 Y107.913 E14.31359
G1 X97.114 Y107.562 E14.32543
G1 X97.141 Y107.254 E14.33571
G1 X97.141 Y106.881 E14.34812
G1 X97.116 Y106.585 E14.358
G1 X97.05 Y106.219 E14.37036
G1 X96.975 Y105.93 E14.3803
G1 X96.827 Y105.542 E14.39411
G1 X96.708 Y105.282 E14.40362
G1 X96.656 Y105.19 E14.40713
G1 X97.334 Y105.065 E14.43006
G1 F1500 E13.73006
G0 F5400 X97.158 Y106
G1 F1500 E14.43006
G1 F1800 X97.779 Y106 E14.45072
G1 F1500 E13.75072
G0 F5400 X97.891 Y108
G1 F1500 E14.45072
G1 F1800 X97.198 Y108 E14.47377
G1 F1500 E13.77377
G0 F5400 X105.443 Y106.898
G1 F1500 E14.47377
G1 F1800 X105.596 Y106.483 E14.48848
G1 X105.657 Y106.358 E14.4931
G1 X105.748 Y106.201 E14.49914
G1 X105.944 Y105.949 E14.50976
G1 X106.082 Y105.832 E14.51578
G1 X106.257 Y105.72 E14.52269
G1 X106.412 Y105.648 E14.52837
G1 X106.602 Y105.578 E14.5351
G1 X106.783 Y105.531 E14.54132
G1 X106.982 Y105.515 E14.54796
G1 X107.25 Y105.518 E14.55688
G1 X107.404 Y105.542 E14.56206
G1 X107.623 Y105.619 E14.56978
G1 X108.012 Y105.845 E14.58475
G1 X108.176 Y105.992 E14.59207
G1 X108.42 Y106.32 E14.60567
G1 X108.464 Y106.402 E14.60876
G1 X108.602 Y106.827 E14.62363
G1 X108.605 Y107.251 E14.63773
G1 X108.576 Y107.396 E14.64265
G1 X108.516 Y107.596 E14.64959
G1 X108.415 Y107.828 E14.65801
G1 X108.373 Y107.898 E14.66072
G1 X108.211 Y108.122 E14.66992
G1 X108.104 Y108.227 E14.6749
G1 X107.891 Y108.396 E14.68395
G1 X107.795 Y108.458 E14.68775
G1 X107.615 Y108.532 E14.69422
G1 X107.386 Y108.592 E14.7021
G1 X107.23 Y108.615 E14.70734
G1 X107.021 Y108.635 E14.71432
G1 X106.906 Y108.63 E14.71815
G1 X106.669 Y108.596 E14.72611
G1 X106.514 Y108.552 E14.73147
G1 X106.282 Y108.444 E14.73999
G1 X106.025 Y108.273 E14.75025
G1 X105.939 Y108.197 E14.75407
G1 X105.781 Y107.998 E14.76252
G1 X105.723 Y107.903 E14.76622
G1 X105.598 Y107.659 E14.77534
G1 X105.534 Y107.478 E14.78173
G1 X105.51 Y107.386 E14.78489
G1 X105.443 Y106.898 E14.80127
G1 F1500 E14.10127
G0 F5400 X106 Y106.138
G1 F1500 E14.80127
G1 F1800 X106 Y108.016 E14.86373
G0 F5400 X105.986 Y108
G1 F1800 X108.102 Y108 E14.93411
G0 F5400 X108 Y108.105
G1 F1800 X108 Y106.049 E15.0025
G0 F5400 X107.946 Y106
G1 F1800 X106.132 Y106 E15.06283
G1 F1500 E14.36283
G0 F5400 X115.946 Y106.201
G1 F1500 E15.06283
G1 F1800 X116.746 Y105.11 E15.10783
G1 X117.42 Y105.21 E15.13049
G1 X117.37 Y105.302 E15.13397
G1 X117.218 Y105.636 E15.14618
G1 X117.114 Y105.929 E15.15652
G1 X117.032 Y106.249 E15.16751
G1 X116.976 Y106.571 E15.17838
G1 X116.947 Y106.88 E15.1887
G1 X116.947 Y107.261 E15.20137
G1 X116.976 Y107.575 E15.21186
G1 X117.045 Y107.952 E15.22461
G1 X117.072 Y108.057 E15.22821
G1 X117.072 Y108.198 E15.2329
G1 X117.368 Y108.847 E15.25663
G1 X117.418 Y108.936 E15.26002
G1 X116.697 Y109.036 E15.28423
G1 X115.945 Y107.897 E15.32963
G1 X115.965 Y107.277 E15.35026
G1 X115.968 Y106.709 E15.36915
G1 X115.946 Y106.201 E15.38606
G0 F5400 X116.292 Y106
